;FLAVOR:Marlin
;TIME:7645
;Filament used: 6.31389m, 1.35127m
;Layer height: 0.2
;MINX:163.685
;MINY:8.424
;MINZ:0.2
;MAXX:236.315
;MAXY:175.315
;MAXZ:22
;Generated with Cura_SteamEngine 4.6.1
T0
M140 S50
M105
M190 S50
M104 S205
M104 T1 S180
M105
M109 S205
M105
M109 T1 S180
M82 ;absolute extrusion mode
G28 ;Home
G1 Z15.0 F6000 ;Move the platform down 15mm
;Prime the extruder
G92 E0
G1 F200 E3
G92 E0
G92 E0
G92 E0
G1 F4200 E-8
;LAYER_COUNT:110
;LAYER:0
M107
G1 F600 Z0.6
G0 F1600 X201.631 Y9.781 Z0.6
;TYPE:SKIRT
G1 F600 Z0.2
G1 F4200 E0
G1 F1200 X202.349 Y9.862 E0.02283
G1 X202.856 Y9.962 E0.03916
G1 X203.502 Y10.144 E0.06037
G1 X205.294 Y10.686 E0.11952
G1 X206.003 Y10.913 E0.14304
G1 X206.487 Y11.113 E0.15959
G1 X207.091 Y11.423 E0.18104
G1 X208.696 Y12.282 E0.23856
G1 X209.364 Y12.65 E0.26266
G1 X209.803 Y12.943 E0.27934
G1 X210.294 Y13.332 E0.29913
G1 X211.727 Y14.507 E0.35768
G1 X212.327 Y15.014 E0.3825
G1 X212.701 Y15.387 E0.39919
G1 X213.127 Y15.889 E0.42
G1 X214.294 Y17.31 E0.4781
G1 X214.763 Y17.898 E0.50186
G1 X215.056 Y18.335 E0.51849
G1 X215.386 Y18.928 E0.53993
G1 X216.269 Y20.578 E0.59906
G1 X216.598 Y21.214 E0.62169
G1 X216.8 Y21.701 E0.63835
G1 X217.014 Y22.367 E0.66045
G1 X217.521 Y24.041 E0.71572
G1 X217.747 Y24.821 E0.74137
G1 X217.852 Y25.347 E0.75832
G1 X217.93 Y26.031 E0.78008
G1 X218.107 Y27.805 E0.83641
G1 X218.175 Y28.59 E0.8613
G1 X218.174 Y29.133 E0.87846
G1 X218.113 Y29.846 E0.90107
G1 X217.94 Y31.609 E0.95704
G1 X217.853 Y32.368 E0.98118
G1 X217.752 Y32.881 E0.9977
G1 X217.572 Y33.512 E1.01844
G1 X217.028 Y35.308 E1.07773
G1 X216.458 Y37.096 E1.13703
G1 X215.542 Y40.074 E1.23548
G1 X214.823 Y42.706 E1.32169
G1 X214.171 Y45.386 E1.40884
G1 X213.594 Y48.085 E1.49605
G1 X213.101 Y50.777 E1.58252
G1 X212.689 Y53.443 E1.66776
G1 X212.343 Y56.178 E1.75486
G1 X212.077 Y58.919 E1.84188
G1 X211.89 Y61.63 E1.92774
G1 X211.781 Y64.347 E2.01366
G1 X211.747 Y67.1 E2.10065
G1 X211.791 Y69.855 E2.18772
G1 X211.911 Y72.568 E2.27352
G1 X212.112 Y75.318 E2.36065
G1 X212.39 Y78.056 E2.4476
G1 X212.739 Y80.75 E2.53344
G1 X213.168 Y83.445 E2.61966
G1 X213.674 Y86.144 E2.70643
G1 X214.253 Y88.806 E2.79251
G1 X214.912 Y91.47 E2.87922
G1 X215.642 Y94.104 E2.96558
G1 X216.454 Y96.74 E3.05274
G1 X217.337 Y99.341 E3.13953
G1 X218.279 Y101.877 E3.22501
G1 X219.312 Y104.435 E3.31217
G1 X220.411 Y106.948 E3.39884
G1 X221.574 Y109.417 E3.48507
G1 X222.806 Y111.85 E3.57124
G1 X224.119 Y114.272 E3.65829
G1 X225.488 Y116.634 E3.74456
G1 X226.933 Y118.972 E3.8314
G1 X228.434 Y121.256 E3.91776
G1 X230.005 Y123.502 E4.00436
G1 X231.621 Y125.681 E4.09008
G1 X233.787 Y128.421 E4.20044
G1 X234.006 Y128.736 E4.21256
G1 X234.339 Y129.281 E4.23274
G1 X234.557 Y129.706 E4.24784
G1 X234.763 Y130.195 E4.2646
G1 X234.912 Y130.636 E4.27931
G1 X235.058 Y131.275 E4.30002
G1 X235.126 Y131.733 E4.31465
G1 X235.16 Y132.137 E4.32746
G1 X235.182 Y133.236 E4.36219
G1 X235.19 Y166.677 E5.41883
G1 X235.179 Y167.538 E5.44604
G1 X235.147 Y168.118 E5.46439
G1 X235.064 Y168.715 E5.48344
G1 X234.833 Y169.588 E5.51197
G1 X234.679 Y170.013 E5.52626
G1 X234.503 Y170.408 E5.53992
G1 X234.316 Y170.766 E5.55268
G1 X234.044 Y171.214 E5.56924
G1 X233.788 Y171.576 E5.58325
G1 X233.334 Y172.1 E5.60516
G1 X232.961 Y172.465 E5.62165
G1 X232.63 Y172.748 E5.63541
G1 X232.06 Y173.143 E5.65732
G1 X231.618 Y173.397 E5.67343
G1 X231.266 Y173.572 E5.68585
G1 X230.819 Y173.76 E5.70117
G1 X230.378 Y173.908 E5.71587
G1 X229.721 Y174.059 E5.73717
G1 X229.259 Y174.127 E5.75193
G1 X228.858 Y174.16 E5.76464
G1 X227.765 Y174.182 E5.79918
G1 X172.213 Y174.19 E7.55447
G1 X171.629 Y174.182 E7.57292
G1 X171.007 Y174.155 E7.59259
G1 X170.19 Y174.041 E7.61866
G1 X169.798 Y173.949 E7.63138
G1 X169.361 Y173.817 E7.6458
G1 X168.98 Y173.675 E7.65865
G1 X168.56 Y173.487 E7.67319
G1 X167.87 Y173.096 E7.69825
G1 X167.549 Y172.872 E7.71062
G1 X167.173 Y172.574 E7.72578
G1 X166.876 Y172.307 E7.7384
G1 X166.528 Y171.952 E7.7541
G1 X166.23 Y171.6 E7.76868
G1 X165.846 Y171.043 E7.79005
G1 X165.617 Y170.645 E7.80456
G1 X165.442 Y170.292 E7.81701
G1 X165.236 Y169.803 E7.83378
G1 X165.086 Y169.358 E7.84862
G1 X164.94 Y168.717 E7.86939
G1 X164.863 Y168.189 E7.88625
G1 X164.831 Y167.81 E7.89827
G1 X164.813 Y167.1 E7.92071
G1 X164.81 Y133.256 E8.99008
G1 X164.822 Y132.411 E9.01678
G1 X164.852 Y131.876 E9.03371
G1 X164.96 Y131.165 E9.05644
G1 X165.181 Y130.364 E9.08269
G1 X165.324 Y129.978 E9.0957
G1 X165.499 Y129.587 E9.10923
G1 X165.68 Y129.242 E9.12154
G1 X165.954 Y128.788 E9.1383
G1 X166.145 Y128.507 E9.14903
G1 X167.757 Y126.384 E9.23326
G1 X169.373 Y124.128 E9.32094
G1 X170.891 Y121.875 E9.40678
G1 X172.355 Y119.563 E9.49325
G1 X173.768 Y117.188 E9.58057
G1 X175.086 Y114.821 E9.66617
G1 X176.367 Y112.359 E9.75387
G1 X177.557 Y109.906 E9.84001
G1 X178.666 Y107.444 E9.92533
G1 X179.745 Y104.859 E10.01384
G1 X180.713 Y102.334 E10.09929
G1 X181.616 Y99.767 E10.18527
G1 X182.463 Y97.128 E10.27284
G1 X183.215 Y94.529 E10.35833
G1 X183.908 Y91.855 E10.44561
G1 X184.524 Y89.176 E10.53247
G1 X185.05 Y86.524 E10.6179
G1 X185.512 Y83.815 E10.70473
G1 X185.898 Y81.085 E10.79185
G1 X186.202 Y78.384 E10.87773
G1 X186.433 Y75.641 E10.96471
G1 X186.584 Y72.926 E11.05063
G1 X186.659 Y70.173 E11.13765
G1 X186.657 Y67.454 E11.22356
G1 X186.576 Y64.703 E11.31052
G1 X186.417 Y61.95 E11.39765
G1 X186.185 Y59.244 E11.48347
G1 X185.876 Y56.544 E11.56934
G1 X185.483 Y53.808 E11.65668
G1 X185.017 Y51.101 E11.74347
G1 X184.478 Y48.43 E11.82956
G1 X183.865 Y45.775 E11.91566
G1 X183.17 Y43.114 E12.00256
G1 X182.407 Y40.498 E12.08866
G1 X181.262 Y37.009 E12.20469
G1 X180.926 Y36.044 E12.23698
G1 X180.716 Y35.387 E12.25877
G1 X180.186 Y33.642 E12.3164
G1 X179.969 Y32.891 E12.3411
G1 X179.865 Y32.368 E12.35795
G1 X179.788 Y31.693 E12.37941
G1 X179.607 Y29.862 E12.43755
G1 X179.545 Y29.129 E12.46079
G1 X179.545 Y28.597 E12.4776
G1 X179.599 Y27.946 E12.49824
G1 X179.779 Y26.11 E12.55653
G1 X179.862 Y25.374 E12.57993
G1 X179.962 Y24.866 E12.59629
G1 X180.156 Y24.178 E12.61888
G1 X180.686 Y22.426 E12.67672
G1 X180.913 Y21.717 E12.70024
G1 X181.113 Y21.232 E12.71682
G1 X181.423 Y20.628 E12.73827
G1 X182.28 Y19.025 E12.7957
G1 X182.657 Y18.344 E12.8203
G1 X182.951 Y17.904 E12.83702
G1 X183.336 Y17.42 E12.85656
G1 X184.507 Y15.992 E12.91491
G1 X185.014 Y15.392 E12.93973
G1 X185.387 Y15.018 E12.95642
G1 X185.889 Y14.592 E12.97722
G1 X187.31 Y13.425 E13.03532
G1 X187.909 Y12.948 E13.05952
G1 X188.342 Y12.658 E13.07598
G1 X188.928 Y12.332 E13.09717
G1 X190.578 Y11.45 E13.15629
G1 X191.214 Y11.121 E13.17891
G1 X191.701 Y10.919 E13.19557
G1 X192.323 Y10.719 E13.21622
G1 X194.078 Y10.186 E13.27417
G1 X194.827 Y9.97 E13.2988
G1 X195.352 Y9.864 E13.31573
G1 X196.011 Y9.789 E13.33668
G1 X197.839 Y9.609 E13.39472
G1 X198.594 Y9.545 E13.41866
G1 X199.125 Y9.545 E13.43544
G1 X199.753 Y9.597 E13.45535
G1 X201.631 Y9.781 E13.51498
G0 F1600 X201.669 Y9.403
G1 F1200 X202.392 Y9.485 E13.53797
G1 X202.959 Y9.596 E13.55622
G1 X203.605 Y9.778 E13.57743
G1 X205.404 Y10.323 E13.63682
G1 X206.119 Y10.551 E13.66054
G1 X206.66 Y10.775 E13.67904
G1 X207.264 Y11.085 E13.70049
G1 X208.875 Y11.947 E13.75822
G1 X209.548 Y12.318 E13.7825
G1 X210.039 Y12.645 E13.80114
G1 X210.53 Y13.034 E13.82094
G1 X211.968 Y14.214 E13.87971
G1 X212.572 Y14.724 E13.90469
G1 X212.991 Y15.141 E13.92337
G1 X213.417 Y15.643 E13.94417
G1 X214.588 Y17.068 E14.00245
G1 X215.061 Y17.661 E14.02642
G1 X215.388 Y18.15 E14.045
G1 X215.718 Y18.743 E14.06645
G1 X216.604 Y20.399 E14.12579
G1 X216.936 Y21.04 E14.1486
G1 X217.162 Y21.585 E14.16724
G1 X217.376 Y22.251 E14.18935
G1 X217.885 Y23.931 E14.24481
G1 X218.112 Y24.716 E14.27063
G1 X218.23 Y25.304 E14.28958
G1 X218.308 Y25.988 E14.31133
G1 X218.485 Y27.768 E14.36785
G1 X218.553 Y28.558 E14.39291
G1 X218.553 Y29.165 E14.41209
G1 X218.492 Y29.878 E14.4347
G1 X218.318 Y31.647 E14.49086
G1 X218.231 Y32.411 E14.51516
G1 X218.117 Y32.985 E14.53365
G1 X217.937 Y33.616 E14.55438
G1 X217.392 Y35.418 E14.61387
G1 X216.82 Y37.211 E14.67334
G1 X215.906 Y40.185 E14.77164
G1 X215.186 Y42.82 E14.85795
G1 X214.539 Y45.481 E14.94448
G1 X213.971 Y48.139 E15.03037
G1 X213.478 Y50.829 E15.11678
G1 X213.063 Y53.51 E15.2025
G1 X212.72 Y56.228 E15.28906
G1 X212.459 Y58.912 E15.37427
G1 X212.269 Y61.671 E15.46165
G1 X212.161 Y64.366 E15.54687
G1 X212.127 Y67.099 E15.63323
G1 X212.171 Y69.832 E15.7196
G1 X212.292 Y72.558 E15.80582
G1 X212.491 Y75.286 E15.89224
G1 X212.767 Y78.011 E15.97879
G1 X213.113 Y80.677 E16.06373
G1 X213.543 Y83.384 E16.15034
G1 X214.052 Y86.095 E16.23749
G1 X214.621 Y88.709 E16.32202
G1 X215.283 Y91.387 E16.40919
G1 X216.004 Y93.99 E16.49453
G1 X216.813 Y96.615 E16.58132
G1 X217.689 Y99.196 E16.66744
G1 X218.647 Y101.774 E16.75434
G1 X219.66 Y104.282 E16.83981
G1 X220.75 Y106.775 E16.92578
G1 X221.917 Y109.253 E17.01233
G1 X223.147 Y111.681 E17.09833
G1 X224.45 Y114.086 E17.18476
G1 X225.824 Y116.455 E17.27129
G1 X227.247 Y118.759 E17.35685
G1 X228.731 Y121.016 E17.4422
G1 X230.322 Y123.292 E17.52995
G1 X231.924 Y125.451 E17.61489
G1 X234.085 Y128.185 E17.72501
G1 X234.33 Y128.538 E17.73858
G1 X234.663 Y129.083 E17.75876
G1 X234.907 Y129.558 E17.77564
G1 X235.113 Y130.047 E17.7924
G1 X235.28 Y130.541 E17.80888
G1 X235.434 Y131.219 E17.83085
G1 X235.502 Y131.677 E17.84548
G1 X235.54 Y132.13 E17.85984
G1 X235.562 Y133.229 E17.89458
G1 X235.57 Y166.677 E18.95144
G1 X235.559 Y167.543 E18.9788
G1 X235.527 Y168.141 E18.99772
G1 X235.438 Y168.78 E19.01811
G1 X235.199 Y169.692 E19.0479
G1 X235.026 Y170.168 E19.0639
G1 X234.85 Y170.563 E19.07756
G1 X234.641 Y170.963 E19.09182
G1 X234.369 Y171.411 E19.10839
G1 X234.082 Y171.816 E19.12407
G1 X233.6 Y172.372 E19.14732
G1 X233.227 Y172.737 E19.16381
G1 X232.856 Y173.053 E19.17921
G1 X232.25 Y173.472 E19.20249
G1 X231.808 Y173.726 E19.21859
G1 X231.413 Y173.922 E19.23253
G1 X230.966 Y174.11 E19.24785
G1 X230.473 Y174.276 E19.26429
G1 X229.776 Y174.435 E19.28688
G1 X229.314 Y174.503 E19.30163
G1 X228.866 Y174.54 E19.31583
G1 X227.773 Y174.562 E19.35038
G1 X172.213 Y174.57 E21.10591
G1 X171.624 Y174.562 E21.12453
G1 X170.99 Y174.534 E21.14458
G1 X170.56 Y174.488 E21.15824
G1 X170.127 Y174.415 E21.17212
G1 X169.688 Y174.312 E21.18637
G1 X169.251 Y174.18 E21.20079
G1 X168.824 Y174.021 E21.21519
G1 X168.404 Y173.833 E21.22973
G1 X168.005 Y173.623 E21.24397
G1 X167.672 Y173.42 E21.2563
G1 X167.313 Y173.17 E21.27012
G1 X166.937 Y172.872 E21.28528
G1 X166.605 Y172.573 E21.29939
G1 X166.257 Y172.218 E21.3151
G1 X165.923 Y171.825 E21.3314
G1 X165.517 Y171.232 E21.35411
G1 X165.288 Y170.834 E21.36862
G1 X165.092 Y170.44 E21.38252
G1 X164.886 Y169.951 E21.39929
G1 X164.718 Y169.452 E21.41592
G1 X164.564 Y168.772 E21.43795
G1 X164.487 Y168.244 E21.45481
G1 X164.451 Y167.819 E21.46829
G1 X164.433 Y167.109 E21.49073
G1 X164.43 Y133.25 E22.56058
G1 X164.442 Y132.405 E22.58728
G1 X164.473 Y131.852 E22.60478
G1 X164.587 Y131.097 E22.62891
G1 X164.817 Y130.255 E22.65649
G1 X164.977 Y129.823 E22.67104
G1 X165.152 Y129.432 E22.68458
G1 X165.355 Y129.045 E22.69839
G1 X165.629 Y128.591 E22.71514
G1 X165.842 Y128.277 E22.72713
G1 X167.462 Y126.144 E22.81176
G1 X169.065 Y123.905 E22.89877
G1 X170.571 Y121.67 E22.98393
G1 X172.04 Y119.35 E23.07069
G1 X173.427 Y117.02 E23.15637
G1 X174.757 Y114.63 E23.24279
G1 X176.021 Y112.202 E23.32928
G1 X177.202 Y109.767 E23.41479
G1 X178.341 Y107.239 E23.5024
G1 X179.381 Y104.747 E23.58773
G1 X180.352 Y102.213 E23.67347
G1 X181.271 Y99.602 E23.76093
G1 X182.093 Y97.038 E23.84601
G1 X182.846 Y94.438 E23.93154
G1 X183.543 Y91.75 E24.01928
G1 X184.148 Y89.117 E24.10464
G1 X184.683 Y86.419 E24.19155
G1 X185.134 Y83.772 E24.27639
G1 X185.517 Y81.062 E24.36287
G1 X185.828 Y78.309 E24.45041
G1 X186.054 Y75.623 E24.53558
G1 X186.204 Y72.929 E24.62084
G1 X186.279 Y70.163 E24.70827
G1 X186.277 Y67.431 E24.79459
G1 X186.198 Y64.737 E24.87975
G1 X186.04 Y62.002 E24.96631
G1 X185.807 Y59.285 E25.05248
G1 X185.496 Y56.573 E25.13873
G1 X185.106 Y53.859 E25.22536
G1 X184.648 Y51.201 E25.31059
G1 X184.102 Y48.49 E25.39797
G1 X183.499 Y45.881 E25.48258
G1 X182.801 Y43.207 E25.5699
G1 X182.044 Y40.612 E25.65531
G1 X180.914 Y37.165 E25.76993
G1 X180.567 Y36.17 E25.80323
G1 X180.354 Y35.502 E25.82538
G1 X179.823 Y33.752 E25.88316
G1 X179.604 Y32.996 E25.90803
G1 X179.487 Y32.411 E25.92688
G1 X179.41 Y31.736 E25.94835
G1 X179.229 Y29.899 E26.00668
G1 X179.167 Y29.16 E26.03011
G1 X179.166 Y28.566 E26.04888
G1 X179.22 Y27.915 E26.06952
G1 X179.401 Y26.073 E26.128
G1 X179.485 Y25.332 E26.15156
G1 X179.596 Y24.763 E26.16988
G1 X179.79 Y24.075 E26.19247
G1 X180.323 Y22.316 E26.25054
G1 X180.551 Y21.602 E26.27422
G1 X180.775 Y21.059 E26.29278
G1 X181.085 Y20.455 E26.31424
G1 X181.945 Y18.846 E26.37188
G1 X182.324 Y18.16 E26.39665
G1 X182.653 Y17.668 E26.41535
G1 X183.038 Y17.184 E26.43489
G1 X184.214 Y15.751 E26.49346
G1 X184.724 Y15.147 E26.51844
G1 X185.141 Y14.728 E26.53712
G1 X185.643 Y14.302 E26.55792
G1 X187.068 Y13.131 E26.6162
G1 X187.673 Y12.651 E26.6406
G1 X188.157 Y12.326 E26.65902
G1 X188.743 Y12 E26.68021
G1 X190.399 Y11.115 E26.73954
G1 X191.04 Y10.783 E26.76235
G1 X191.584 Y10.557 E26.78096
G1 X192.206 Y10.357 E26.80161
G1 X193.968 Y9.823 E26.85978
G1 X194.721 Y9.604 E26.88456
G1 X195.309 Y9.487 E26.9035
G1 X195.968 Y9.412 E26.92446
G1 X197.802 Y9.231 E26.98269
G1 X198.562 Y9.167 E27.00679
G1 X199.157 Y9.166 E27.02559
G1 X199.785 Y9.218 E27.0455
G1 X201.669 Y9.403 E27.10532
G0 F1600 X201.706 Y9.025
G1 F1200 X202.435 Y9.107 E27.1285
G1 X203.062 Y9.23 E27.14868
G1 X203.708 Y9.412 E27.16989
G1 X205.514 Y9.959 E27.22951
G1 X206.235 Y10.189 E27.25343
G1 X206.834 Y10.437 E27.27391
G1 X207.438 Y10.747 E27.29536
G1 X209.054 Y11.612 E27.35328
G1 X209.731 Y11.985 E27.3777
G1 X210.275 Y12.347 E27.39835
G1 X210.766 Y12.736 E27.41814
G1 X212.209 Y13.92 E27.47712
G1 X212.818 Y14.433 E27.50228
G1 X213.281 Y14.895 E27.52295
G1 X213.707 Y15.397 E27.54375
G1 X214.882 Y16.827 E27.60223
G1 X215.358 Y17.424 E27.62636
G1 X215.721 Y17.965 E27.64694
G1 X216.051 Y18.558 E27.66839
G1 X216.939 Y20.22 E27.72793
G1 X217.273 Y20.866 E27.7509
G1 X217.524 Y21.469 E27.77154
G1 X217.738 Y22.135 E27.79365
G1 X218.249 Y23.821 E27.84931
G1 X218.477 Y24.61 E27.87526
G1 X218.608 Y25.26 E27.89621
G1 X218.686 Y25.944 E27.91796
G1 X218.864 Y27.73 E27.97468
G1 X218.932 Y28.526 E27.99992
G1 X218.932 Y29.198 E28.02115
G1 X218.871 Y29.911 E28.04376
G1 X218.696 Y31.684 E28.10006
G1 X218.609 Y32.454 E28.12454
G1 X218.482 Y33.09 E28.14504
G1 X218.302 Y33.721 E28.16577
G1 X217.755 Y35.528 E28.22542
G1 X217.182 Y37.327 E28.28508
G1 X216.272 Y40.286 E28.3829
G1 X215.555 Y42.909 E28.46882
G1 X214.915 Y45.541 E28.5544
G1 X214.336 Y48.251 E28.64196
G1 X213.855 Y50.876 E28.72629
G1 X213.441 Y53.548 E28.81172
G1 X213.097 Y56.279 E28.8987
G1 X212.839 Y58.925 E28.9827
G1 X212.65 Y61.678 E29.06989
G1 X212.54 Y64.385 E29.1555
G1 X212.506 Y67.133 E29.24233
G1 X212.55 Y69.809 E29.3269
G1 X212.67 Y72.513 E29.41242
G1 X212.87 Y75.258 E29.49938
G1 X213.143 Y77.958 E29.58513
G1 X213.491 Y80.636 E29.67046
G1 X213.919 Y83.328 E29.75659
G1 X214.418 Y85.985 E29.84201
G1 X215.002 Y88.672 E29.92889
G1 X215.634 Y91.227 E30.01206
G1 X216.38 Y93.918 E30.10029
G1 X217.179 Y96.512 E30.18605
G1 X218.045 Y99.063 E30.27117
G1 X218.991 Y101.61 E30.35702
G1 X220.015 Y104.146 E30.44344
G1 X221.095 Y106.615 E30.52859
G1 X222.26 Y109.089 E30.615
G1 X223.488 Y111.513 E30.70085
G1 X224.787 Y113.91 E30.787
G1 X226.143 Y116.25 E30.87245
G1 X227.555 Y118.535 E30.95733
G1 X229.06 Y120.824 E31.04388
G1 X230.606 Y123.035 E31.12913
G1 X232.231 Y125.227 E31.21535
G1 X234.383 Y127.949 E31.32499
G1 X234.655 Y128.34 E31.34004
G1 X234.988 Y128.885 E31.36022
G1 X235.257 Y129.411 E31.37889
G1 X235.463 Y129.9 E31.39565
G1 X235.648 Y130.446 E31.41387
G1 X235.81 Y131.163 E31.43709
G1 X235.878 Y131.621 E31.45172
G1 X235.92 Y132.122 E31.46761
G1 X235.942 Y133.221 E31.50234
G1 X235.95 Y166.677 E32.55945
G1 X235.939 Y167.548 E32.58698
G1 X235.906 Y168.164 E32.60647
G1 X235.812 Y168.845 E32.62819
G1 X235.72 Y169.248 E32.64125
G1 X235.564 Y169.796 E32.65926
G1 X235.373 Y170.323 E32.67697
