;FLAVOR:Marlin
;TIME:576
;Filament used: 0.426483m, 0m
;Layer height: 0.2
;MINX:189.393
;MINY:137.484
;MINZ:0.2
;MAXX:210.607
;MAXY:160.182
;MAXZ:11.2
;Generated with Cura_SteamEngine 4.6.1
T0
M140 S50
M105
M190 S50
M104 S205
M105
M109 S205
M82 ;absolute extrusion mode
G28 ;Home
G1 Z15.0 F6000 ;Move the platform down 15mm
;Prime the extruder
G92 E0
G1 F200 E3
G92 E0
G92 E0
G92 E0
G1 F4200 E-8
;LAYER_COUNT:56
;LAYER:0
M107
G1 F600 Z0.6
G0 F1600 X205.875 Y138.691 Z0.6
;TYPE:SKIRT
G1 F600 Z0.2
G1 F4200 E0
G1 F1200 X206.371 Y138.784 E0.01595
G1 X206.951 Y138.994 E0.03544
G1 X207.602 Y139.354 E0.05894
G1 X207.81 Y139.503 E0.06703
G1 X208.195 Y139.828 E0.08295
G1 X208.569 Y140.255 E0.10088
G1 X208.857 Y140.669 E0.11682
G1 X209.087 Y141.125 E0.13295
G1 X209.268 Y141.596 E0.1489
G1 X209.383 Y142.095 E0.16508
G1 X209.447 Y142.612 E0.18154
G1 X209.461 Y143.004 E0.19393
G1 X209.467 Y154.116 E0.54504
G1 X209.458 Y154.867 E0.56877
G1 X209.4 Y155.487 E0.58845
G1 X209.297 Y155.981 E0.60439
G1 X209.15 Y156.384 E0.61794
G1 X209.021 Y156.674 E0.62797
G1 X208.78 Y157.117 E0.64391
G1 X208.444 Y157.559 E0.66145
G1 X207.98 Y158.025 E0.68223
G1 X207.407 Y158.441 E0.7046
G1 X206.956 Y158.668 E0.72056
G1 X206.485 Y158.849 E0.7365
G1 X205.936 Y158.97 E0.75426
G1 X205.454 Y159.026 E0.7696
G1 X195.402 Y159.042 E1.08721
G1 X194.692 Y159.033 E1.10965
G1 X194.067 Y158.972 E1.12949
G1 X193.573 Y158.867 E1.14545
G1 X193.083 Y158.685 E1.16196
G1 X192.63 Y158.463 E1.1779
G1 X192.218 Y158.183 E1.19364
G1 X191.831 Y157.858 E1.20961
G1 X191.471 Y157.457 E1.22664
G1 X191.174 Y157.049 E1.24258
G1 X190.898 Y156.511 E1.26169
G1 X190.72 Y156.039 E1.27763
G1 X190.602 Y155.496 E1.29519
G1 X190.547 Y154.961 E1.31218
G1 X190.537 Y154.448 E1.32839
G1 X190.533 Y143.623 E1.67043
G1 X190.542 Y143.041 E1.68882
G1 X190.568 Y142.483 E1.70647
G1 X190.632 Y141.982 E1.72243
G1 X190.804 Y141.394 E1.74179
G1 X191 Y140.929 E1.75773
G1 X191.257 Y140.499 E1.77356
G1 X191.558 Y140.094 E1.78951
G1 X191.927 Y139.723 E1.80604
G1 X192.318 Y139.403 E1.822
G1 X192.779 Y139.126 E1.839
G1 X193.236 Y138.911 E1.85496
G1 X193.81 Y138.744 E1.87384
G1 X194.54 Y138.644 E1.89713
G1 X195.065 Y138.633 E1.91372
G1 X204.55 Y138.624 E2.21342
G1 X205.171 Y138.631 E2.23304
G1 X205.875 Y138.691 E2.25536
G0 F1600 X205.914 Y138.314
G1 F1200 X206.44 Y138.409 E2.27225
G1 X207.095 Y138.643 E2.29423
G1 X207.573 Y138.881 E2.3111
G1 X208.031 Y139.194 E2.32863
G1 X208.441 Y139.536 E2.3455
G1 X208.862 Y140.014 E2.36563
G1 X209.17 Y140.451 E2.38252
G1 X209.43 Y140.961 E2.40061
G1 X209.624 Y141.459 E2.4175
G1 X209.755 Y142.017 E2.43561
G1 X209.827 Y142.596 E2.45404
G1 X209.841 Y143.004 E2.46694
G1 X209.847 Y154.116 E2.81805
G1 X209.838 Y154.871 E2.84191
G1 X209.777 Y155.535 E2.86297
G1 X209.67 Y156.058 E2.87984
G1 X209.497 Y156.538 E2.89596
G1 X209.368 Y156.828 E2.90599
G1 X209.115 Y157.298 E2.92286
G1 X208.74 Y157.798 E2.94261
G1 X208.221 Y158.319 E2.96584
G1 X207.625 Y158.754 E2.98916
G1 X207.12 Y159.011 E3.00706
G1 X206.622 Y159.205 E3.02395
G1 X206.008 Y159.343 E3.04383
G1 X205.468 Y159.405 E3.06101
G1 X195.402 Y159.422 E3.37906
G1 X194.687 Y159.413 E3.40166
G1 X194.017 Y159.349 E3.42292
G1 X193.494 Y159.239 E3.43981
G1 X192.943 Y159.039 E3.45833
G1 X192.463 Y158.805 E3.47521
G1 X191.997 Y158.492 E3.49294
G1 X191.587 Y158.151 E3.50979
G1 X191.183 Y157.705 E3.52881
G1 X190.866 Y157.275 E3.54569
G1 X190.555 Y156.673 E3.5671
G1 X190.364 Y156.174 E3.58398
G1 X190.229 Y155.567 E3.60363
G1 X190.167 Y154.969 E3.62262
G1 X190.157 Y154.456 E3.63884
G1 X190.153 Y143.623 E3.98113
G1 X190.163 Y143.023 E4.00009
G1 X190.189 Y142.465 E4.01774
G1 X190.254 Y141.935 E4.03461
G1 X190.443 Y141.275 E4.0563
G1 X190.648 Y140.782 E4.07317
G1 X190.935 Y140.297 E4.09098
G1 X191.252 Y139.867 E4.10786
G1 X191.664 Y139.449 E4.12641
G1 X192.076 Y139.109 E4.14328
G1 X192.591 Y138.796 E4.16233
G1 X193.073 Y138.567 E4.17919
G1 X193.715 Y138.376 E4.20035
G1 X194.241 Y138.282 E4.21723
G1 X195.057 Y138.253 E4.24303
G1 X204.55 Y138.244 E4.54299
G1 X205.175 Y138.251 E4.56274
G1 X205.914 Y138.314 E4.58617
G0 F1600 X205.954 Y137.936
G1 F1200 X206.507 Y138.034 E4.60392
G1 X207.036 Y138.208 E4.62151
G1 X207.742 Y138.54 E4.64616
G1 X208.252 Y138.885 E4.66562
G1 X208.685 Y139.244 E4.68339
G1 X209.156 Y139.773 E4.70577
G1 X209.481 Y140.231 E4.72352
G1 X209.773 Y140.798 E4.74367
G1 X209.979 Y141.321 E4.76143
G1 X210.127 Y141.94 E4.78154
G1 X210.206 Y142.579 E4.80188
G1 X210.221 Y143.004 E4.81532
G1 X210.227 Y154.116 E5.16643
G1 X210.218 Y154.876 E5.19044
G1 X210.154 Y155.582 E5.21284
G1 X210.044 Y156.133 E5.23059
G1 X209.844 Y156.692 E5.24935
G1 X209.715 Y156.982 E5.25938
G1 X209.451 Y157.478 E5.27714
G1 X209.036 Y158.036 E5.29911
G1 X208.461 Y158.614 E5.32487
G1 X207.844 Y159.066 E5.34904
G1 X207.284 Y159.354 E5.36893
G1 X206.761 Y159.56 E5.3867
G1 X206.08 Y159.717 E5.40878
G1 X205.483 Y159.785 E5.42776
G1 X195.403 Y159.802 E5.74626
G1 X194.682 Y159.793 E5.76905
G1 X193.967 Y159.726 E5.79174
G1 X193.417 Y159.613 E5.80948
G1 X192.803 Y159.392 E5.8301
G1 X192.297 Y159.148 E5.84785
G1 X191.777 Y158.802 E5.86758
G1 X191.344 Y158.444 E5.88533
G1 X190.895 Y157.952 E5.90638
G1 X190.56 Y157.501 E5.92413
G1 X190.318 Y157.062 E5.93997
G1 X190.008 Y156.311 E5.96564
G1 X189.856 Y155.638 E5.98744
G1 X189.787 Y154.976 E6.00847
G1 X189.777 Y154.463 E6.02469
G1 X189.773 Y143.623 E6.3672
G1 X189.783 Y143.005 E6.38673
G1 X189.809 Y142.447 E6.40438
G1 X189.875 Y141.889 E6.42213
G1 X190.005 Y141.391 E6.4384
G1 X190.296 Y140.636 E6.46396
G1 X190.613 Y140.095 E6.48378
G1 X190.945 Y139.642 E6.50152
G1 X191.401 Y139.175 E6.52214
G1 X191.833 Y138.816 E6.53989
G1 X192.403 Y138.466 E6.56103
G1 X192.909 Y138.223 E6.57876
G1 X193.62 Y138.008 E6.60223
G1 X194.173 Y137.907 E6.62
G1 X195.049 Y137.873 E6.6477
G1 X204.55 Y137.864 E6.9479
G1 X205.18 Y137.871 E6.96781
G1 X205.954 Y137.936 E6.99235
G0 F1600 X205.994 Y137.558
G1 F1200 X206.573 Y137.659 E7.01092
G1 X207.18 Y137.856 E7.03109
G1 X207.911 Y138.198 E7.05659
G1 X208.474 Y138.576 E7.07801
G1 X208.927 Y138.95 E7.09657
G1 X209.296 Y139.345 E7.11365
G1 X209.791 Y140.01 E7.13985
G1 X210.116 Y140.634 E7.16208
G1 X210.333 Y141.181 E7.18067
G1 X210.499 Y141.862 E7.20282
G1 X210.586 Y142.563 E7.22514
G1 X210.601 Y143.004 E7.23908
G1 X210.607 Y154.116 E7.59019
G1 X210.598 Y154.881 E7.61436
G1 X210.531 Y155.63 E7.63812
G1 X210.418 Y156.207 E7.6567
G1 X210.191 Y156.847 E7.67816
G1 X210.062 Y157.137 E7.68819
G1 X209.787 Y157.657 E7.70677
G1 X209.474 Y158.098 E7.72386
G1 X208.931 Y158.707 E7.74964
G1 X208.543 Y159.037 E7.76574
G1 X208.064 Y159.377 E7.7843
G1 X207.447 Y159.697 E7.80626
G1 X206.901 Y159.914 E7.82482
G1 X206.401 Y160.042 E7.84113
G1 X206.152 Y160.09 E7.84914
G1 X205.497 Y160.165 E7.86997
G1 X195.403 Y160.182 E8.18892
G1 X194.676 Y160.173 E8.21189
G1 X194.166 Y160.135 E8.22805
G1 X193.341 Y159.986 E8.25454
G1 X192.663 Y159.745 E8.27727
G1 X192.132 Y159.492 E8.29586
G1 X191.556 Y159.111 E8.31768
G1 X191.102 Y158.738 E8.33625
G1 X190.607 Y158.2 E8.35935
G1 X190.255 Y157.729 E8.37792
G1 X189.974 Y157.224 E8.39619
G1 X189.653 Y156.449 E8.42269
G1 X189.53 Y155.961 E8.43859
G1 X189.482 Y155.709 E8.4467
G1 X189.407 Y154.983 E8.46976
G1 X189.397 Y154.47 E8.48597
G1 X189.393 Y143.623 E8.82871
G1 X189.404 Y142.987 E8.8488
G1 X189.43 Y142.429 E8.86645
G1 X189.497 Y141.845 E8.88503
G1 X189.644 Y141.272 E8.90372
G1 X189.944 Y140.492 E8.93013
G1 X190.291 Y139.893 E8.952
G1 X190.637 Y139.417 E8.97059
G1 X191.138 Y138.901 E8.99332
G1 X191.588 Y138.523 E9.01189
G1 X192.214 Y138.135 E9.03516
G1 X192.744 Y137.879 E9.05376
G1 X193.277 Y137.704 E9.07148
G1 X194.103 Y137.532 E9.09814
G1 X195.041 Y137.493 E9.1278
G1 X204.549 Y137.484 E9.42823
G1 X205.184 Y137.491 E9.4483
G1 X205.994 Y137.558 E9.47398
G1 F4200 E1.47398
;MESH:ktBOX4c.stl
G0 F1600 X205.368 Y142.419
G0 X205.472 Y142.44
;TYPE:WALL-INNER
G1 F4200 E9.47398
G1 F1200 X205.566 Y142.509 E9.47766
G1 X205.631 Y142.587 E9.48087
G1 X205.678 Y142.689 E9.48442
G1 X205.702 Y142.814 E9.48844
G1 X205.707 Y154.807 E9.86738
G1 X205.689 Y154.948 E9.87188
G1 X205.648 Y155.051 E9.87538
G1 X205.582 Y155.142 E9.87893
G1 X205.503 Y155.207 E9.88216
G1 X205.401 Y155.255 E9.88572
G1 X205.275 Y155.279 E9.88978
G1 X194.768 Y155.282 E10.22177
G1 X194.627 Y155.264 E10.22626
G1 X194.525 Y155.224 E10.22972
G1 X194.434 Y155.157 E10.23329
G1 X194.369 Y155.077 E10.23655
G1 X194.319 Y154.971 E10.24025
G1 X194.296 Y154.854 E10.24402
G1 X194.293 Y142.978 E10.61927
G1 X194.309 Y142.739 E10.62684
G1 X194.341 Y142.639 E10.63015
G1 X194.4 Y142.545 E10.63366
G1 X194.479 Y142.472 E10.63706
G1 X194.574 Y142.419 E10.6405
G1 X194.681 Y142.392 E10.64398
G1 X205.235 Y142.383 E10.97746
G1 X205.372 Y142.4 E10.98182
G1 X205.472 Y142.44 E10.98522
G0 F1600 X205.654 Y142.115
;TYPE:WALL-OUTER
G1 F1200 X205.821 Y142.237 E10.99176
G1 X205.947 Y142.389 E10.998
G1 X206.032 Y142.572 E11.00437
G1 X206.072 Y142.781 E11.0111
G1 X206.077 Y154.831 E11.39184
G1 X206.05 Y155.041 E11.39853
G1 X205.973 Y155.233 E11.40507
G1 X205.855 Y155.396 E11.41143
G1 X205.7 Y155.523 E11.41776
G1 X205.517 Y155.609 E11.42415
G1 X205.308 Y155.649 E11.43087
G1 X194.743 Y155.652 E11.76469
G1 X194.535 Y155.625 E11.77132
G1 X194.345 Y155.55 E11.77778
G1 X194.178 Y155.428 E11.78431
G1 X194.053 Y155.276 E11.79053
G1 X193.965 Y155.089 E11.79706
G1 X193.926 Y154.888 E11.80353
G1 X193.923 Y142.968 E12.18017
G1 X193.943 Y142.67 E12.1896
G1 X194.004 Y142.479 E12.19594
G1 X194.112 Y142.308 E12.20233
G1 X194.26 Y142.17 E12.20872
G1 X194.437 Y142.072 E12.21512
G1 X194.633 Y142.022 E12.22151
G1 X205.257 Y142.013 E12.5572
G1 X205.465 Y142.039 E12.56382
G1 X205.654 Y142.115 E12.57026
G0 F1600 X205.816 Y142.233
G0 X205.569 Y142.572
G0 X205.314 Y142.785
;TYPE:SKIN
G1 F1200 X205.321 Y142.8 E12.57078
G1 X205.332 Y142.854 E12.57252
G1 X205.337 Y154.79 E12.94966
G1 X205.322 Y154.871 E12.95227
G1 X205.309 Y154.888 E12.95294
G1 X205.287 Y154.899 E12.95372
G1 X205.237 Y154.909 E12.95533
G1 X194.784 Y154.912 E13.28562
G1 X194.707 Y154.898 E13.28809
G1 X194.685 Y154.879 E13.28901
G1 X194.673 Y154.854 E13.28988
G1 X194.666 Y154.818 E13.29104
G1 X194.663 Y143.003 E13.66436
G1 X194.677 Y142.804 E13.67067
G1 X194.697 Y142.774 E13.6718
G1 X194.727 Y142.762 E13.67283
G1 X205.206 Y142.753 E14.00393
G1 X205.283 Y142.762 E14.00638
G1 X205.314 Y142.785 E14.0076
G0 F1600 X204.725 Y142.924
G1 F1200 X205.161 Y143.36 E14.02708
G0 F1600 X205.161 Y143.897
G1 F1200 X204.189 Y142.925 E14.07052
G0 F1600 X203.651 Y142.925
G1 F1200 X205.161 Y144.435 E14.13799
G0 F1600 X205.162 Y144.973
G1 F1200 X203.115 Y142.926 E14.22946
G0 F1600 X202.578 Y142.926
G1 F1200 X205.162 Y145.51 E14.34493
G0 F1600 X205.162 Y146.047
G1 F1200 X202.04 Y142.926 E14.48441
G0 F1600 X201.504 Y142.927
G1 F1200 X205.162 Y146.585 E14.64787
G0 F1600 X205.162 Y147.123
G1 F1200 X200.967 Y142.928 E14.83533
G0 F1600 X200.43 Y142.928
G1 F1200 X205.162 Y147.66 E15.04678
G0 F1600 X205.162 Y148.198
G1 F1200 X199.893 Y142.928 E15.28224
G0 F1600 X199.356 Y142.929
G1 F1200 X205.162 Y148.735 E15.54168
G0 F1600 X205.163 Y149.273
G1 F1200 X198.819 Y142.929 E15.82517
G0 F1600 X198.282 Y142.93
G1 F1200 X205.163 Y149.811 E16.13265
G0 F1600 X205.163 Y150.348
G1 F1200 X197.745 Y142.931 E16.4641
G0 F1600 X197.209 Y142.931
G1 F1200 X205.164 Y150.886 E16.81957
G0 F1600 X205.164 Y151.424
G1 F1200 X196.671 Y142.931 E17.19908
G0 F1600 X196.135 Y142.932
G1 F1200 X205.164 Y151.961 E17.60254
G0 F1600 X205.164 Y152.498
G1 F1200 X195.598 Y142.933 E18.02997
G0 F1600 X195.061 Y142.933
G1 F1200 X205.164 Y153.036 E18.48143
G0 F1600 X205.164 Y153.574
G1 F1200 X194.833 Y143.242 E18.94309
G0 F1600 X194.833 Y143.78
G1 F1200 X205.164 Y154.111 E19.40473
G0 F1600 X205.164 Y154.649
G1 F1200 X194.833 Y144.317 E19.8664
G0 F1600 X194.833 Y144.855
G1 F1200 X204.716 Y154.738 E20.30802
G0 F1600 X204.179 Y154.738
G1 F1200 X194.833 Y145.392 E20.72565
G0 F1600 X194.833 Y145.929
G1 F1200 X203.641 Y154.738 E21.11926
G0 F1600 X203.104 Y154.738
G1 F1200 X194.834 Y146.467 E21.48882
G0 F1600 X194.834 Y147.005
G1 F1200 X202.567 Y154.738 E21.83437
G0 F1600 X202.029 Y154.738
G1 F1200 X194.834 Y147.542 E22.1559
G0 F1600 X194.834 Y148.08
G1 F1200 X201.492 Y154.739 E22.45344
G0 F1600 X200.955 Y154.739
G1 F1200 X194.834 Y148.617 E22.72698
G0 F1600 X194.834 Y149.155
G1 F1200 X200.418 Y154.739 E22.9765
G0 F1600 X199.88 Y154.739
G1 F1200 X194.834 Y149.693 E23.20198
G0 F1600 X194.834 Y150.23
G1 F1200 X199.343 Y154.739 E23.40347
G0 F1600 X198.805 Y154.739
G1 F1200 X194.834 Y150.767 E23.58093
G0 F1600 X194.834 Y151.305
G1 F1200 X198.269 Y154.739 E23.73441
G0 F1600 X197.731 Y154.739
G1 F1200 X194.835 Y151.843 E23.86381
G0 F1600 X194.835 Y152.38
G1 F1200 X197.194 Y154.739 E23.96923
G0 F1600 X196.657 Y154.739
G1 F1200 X194.835 Y152.918 E24.05062
G0 F1600 X194.835 Y153.455
G1 F1200 X196.119 Y154.739 E24.10799
G0 F1600 X195.582 Y154.739
G1 F1200 X194.835 Y153.993 E24.14135
G0 F1600 X194.835 Y154.53
G1 F1200 X195.044 Y154.739 E24.15069
;MESH:NONMESH
G0 F600 X195.044 Y154.739 Z0.4
G0 F1600 X205.437 Y142.539
G0 X205.517 Y142.431
;TIME_ELAPSED:50.956868
;LAYER:1
M140 S50
M106 S255
;TYPE:WALL-INNER
;MESH:ktBOX4c.stl
G1 F2400 X205.604 Y142.494 E24.15409
G1 X205.68 Y142.588 E24.1579
G1 X205.725 Y142.685 E24.16128
G1 X205.751 Y142.822 E24.16569
G1 X205.758 Y154.85 E24.54574
G1 X205.739 Y154.994 E24.55033
G1 X205.696 Y155.1 E24.55394
G1 X205.627 Y155.196 E24.55768
G1 X205.542 Y155.265 E24.56114
G1 X205.439 Y155.314 E24.56474
G1 X205.304 Y155.339 E24.56908
G1 X194.736 Y155.342 E24.903
G1 X194.585 Y155.322 E24.90781
G1 X194.486 Y155.283 E24.91117
G1 X194.388 Y155.212 E24.915
G1 X194.319 Y155.128 E24.91843
G1 X194.268 Y155.019 E24.92224
G1 X194.245 Y154.899 E24.9261
G1 X194.242 Y143.234 E25.29468
G1 X194.252 Y142.781 E25.30899
G1 X194.282 Y142.664 E25.31281
G1 X194.36 Y142.532 E25.31765
G1 X194.436 Y142.461 E25.32094
G1 X194.534 Y142.407 E25.32448
G1 X194.648 Y142.378 E25.32819
G1 X205.265 Y142.369 E25.66366
G1 X205.407 Y142.387 E25.66818
G1 X205.517 Y142.431 E25.67193
G0 F3200 X205.699 Y142.106
;TYPE:WALL-OUTER
G1 F1500 X205.861 Y142.224 E25.67826
G1 X205.995 Y142.388 E25.68495
G1 X206.081 Y142.572 E25.69137
G1 X206.121 Y142.786 E25.69825
G1 X206.128 Y154.874 E26.08019
G1 X206.1 Y155.091 E26.08711
G1 X206.023 Y155.28 E26.09355
G1 X205.898 Y155.452 E26.10027
G1 X205.741 Y155.581 E26.10669
G1 X205.554 Y155.669 E26.11322
G1 X205.34 Y155.709 E26.1201
G1 X194.71 Y155.712 E26.45598
G1 X194.493 Y155.683 E26.4629
G1 X194.307 Y155.611 E26.4692
G1 X194.132 Y155.483 E26.47605
G1 X194.004 Y155.328 E26.4824
G1 X193.914 Y155.136 E26.4891
G1 X193.875 Y154.931 E26.4957
G1 X193.872 Y143.226 E26.86554
G1 X193.883 Y142.731 E26.88118
G1 X193.937 Y142.522 E26.88801
G1 X194.069 Y142.297 E26.89625
G1 X194.216 Y142.16 E26.9026
G1 X194.4 Y142.059 E26.90923
G1 X194.6 Y142.008 E26.91575
G1 X205.288 Y141.999 E27.25346
G1 X205.5 Y142.026 E27.26021
G1 X205.699 Y142.106 E27.26699
G0 F3200 X205.861 Y142.224
G0 X205.574 Y142.527
G0 X205.347 Y142.764
;TYPE:SKIN
G1 F1500 X205.369 Y142.797 E27.26824
G1 X205.381 Y142.859 E27.27024
G1 X205.388 Y154.831 E27.64852
G1 X205.379 Y154.898 E27.65066
G1 X205.371 Y154.917 E27.65131
G1 X205.342 Y154.95 E27.6527
G1 X205.322 Y154.96 E27.6534
G1 X205.27 Y154.969 E27.65507
G1 X194.755 Y154.972 E27.98731
G1 X194.665 Y154.956 E27.9902
G1 X194.634 Y154.928 E27.99152
G1 X194.624 Y154.906 E27.99229
G1 X194.615 Y154.86 E27.99377
G1 X194.612 Y143.242 E28.36086
G1 X194.627 Y142.81 E28.37452
G1 X194.653 Y142.765 E28.37616
G1 X194.671 Y142.753 E28.37685
G1 X194.691 Y142.748 E28.3775
G1 X205.242 Y142.739 E28.71088
G1 X205.315 Y142.748 E28.7132
G1 X205.347 Y142.764 E28.71433
G0 F3200 X195.107 Y142.918
G1 F1500 X194.783 Y143.242 E28.72881
G0 F3200 X194.783 Y143.779
G1 F1500 X195.644 Y142.918 E28.76728
G0 F3200 X196.182 Y142.917
G1 F1500 X194.783 Y144.316 E28.8298
G0 F3200 X194.783 Y144.854
G1 F1500 X196.72 Y142.916 E28.91638
G0 F3200 X197.258 Y142.916
G1 F1500 X194.783 Y145.391 E29.02697
G0 F3200 X194.783 Y145.929
G1 F1500 X197.796 Y142.916 E29.16161
G0 F3200 X198.334 Y142.915
G1 F1500 X194.783 Y146.465 E29.32026
