;FLAVOR:Marlin
;TIME:3825
;Filament used: 2.86549m, 0m
;Layer height: 0.2
;MINX:165.544
;MINY:115.544
;MINZ:0.2
;MAXX:212.456
;MAXY:184.456
;MAXZ:10
;Generated with Cura_SteamEngine 4.6.1
T0
M140 S50
M105
M190 S50
M104 S205
M105
M109 S205
M82 ;absolute extrusion mode
G28 ;Home
G1 Z15.0 F6000 ;Move the platform down 15mm
;Prime the extruder
G92 E0
G1 F200 E3
G92 E0
G92 E0
G92 E0
G1 F4200 E-8
;LAYER_COUNT:50
;LAYER:0
M107
G1 F600 Z0.6
G0 F1600 X187.757 Y116.367 Z0.6
;TYPE:SKIRT
G1 F600 Z0.2
G1 F4200 E0
G1 F1200 X190.487 Y116.365 E0.08626
G1 X192.11 Y116.323 E0.13756
G1 X192.952 Y116.313 E0.16417
G1 X206.802 Y116.304 E0.60179
G1 X207.536 Y116.314 E0.62498
G1 X208.13 Y116.368 E0.64383
G1 X208.625 Y116.469 E0.65979
G1 X209.109 Y116.642 E0.67603
G1 X209.564 Y116.861 E0.69199
G1 X209.987 Y117.142 E0.70803
G1 X210.378 Y117.462 E0.724
G1 X210.764 Y117.89 E0.74221
G1 X211.06 Y118.299 E0.75816
G1 X211.313 Y118.789 E0.77558
G1 X211.498 Y119.259 E0.79154
G1 X211.62 Y119.799 E0.80904
G1 X211.677 Y120.28 E0.82434
G1 X211.691 Y120.675 E0.83683
G1 X211.696 Y134.827 E1.28399
G1 X211.678 Y136.209 E1.32766
G1 X211.636 Y137.711 E1.37514
G1 X211.636 Y140.443 E1.46146
G1 X211.69 Y142.575 E1.52885
G1 X211.696 Y156.827 E1.97917
G1 X211.678 Y158.209 E2.02284
G1 X211.636 Y159.711 E2.07032
G1 X211.636 Y162.443 E2.15664
G1 X211.69 Y164.575 E2.22403
G1 X211.696 Y178.804 E2.67363
G1 X211.687 Y179.527 E2.69647
G1 X211.631 Y180.135 E2.71577
G1 X211.53 Y180.629 E2.7317
G1 X211.358 Y181.109 E2.74781
G1 X211.005 Y181.776 E2.77165
G1 X210.861 Y181.984 E2.77965
G1 X210.542 Y182.375 E2.79559
G1 X210.097 Y182.774 E2.81448
G1 X209.687 Y183.069 E2.83044
G1 X209.17 Y183.332 E2.84876
G1 X208.697 Y183.51 E2.86473
G1 X208.182 Y183.623 E2.88139
G1 X207.707 Y183.678 E2.8965
G1 X207.308 Y183.692 E2.90912
G1 X193.159 Y183.696 E3.35618
G1 X191.791 Y183.678 E3.39941
G1 X190.289 Y183.636 E3.44689
G1 X187.556 Y183.636 E3.53325
G1 X185.405 Y183.69 E3.60123
G1 X171.159 Y183.696 E4.05136
G1 X170.471 Y183.687 E4.07311
G1 X169.867 Y183.631 E4.09227
G1 X169.373 Y183.531 E4.1082
G1 X168.882 Y183.354 E4.12469
G1 X168.427 Y183.134 E4.14066
G1 X167.995 Y182.845 E4.15708
G1 X167.606 Y182.523 E4.17304
G1 X167.222 Y182.092 E4.19128
G1 X166.928 Y181.681 E4.20724
G1 X166.667 Y181.168 E4.22543
G1 X166.489 Y180.696 E4.24137
G1 X166.375 Y180.17 E4.25837
G1 X166.322 Y179.703 E4.27323
G1 X166.308 Y179.3 E4.28597
G1 X166.304 Y165.321 E4.72766
G1 X166.321 Y164.027 E4.76855
G1 X166.368 Y162.328 E4.82226
G1 X166.366 Y159.596 E4.90858
G1 X166.31 Y157.415 E4.97752
G1 X166.304 Y143.321 E5.42285
G1 X166.321 Y142.027 E5.46374
G1 X166.368 Y140.328 E5.51744
G1 X166.366 Y137.596 E5.60376
G1 X166.31 Y135.415 E5.6727
G1 X166.304 Y121.309 E6.11841
G1 X166.314 Y120.592 E6.14107
G1 X166.336 Y120.158 E6.1548
G1 X166.464 Y119.427 E6.17825
G1 X166.542 Y119.165 E6.18688
G1 X166.723 Y118.694 E6.20283
G1 X167.01 Y118.198 E6.22093
G1 X167.31 Y117.791 E6.23691
G1 X167.687 Y117.41 E6.25385
G1 X168.076 Y117.088 E6.2698
G1 X168.549 Y116.804 E6.28723
G1 X169.006 Y116.59 E6.30318
G1 X169.557 Y116.429 E6.32132
G1 X170.054 Y116.34 E6.33727
G1 X170.931 Y116.314 E6.36499
G1 X184.802 Y116.304 E6.80328
G1 X186.124 Y116.322 E6.84505
G1 X187.757 Y116.367 E6.89667
G0 F1600 X187.767 Y115.987
G1 F1200 X190.478 Y115.985 E6.98233
G1 X192.101 Y115.943 E7.03363
G1 X192.948 Y115.933 E7.06039
G1 X206.802 Y115.924 E7.49814
G1 X207.542 Y115.934 E7.52153
G1 X208.176 Y115.991 E7.54164
G1 X208.7 Y116.095 E7.55852
G1 X209.246 Y116.288 E7.57682
G1 X209.728 Y116.517 E7.59368
G1 X210.204 Y116.83 E7.61168
G1 X210.619 Y117.166 E7.62855
G1 X211.053 Y117.644 E7.64895
G1 X211.368 Y118.076 E7.66584
G1 X211.655 Y118.622 E7.68533
G1 X211.852 Y119.119 E7.70223
G1 X211.993 Y119.726 E7.72192
G1 X212.057 Y120.264 E7.73904
G1 X212.071 Y120.675 E7.75203
G1 X212.076 Y134.827 E8.19919
G1 X212.058 Y136.214 E8.24302
G1 X212.016 Y137.722 E8.29069
G1 X212.016 Y140.434 E8.37638
G1 X212.07 Y142.566 E8.44377
G1 X212.076 Y156.827 E8.89437
G1 X212.058 Y158.214 E8.9382
G1 X212.016 Y159.722 E8.98587
G1 X212.016 Y162.434 E9.07156
G1 X212.07 Y164.566 E9.13895
G1 X212.076 Y178.804 E9.58883
G1 X212.067 Y179.532 E9.61183
G1 X212.008 Y180.181 E9.63242
G1 X211.904 Y180.705 E9.6493
G1 X211.712 Y181.246 E9.66744
G1 X211.483 Y181.728 E9.6843
G1 X211.173 Y182.2 E9.70214
G1 X210.837 Y182.615 E9.71902
G1 X210.343 Y183.064 E9.74011
G1 X209.911 Y183.378 E9.75698
G1 X209.331 Y183.676 E9.77759
G1 X208.833 Y183.866 E9.79443
G1 X208.254 Y183.996 E9.81318
G1 X207.722 Y184.058 E9.8301
G1 X207.308 Y184.072 E9.84319
G1 X193.159 Y184.076 E10.29026
G1 X191.785 Y184.058 E10.33368
G1 X190.278 Y184.016 E10.38131
G1 X187.566 Y184.016 E10.467
G1 X185.415 Y184.07 E10.53499
G1 X171.159 Y184.076 E10.98544
G1 X170.466 Y184.067 E11.00734
G1 X169.821 Y184.009 E11.0278
G1 X169.297 Y183.904 E11.04469
G1 X168.744 Y183.708 E11.06323
G1 X168.262 Y183.478 E11.0801
G1 X167.777 Y183.156 E11.09849
G1 X167.364 Y182.817 E11.11538
G1 X166.931 Y182.337 E11.1358
G1 X166.618 Y181.904 E11.15269
G1 X166.324 Y181.33 E11.17306
G1 X166.133 Y180.831 E11.18995
G1 X166.002 Y180.241 E11.20904
G1 X165.942 Y179.718 E11.22568
G1 X165.928 Y179.3 E11.23889
G1 X165.924 Y165.321 E11.68059
G1 X165.941 Y164.021 E11.72167
G1 X165.988 Y162.319 E11.77547
G1 X165.986 Y159.606 E11.86119
G1 X165.93 Y157.425 E11.93012
G1 X165.924 Y143.321 E12.37577
G1 X165.941 Y142.021 E12.41685
G1 X165.988 Y140.319 E12.47065
G1 X165.986 Y137.606 E12.55637
G1 X165.93 Y135.425 E12.62531
G1 X165.924 Y121.309 E13.07133
G1 X165.934 Y120.587 E13.09415
G1 X165.957 Y120.137 E13.10839
G1 X166.026 Y119.608 E13.12524
G1 X166.177 Y119.056 E13.14332
G1 X166.368 Y118.557 E13.16021
G1 X166.687 Y117.997 E13.18057
G1 X167.002 Y117.566 E13.19744
G1 X167.422 Y117.137 E13.21641
G1 X167.833 Y116.795 E13.2333
G1 X168.362 Y116.473 E13.25287
G1 X168.845 Y116.245 E13.26975
G1 X169.46 Y116.062 E13.29002
G1 X169.986 Y115.965 E13.30692
G1 X170.925 Y115.934 E13.33661
G1 X184.802 Y115.924 E13.77508
G1 X186.129 Y115.942 E13.81701
G1 X187.767 Y115.987 E13.86879
G0 F1600 X187.742 Y115.607
G1 F1200 X190.468 Y115.605 E13.95492
G1 X192.091 Y115.563 E14.00622
G1 X192.943 Y115.553 E14.03315
G1 X206.801 Y115.544 E14.47102
G1 X207.548 Y115.554 E14.49462
G1 X208.222 Y115.614 E14.516
G1 X208.773 Y115.721 E14.53374
G1 X209.383 Y115.933 E14.55414
G1 X209.891 Y116.172 E14.57188
G1 X210.421 Y116.518 E14.59188
G1 X210.858 Y116.87 E14.60961
G1 X211.343 Y117.398 E14.63227
G1 X211.676 Y117.851 E14.65003
G1 X211.996 Y118.456 E14.67166
G1 X212.206 Y118.977 E14.68941
G1 X212.366 Y119.652 E14.71133
G1 X212.437 Y120.248 E14.73029
G1 X212.451 Y120.675 E14.74379
G1 X212.456 Y134.827 E15.19095
G1 X212.438 Y136.219 E15.23494
G1 X212.396 Y137.696 E15.28163
G1 X212.396 Y140.424 E15.36782
G1 X212.45 Y142.556 E15.43521
G1 X212.456 Y156.827 E15.88613
G1 X212.438 Y158.219 E15.93012
G1 X212.396 Y159.696 E15.97681
G1 X212.396 Y162.424 E16.063
G1 X212.45 Y164.556 E16.13039
G1 X212.456 Y178.804 E16.58059
G1 X212.447 Y179.537 E16.60375
G1 X212.385 Y180.228 E16.62567
G1 X212.277 Y180.779 E16.64341
G1 X212.067 Y181.383 E16.66362
G1 X211.828 Y181.891 E16.68136
G1 X211.486 Y182.416 E16.70115
G1 X211.134 Y182.854 E16.71891
G1 X210.588 Y183.354 E16.7423
G1 X210.135 Y183.685 E16.76003
G1 X209.493 Y184.019 E16.7829
G1 X208.969 Y184.222 E16.80065
G1 X208.326 Y184.369 E16.82149
G1 X207.738 Y184.438 E16.8402
G1 X207.308 Y184.452 E16.85379
G1 X193.159 Y184.456 E17.30086
G1 X191.78 Y184.438 E17.34444
G1 X190.304 Y184.396 E17.39109
G1 X187.575 Y184.396 E17.47732
G1 X185.424 Y184.45 E17.54531
G1 X171.159 Y184.456 E17.99604
G1 X170.461 Y184.447 E18.0181
G1 X169.775 Y184.386 E18.03986
G1 X169.224 Y184.278 E18.0576
G1 X168.606 Y184.062 E18.07829
G1 X168.099 Y183.822 E18.09601
G1 X167.559 Y183.467 E18.11643
G1 X167.123 Y183.112 E18.1342
G1 X166.641 Y182.582 E18.15683
G1 X166.31 Y182.128 E18.17458
G1 X165.98 Y181.492 E18.19722
G1 X165.777 Y180.968 E18.21498
G1 X165.628 Y180.312 E18.23624
G1 X165.562 Y179.733 E18.25465
G1 X165.548 Y179.3 E18.26834
G1 X165.544 Y165.321 E18.71003
G1 X165.561 Y164.016 E18.75127
G1 X165.608 Y162.343 E18.80415
G1 X165.606 Y159.616 E18.89032
G1 X165.55 Y157.434 E18.95929
G1 X165.544 Y143.321 E19.40522
G1 X165.561 Y142.016 E19.44646
G1 X165.608 Y140.343 E19.49934
G1 X165.606 Y137.616 E19.5855
G1 X165.55 Y135.434 E19.65447
G1 X165.544 Y121.309 E20.10078
G1 X165.554 Y120.581 E20.12379
G1 X165.577 Y120.116 E20.1385
G1 X165.648 Y119.558 E20.15627
G1 X165.813 Y118.948 E20.17624
G1 X166.011 Y118.422 E20.194
G1 X166.365 Y117.796 E20.21672
G1 X166.694 Y117.342 E20.23443
G1 X167.158 Y116.864 E20.25548
G1 X167.589 Y116.503 E20.27325
G1 X168.174 Y116.143 E20.29495
G1 X168.681 Y115.901 E20.3127
G1 X169.364 Y115.694 E20.33525
G1 X169.916 Y115.59 E20.353
G1 X170.918 Y115.554 E20.38468
G1 X184.801 Y115.544 E20.82335
G1 X186.135 Y115.562 E20.8655
G1 X187.742 Y115.607 E20.9163
G1 F4200 E12.9163
;MESH:ktBOX4e.stl(2)
G0 F1600 X185.702 Y120.139
G0 X185.711 Y120.122
;TYPE:WALL-INNER
G1 F4200 E20.9163
G1 F1200 X185.794 Y120.183 E20.91955
G1 X185.863 Y120.268 E20.92301
G1 X185.912 Y120.37 E20.92659
G1 X185.933 Y120.482 E20.93019
G1 X185.936 Y135.471 E21.4038
G1 X185.918 Y135.608 E21.40816
G1 X185.878 Y135.711 E21.41165
G1 X185.817 Y135.794 E21.41491
G1 X185.732 Y135.863 E21.41837
G1 X185.63 Y135.912 E21.42194
G1 X185.518 Y135.933 E21.42554
G1 X170.529 Y135.936 E21.89915
G1 X170.391 Y135.918 E21.90355
G1 X170.291 Y135.878 E21.90695
G1 X170.204 Y135.814 E21.91037
G1 X170.135 Y135.731 E21.91378
G1 X170.089 Y135.634 E21.91717
G1 X170.067 Y135.518 E21.9209
G1 X170.064 Y120.667 E22.39015
G1 X170.078 Y120.412 E22.39822
G1 X170.109 Y120.316 E22.4014
G1 X170.167 Y120.224 E22.40484
G1 X170.247 Y120.15 E22.40828
G1 X170.337 Y120.1 E22.41154
G1 X170.445 Y120.073 E22.41505
G1 X185.471 Y120.064 E22.88983
G1 X185.608 Y120.082 E22.8942
G1 X185.711 Y120.122 E22.89769
G0 F1600 X185.891 Y119.796
;TYPE:WALL-OUTER
G1 F1200 X186.05 Y119.911 E22.90389
G1 X186.179 Y120.069 E22.91034
G1 X186.265 Y120.251 E22.9167
G1 X186.303 Y120.45 E22.9231
G1 X186.306 Y135.496 E23.39851
G1 X186.279 Y135.701 E23.40504
G1 X186.204 Y135.891 E23.4115
G1 X186.089 Y136.05 E23.4177
G1 X185.931 Y136.179 E23.42414
G1 X185.749 Y136.265 E23.4305
G1 X185.55 Y136.303 E23.4369
G1 X170.504 Y136.306 E23.91231
G1 X170.299 Y136.279 E23.91885
G1 X170.111 Y136.205 E23.92523
G1 X169.947 Y136.085 E23.93165
G1 X169.822 Y135.933 E23.93787
G1 X169.735 Y135.749 E23.9443
G1 X169.697 Y135.55 E23.9507
G1 X169.694 Y120.667 E24.42096
G1 X169.712 Y120.342 E24.43125
G1 X169.772 Y120.156 E24.43742
G1 X169.879 Y119.987 E24.44374
G1 X170.028 Y119.848 E24.45018
G1 X170.2 Y119.753 E24.45639
G1 X170.397 Y119.703 E24.46281
G1 X185.496 Y119.694 E24.9399
G1 X185.701 Y119.721 E24.94643
G1 X185.891 Y119.796 E24.95288
G0 F1600 X186.05 Y119.911
G0 X186.052 Y119.914
G0 X185.726 Y120.178
G0 X185.532 Y120.45
;TYPE:SKIN
G1 F1200 X185.549 Y120.47 E24.95371
G1 X185.557 Y120.485 E24.95425
G1 X185.563 Y120.518 E24.95531
G1 X185.566 Y135.452 E25.42718
G1 X185.558 Y135.512 E25.42909
G1 X185.55 Y135.532 E25.42978
G1 X185.515 Y135.557 E25.43113
G1 X185.482 Y135.563 E25.43219
G1 X170.547 Y135.566 E25.9041
G1 X170.472 Y135.551 E25.90651
G1 X170.45 Y135.532 E25.90743
G1 X170.444 Y135.518 E25.90791
G1 X170.437 Y135.482 E25.90907
G1 X170.434 Y120.687 E26.37655
G1 X170.446 Y120.478 E26.38317
G1 X170.454 Y120.461 E26.38376
G1 X170.478 Y120.445 E26.38467
G1 X185.452 Y120.434 E26.85781
G1 X185.512 Y120.442 E26.85972
G1 X185.532 Y120.45 E26.8604
G0 F1600 X185.392 Y120.903
G1 F1200 X185.093 Y120.605 E26.87374
G0 F1600 X184.556 Y120.605
G1 F1200 X185.392 Y121.441 E26.9111
G0 F1600 X185.392 Y121.978
G1 F1200 X184.019 Y120.606 E26.97243
G0 F1600 X183.482 Y120.606
G1 F1200 X185.392 Y122.516 E27.05777
G0 F1600 X185.392 Y123.053
G1 F1200 X182.945 Y120.606 E27.16712
G0 F1600 X182.408 Y120.607
G1 F1200 X185.392 Y123.59 E27.30044
G0 F1600 X185.392 Y124.128
G1 F1200 X181.871 Y120.607 E27.45777
G0 F1600 X181.334 Y120.608
G1 F1200 X185.392 Y124.666 E27.63911
G0 F1600 X185.392 Y125.203
G1 F1200 X180.797 Y120.608 E27.84443
G0 F1600 X180.26 Y120.609
G1 F1200 X185.392 Y125.741 E28.07376
G0 F1600 X185.392 Y126.278
G1 F1200 X179.723 Y120.609 E28.32708
G0 F1600 X179.186 Y120.609
G1 F1200 X185.392 Y126.816 E28.60441
G0 F1600 X185.392 Y127.353
G1 F1200 X178.649 Y120.609 E28.90575
G0 F1600 X178.112 Y120.61
G1 F1200 X185.392 Y127.89 E29.23106
G0 F1600 X185.393 Y128.428
G1 F1200 X177.575 Y120.61 E29.5804
G0 F1600 X177.038 Y120.611
G1 F1200 X185.393 Y128.966 E29.95375
G0 F1600 X185.393 Y129.503
G1 F1200 X176.501 Y120.611 E30.35109
G0 F1600 X175.964 Y120.611
G1 F1200 X185.393 Y130.041 E30.77245
G0 F1600 X185.393 Y130.578
G1 F1200 X175.427 Y120.612 E31.21778
G0 F1600 X174.89 Y120.612
G1 F1200 X185.393 Y131.115 E31.6871
G0 F1600 X185.393 Y131.653
G1 F1200 X174.353 Y120.613 E32.18043
G0 F1600 X173.816 Y120.613
G1 F1200 X185.394 Y132.191 E32.69779
G0 F1600 X185.394 Y132.728
G1 F1200 X173.279 Y120.614 E33.23913
G0 F1600 X172.741 Y120.614
G1 F1200 X185.394 Y133.266 E33.80451
G0 F1600 X185.394 Y133.803
G1 F1200 X172.205 Y120.614 E34.39386
G0 F1600 X171.667 Y120.614
G1 F1200 X185.394 Y134.341 E35.00725
G0 F1600 X185.394 Y134.878
G1 F1200 X171.131 Y120.615 E35.6446
G0 F1600 X170.607 Y120.629
G1 F1200 X185.37 Y135.391 E36.30426
G0 F1600 X184.832 Y135.391
G1 F1200 X170.604 Y121.163 E36.94004
G0 F1600 X170.604 Y121.7
G1 F1200 X184.295 Y135.391 E37.55182
G0 F1600 X183.757 Y135.391
G1 F1200 X170.604 Y122.238 E38.13956
G0 F1600 X170.604 Y122.775
G1 F1200 X183.22 Y135.391 E38.70331
G0 F1600 X182.683 Y135.391
G1 F1200 X170.604 Y123.313 E39.24304
G0 F1600 X170.604 Y123.85
G1 F1200 X182.145 Y135.391 E39.75875
G0 F1600 X181.609 Y135.392
G1 F1200 X170.605 Y124.388 E40.25047
G0 F1600 X170.605 Y124.925
G1 F1200 X181.071 Y135.392 E40.71816
G0 F1600 X180.534 Y135.392
G1 F1200 X170.605 Y125.463 E41.16184
G0 F1600 X170.605 Y126
G1 F1200 X179.996 Y135.392 E41.5815
G0 F1600 X179.459 Y135.392
G1 F1200 X170.605 Y126.538 E41.97714
G0 F1600 X170.605 Y127.075
G1 F1200 X178.922 Y135.392 E42.34879
G0 F1600 X178.384 Y135.392
G1 F1200 X170.605 Y127.612 E42.69642
G0 F1600 X170.605 Y128.151
G1 F1200 X177.847 Y135.393 E43.02003
G0 F1600 X177.31 Y135.393
G1 F1200 X170.605 Y128.688 E43.31964
G0 F1600 X170.605 Y129.225
G1 F1200 X176.773 Y135.393 E43.59526
G0 F1600 X176.235 Y135.393
G1 F1200 X170.605 Y129.763 E43.84683
G0 F1600 X170.605 Y130.3
G1 F1200 X175.698 Y135.393 E44.07441
G0 F1600 X175.16 Y135.393
G1 F1200 X170.605 Y130.838 E44.27795
G0 F1600 X170.605 Y131.375
G1 F1200 X174.623 Y135.393 E44.4575
G0 F1600 X174.086 Y135.393
G1 F1200 X170.606 Y131.913 E44.613
G0 F1600 X170.606 Y132.45
G1 F1200 X173.549 Y135.393 E44.74451
G0 F1600 X173.012 Y135.393
G1 F1200 X170.606 Y132.988 E44.852
G0 F1600 X170.606 Y133.525
G1 F1200 X172.474 Y135.393 E44.93547
G0 F1600 X171.937 Y135.393
G1 F1200 X170.606 Y134.063 E44.99493
G0 F1600 X170.606 Y134.6
G1 F1200 X171.399 Y135.393 E45.03036
G0 F1600 X170.862 Y135.393
G1 F1200 X170.606 Y135.138 E45.04178
G1 F4200 E37.04178
;MESH:ktBOX4e.stl(1)
G0 F1600 X185.517 Y135.914
G0 X185.47 Y142.083
G0 X185.711 Y142.122
;TYPE:WALL-INNER
G1 F4200 E45.04178
G1 F1200 X185.794 Y142.183 E45.04503
G1 X185.863 Y142.268 E45.04849
G1 X185.912 Y142.37 E45.05207
G1 X185.933 Y142.482 E45.05567
G1 X185.936 Y157.471 E45.52928
G1 X185.918 Y157.608 E45.53364
G1 X185.878 Y157.711 E45.53714
G1 X185.817 Y157.794 E45.54039
G1 X185.732 Y157.863 E45.54385
G1 X185.63 Y157.912 E45.54743
G1 X185.518 Y157.933 E45.55103
G1 X170.529 Y157.936 E46.02464
G1 X170.391 Y157.918 E46.02903
G1 X170.291 Y157.878 E46.03244
G1 X170.204 Y157.814 E46.03585
G1 X170.135 Y157.731 E46.03926
G1 X170.089 Y157.634 E46.04265
G1 X170.067 Y157.518 E46.04638
G1 X170.064 Y142.667 E46.51563
G1 X170.078 Y142.412 E46.5237
G1 X170.109 Y142.316 E46.52689
G1 X170.167 Y142.224 E46.53032
G1 X170.247 Y142.15 E46.53377
G1 X170.337 Y142.1 E46.53702
G1 X170.445 Y142.073 E46.54054
G1 X185.471 Y142.064 E47.01532
G1 X185.608 Y142.082 E47.01968
G1 X185.711 Y142.122 E47.02317
G0 F1600 X185.891 Y141.796
;TYPE:WALL-OUTER
