;FLAVOR:Marlin
;TIME:5099
;Filament used: 3.77604m, 0m
;Layer height: 0.2
;MINX:167.773
;MINY:115.864
;MINZ:0.2
;MAXX:232.227
;MAXY:181.802
;MAXZ:11.2
;Generated with Cura_SteamEngine 4.6.1
T0
M140 S50
M105
M190 S50
M104 S205
M105
M109 S205
M82 ;absolute extrusion mode
G28 ;Home
G1 Z15.0 F6000 ;Move the platform down 15mm
;Prime the extruder
G92 E0
G1 F200 E3
G92 E0
G92 E0
G92 E0
G1 F4200 E-8
;LAYER_COUNT:56
;LAYER:0
M107
G1 F600 Z0.6
G0 F1600 X184.527 Y116.682 Z0.6
;TYPE:SKIRT
G1 F600 Z0.2
G1 F4200 E0
G1 F1200 X187.696 Y116.783 E0.10018
G1 X190.415 Y116.783 E0.18609
G1 X193.161 Y116.705 E0.2729
G1 X193.962 Y116.663 E0.29824
G1 X194.66 Y116.638 E0.32031
G1 X204.55 Y116.624 E0.6328
G1 X205.323 Y116.633 E0.65723
G1 X206.527 Y116.682 E0.69531
G1 X209.696 Y116.783 E0.79549
G1 X212.415 Y116.783 E0.8814
G1 X215.161 Y116.705 E0.9682
G1 X215.962 Y116.663 E0.99354
G1 X216.66 Y116.638 E1.01561
G1 X226.55 Y116.624 E1.32811
G1 X227.171 Y116.631 E1.34773
G1 X227.875 Y116.691 E1.37006
G1 X228.371 Y116.784 E1.386
G1 X228.951 Y116.994 E1.40549
G1 X229.602 Y117.354 E1.429
G1 X229.81 Y117.503 E1.43708
G1 X230.195 Y117.828 E1.453
G1 X230.569 Y118.255 E1.47094
G1 X230.857 Y118.669 E1.48687
G1 X231.087 Y119.125 E1.50301
G1 X231.268 Y119.596 E1.51895
G1 X231.383 Y120.095 E1.53513
G1 X231.447 Y120.612 E1.55159
G1 X231.461 Y121.004 E1.56399
G1 X231.467 Y132.165 E1.91664
G1 X231.458 Y132.87 E1.93892
G1 X231.423 Y133.717 E1.96571
G1 X231.345 Y136.507 E2.0539
G1 X231.347 Y139.218 E2.13956
G1 X231.46 Y142.924 E2.25671
G1 X231.467 Y154.165 E2.61189
G1 X231.458 Y154.87 E2.63417
G1 X231.423 Y155.717 E2.66096
G1 X231.345 Y158.507 E2.74915
G1 X231.347 Y161.218 E2.83481
G1 X231.46 Y164.924 E2.95196
G1 X231.467 Y176.116 E3.3056
G1 X231.458 Y176.866 E3.3293
G1 X231.4 Y177.486 E3.34897
G1 X231.297 Y177.98 E3.36492
G1 X231.15 Y178.384 E3.3785
G1 X231.021 Y178.674 E3.38853
G1 X230.78 Y179.117 E3.40446
G1 X230.444 Y179.559 E3.42201
G1 X229.98 Y180.025 E3.44279
G1 X229.407 Y180.441 E3.46516
G1 X228.956 Y180.668 E3.48111
G1 X228.485 Y180.849 E3.49706
G1 X227.936 Y180.97 E3.51482
G1 X227.454 Y181.026 E3.53015
G1 X217.402 Y181.042 E3.84777
G1 X216.683 Y181.033 E3.87049
G1 X215.204 Y180.966 E3.91727
G1 X212.435 Y180.884 E4.0048
G1 X209.718 Y180.88 E4.09065
G1 X206.964 Y180.954 E4.1777
G1 X205.638 Y181.021 E4.21965
G1 X205.07 Y181.038 E4.2376
G1 X195.402 Y181.042 E4.54308
G1 X194.683 Y181.033 E4.5658
G1 X193.204 Y180.966 E4.61258
G1 X190.435 Y180.884 E4.70012
G1 X187.718 Y180.88 E4.78597
G1 X184.964 Y180.954 E4.87302
G1 X183.638 Y181.021 E4.91497
G1 X183.07 Y181.038 E4.93292
G1 X173.402 Y181.042 E5.2384
G1 X172.692 Y181.033 E5.26084
G1 X172.067 Y180.972 E5.28068
G1 X171.573 Y180.867 E5.29664
G1 X171.083 Y180.685 E5.31315
G1 X170.63 Y180.463 E5.32909
G1 X170.218 Y180.183 E5.34483
G1 X169.831 Y179.858 E5.3608
G1 X169.471 Y179.457 E5.37783
G1 X169.174 Y179.049 E5.39377
G1 X168.898 Y178.511 E5.41288
G1 X168.72 Y178.039 E5.42882
G1 X168.602 Y177.496 E5.44638
G1 X168.547 Y176.961 E5.46337
G1 X168.537 Y176.448 E5.47958
G1 X168.533 Y165.623 E5.82162
G1 X168.543 Y165.027 E5.84046
G1 X168.653 Y161.816 E5.94197
G1 X168.665 Y159.061 E6.02903
G1 X168.598 Y156.311 E6.11594
G1 X168.542 Y154.84 E6.16246
G1 X168.533 Y143.623 E6.51688
G1 X168.543 Y143.027 E6.53572
G1 X168.653 Y139.816 E6.63723
G1 X168.665 Y137.061 E6.72429
G1 X168.598 Y134.311 E6.8112
G1 X168.542 Y132.84 E6.85772
G1 X168.533 Y121.623 E7.21214
G1 X168.542 Y121.041 E7.23053
G1 X168.568 Y120.483 E7.24818
G1 X168.632 Y119.982 E7.26414
G1 X168.804 Y119.394 E7.2835
G1 X169 Y118.929 E7.29944
G1 X169.257 Y118.499 E7.31527
G1 X169.558 Y118.094 E7.33122
G1 X169.927 Y117.723 E7.34775
G1 X170.318 Y117.403 E7.36371
G1 X170.779 Y117.126 E7.38071
G1 X171.236 Y116.911 E7.39667
G1 X171.81 Y116.744 E7.41556
G1 X172.54 Y116.644 E7.43884
G1 X173.065 Y116.633 E7.45543
G1 X182.55 Y116.624 E7.75513
G1 X183.323 Y116.633 E7.77955
G1 X184.527 Y116.682 E7.81763
G0 F1600 X184.543 Y116.302
G1 F1200 X187.707 Y116.403 E7.91765
G1 X190.404 Y116.403 E8.00287
G1 X193.172 Y116.325 E8.09037
G1 X193.942 Y116.284 E8.11473
G1 X194.647 Y116.258 E8.13702
G1 X204.55 Y116.244 E8.44993
G1 X205.328 Y116.253 E8.47451
G1 X206.543 Y116.302 E8.51293
G1 X209.707 Y116.403 E8.61296
G1 X212.404 Y116.403 E8.69818
G1 X215.172 Y116.325 E8.78567
G1 X215.942 Y116.284 E8.81003
G1 X216.647 Y116.258 E8.83233
G1 X226.55 Y116.244 E9.14523
G1 X227.175 Y116.251 E9.16498
G1 X227.914 Y116.314 E9.18842
G1 X228.44 Y116.409 E9.20531
G1 X229.095 Y116.643 E9.22728
G1 X229.573 Y116.881 E9.24416
G1 X230.031 Y117.194 E9.26168
G1 X230.441 Y117.536 E9.27855
G1 X230.862 Y118.014 E9.29868
G1 X231.17 Y118.451 E9.31557
G1 X231.43 Y118.961 E9.33366
G1 X231.624 Y119.459 E9.35055
G1 X231.755 Y120.017 E9.36866
G1 X231.827 Y120.596 E9.38709
G1 X231.841 Y121.004 E9.39999
G1 X231.847 Y132.165 E9.75265
G1 X231.838 Y132.875 E9.77508
G1 X231.803 Y133.728 E9.80206
G1 X231.725 Y136.518 E9.89025
G1 X231.727 Y139.24 E9.97626
G1 X231.839 Y142.912 E10.09234
G1 X231.847 Y154.165 E10.4479
G1 X231.838 Y154.875 E10.47033
G1 X231.803 Y155.728 E10.49731
G1 X231.725 Y158.518 E10.5855
G1 X231.727 Y161.24 E10.67151
G1 X231.839 Y164.912 E10.78759
G1 X231.847 Y176.116 E11.1416
G1 X231.838 Y176.87 E11.16543
G1 X231.777 Y177.533 E11.18646
G1 X231.671 Y178.057 E11.20336
G1 X231.497 Y178.538 E11.21952
G1 X231.368 Y178.828 E11.22955
G1 X231.115 Y179.298 E11.24641
G1 X230.74 Y179.798 E11.26616
G1 X230.221 Y180.319 E11.2894
G1 X229.625 Y180.754 E11.31271
G1 X229.12 Y181.011 E11.33062
G1 X228.622 Y181.205 E11.3475
G1 X228.008 Y181.343 E11.36739
G1 X227.468 Y181.405 E11.38456
G1 X217.402 Y181.422 E11.70262
G1 X216.678 Y181.413 E11.7255
G1 X215.174 Y181.345 E11.77307
G1 X212.459 Y181.264 E11.85889
G1 X209.728 Y181.26 E11.94518
G1 X206.951 Y181.335 E12.03296
G1 X205.657 Y181.4 E12.0739
G1 X205.07 Y181.418 E12.09246
G1 X195.402 Y181.422 E12.39794
G1 X194.678 Y181.413 E12.42081
G1 X193.174 Y181.345 E12.46838
G1 X190.459 Y181.264 E12.55421
G1 X187.728 Y181.26 E12.6405
G1 X184.951 Y181.335 E12.72828
G1 X183.657 Y181.4 E12.76922
G1 X183.07 Y181.418 E12.78777
G1 X173.402 Y181.422 E13.09325
G1 X172.687 Y181.413 E13.11585
G1 X172.017 Y181.349 E13.13711
G1 X171.494 Y181.239 E13.154
G1 X170.943 Y181.039 E13.17252
G1 X170.463 Y180.805 E13.1894
G1 X169.997 Y180.492 E13.20713
G1 X169.587 Y180.151 E13.22398
G1 X169.183 Y179.705 E13.243
G1 X168.866 Y179.275 E13.25988
G1 X168.555 Y178.673 E13.28129
G1 X168.364 Y178.174 E13.29817
G1 X168.229 Y177.567 E13.31782
G1 X168.167 Y176.969 E13.33681
G1 X168.157 Y176.456 E13.35303
G1 X168.153 Y165.623 E13.69532
G1 X168.163 Y165.009 E13.71472
G1 X168.273 Y161.802 E13.81611
G1 X168.285 Y159.069 E13.90247
G1 X168.218 Y156.338 E13.98879
G1 X168.162 Y154.854 E14.03571
G1 X168.153 Y143.623 E14.39058
G1 X168.163 Y143.009 E14.40998
G1 X168.273 Y139.802 E14.51137
G1 X168.285 Y137.069 E14.59773
G1 X168.218 Y134.338 E14.68405
G1 X168.162 Y132.854 E14.73097
G1 X168.153 Y121.623 E15.08584
G1 X168.163 Y121.023 E15.1048
G1 X168.189 Y120.465 E15.12245
G1 X168.254 Y119.935 E15.13932
G1 X168.443 Y119.275 E15.16101
G1 X168.648 Y118.782 E15.17788
G1 X168.935 Y118.297 E15.19569
G1 X169.252 Y117.867 E15.21257
G1 X169.664 Y117.449 E15.23111
G1 X170.076 Y117.109 E15.24799
G1 X170.591 Y116.796 E15.26703
G1 X171.073 Y116.567 E15.2839
G1 X171.715 Y116.376 E15.30506
G1 X172.241 Y116.282 E15.32194
G1 X173.057 Y116.253 E15.34774
G1 X182.55 Y116.244 E15.64769
G1 X183.328 Y116.253 E15.67228
G1 X184.543 Y116.302 E15.7107
G0 F1600 X184.558 Y115.922
G1 F1200 X187.682 Y116.023 E15.80946
G1 X190.429 Y116.023 E15.89626
G1 X193.101 Y115.947 E15.98072
G1 X193.922 Y115.904 E16.0067
G1 X194.633 Y115.879 E16.02918
G1 X204.55 Y115.864 E16.34253
G1 X205.333 Y115.873 E16.36727
G1 X206.558 Y115.922 E16.406
G1 X209.682 Y116.023 E16.50477
G1 X212.429 Y116.023 E16.59156
G1 X215.101 Y115.947 E16.67602
G1 X215.922 Y115.904 E16.702
G1 X216.633 Y115.879 E16.72448
G1 X226.55 Y115.864 E17.03783
G1 X227.18 Y115.871 E17.05774
G1 X227.954 Y115.936 E17.08228
G1 X228.507 Y116.034 E17.10003
G1 X229.036 Y116.208 E17.11762
G1 X229.742 Y116.54 E17.14227
G1 X230.252 Y116.885 E17.16173
G1 X230.685 Y117.244 E17.1795
G1 X231.156 Y117.773 E17.20188
G1 X231.481 Y118.231 E17.21962
G1 X231.773 Y118.798 E17.23978
G1 X231.979 Y119.321 E17.25754
G1 X232.127 Y119.94 E17.27765
G1 X232.206 Y120.579 E17.29799
G1 X232.221 Y121.004 E17.31143
G1 X232.227 Y132.165 E17.66408
G1 X232.218 Y132.88 E17.68668
G1 X232.18 Y133.795 E17.71561
G1 X232.105 Y136.492 E17.80086
G1 X232.107 Y139.228 E17.88731
G1 X232.219 Y142.901 E18.00342
G1 X232.227 Y154.165 E18.35933
G1 X232.218 Y154.88 E18.38193
G1 X232.18 Y155.795 E18.41086
G1 X232.105 Y158.492 E18.49612
G1 X232.107 Y161.228 E18.58257
G1 X232.219 Y164.901 E18.69868
G1 X232.227 Y176.116 E19.05304
G1 X232.218 Y176.875 E19.07702
G1 X232.154 Y177.581 E19.09942
G1 X232.044 Y178.132 E19.11717
G1 X231.844 Y178.692 E19.13596
G1 X231.715 Y178.982 E19.14599
G1 X231.451 Y179.478 E19.16375
G1 X231.036 Y180.036 E19.18572
G1 X230.461 Y180.614 E19.21148
G1 X229.844 Y181.066 E19.23565
G1 X229.284 Y181.354 E19.25554
G1 X228.761 Y181.56 E19.2733
G1 X228.08 Y181.717 E19.29539
G1 X227.483 Y181.785 E19.31437
G1 X217.403 Y181.802 E19.63287
G1 X216.673 Y181.793 E19.65594
G1 X215.146 Y181.724 E19.70424
G1 X212.447 Y181.644 E19.78956
G1 X209.737 Y181.64 E19.87518
G1 X206.98 Y181.714 E19.96233
G1 X205.676 Y181.78 E20.00358
G1 X205.071 Y181.798 E20.02271
G1 X195.403 Y181.802 E20.32819
G1 X194.673 Y181.793 E20.35126
G1 X193.146 Y181.724 E20.39956
G1 X190.447 Y181.644 E20.48487
G1 X187.737 Y181.64 E20.5705
G1 X184.98 Y181.714 E20.65765
G1 X183.676 Y181.78 E20.6989
G1 X183.071 Y181.798 E20.71803
G1 X173.403 Y181.802 E21.02351
G1 X172.682 Y181.793 E21.04629
G1 X171.967 Y181.726 E21.06898
G1 X171.417 Y181.613 E21.08672
G1 X170.803 Y181.392 E21.10734
G1 X170.297 Y181.148 E21.12509
G1 X169.777 Y180.802 E21.14483
G1 X169.344 Y180.444 E21.16258
G1 X168.895 Y179.952 E21.18363
G1 X168.56 Y179.501 E21.20138
G1 X168.318 Y179.062 E21.21722
G1 X168.008 Y178.311 E21.24289
G1 X167.856 Y177.638 E21.26469
G1 X167.787 Y176.976 E21.28572
G1 X167.777 Y176.463 E21.30193
G1 X167.773 Y165.623 E21.64444
G1 X167.783 Y164.991 E21.66442
G1 X167.893 Y161.789 E21.76565
G1 X167.905 Y159.076 E21.85137
G1 X167.838 Y156.326 E21.93829
G1 X167.782 Y154.867 E21.98443
G1 X167.773 Y143.623 E22.3397
G1 X167.783 Y142.991 E22.35968
G1 X167.893 Y139.789 E22.46091
G1 X167.905 Y137.076 E22.54663
G1 X167.838 Y134.326 E22.63355
G1 X167.782 Y132.867 E22.67969
G1 X167.773 Y121.623 E23.03496
G1 X167.783 Y121.005 E23.05449
G1 X167.809 Y120.447 E23.07214
G1 X167.875 Y119.889 E23.0899
G1 X168.005 Y119.391 E23.10616
G1 X168.296 Y118.636 E23.13173
G1 X168.613 Y118.095 E23.15154
G1 X168.945 Y117.642 E23.16929
G1 X169.401 Y117.175 E23.18991
G1 X169.833 Y116.816 E23.20766
G1 X170.403 Y116.466 E23.22879
G1 X170.909 Y116.223 E23.24653
G1 X171.62 Y116.008 E23.27
G1 X172.173 Y115.907 E23.28776
G1 X173.049 Y115.873 E23.31546
G1 X182.55 Y115.864 E23.61566
G1 X183.333 Y115.873 E23.64041
G1 X184.558 Y115.922 E23.67914
G1 F4200 E15.67914
;MESH:ktBOX4c.stl(7)
G0 F1600 X183.368 Y120.419
G0 X183.472 Y120.44
;TYPE:WALL-INNER
G1 F4200 E23.67914
G1 F1200 X183.566 Y120.509 E23.68283
G1 X183.631 Y120.587 E23.68604
G1 X183.678 Y120.689 E23.68959
G1 X183.702 Y120.814 E23.69361
G1 X183.707 Y132.807 E24.07255
G1 X183.689 Y132.948 E24.07704
G1 X183.648 Y133.051 E24.08055
G1 X183.582 Y133.142 E24.0841
G1 X183.503 Y133.207 E24.08733
G1 X183.401 Y133.255 E24.09089
G1 X183.275 Y133.279 E24.09495
G1 X172.768 Y133.282 E24.42694
G1 X172.627 Y133.264 E24.43143
G1 X172.525 Y133.224 E24.43489
G1 X172.434 Y133.157 E24.43846
G1 X172.369 Y133.077 E24.44172
G1 X172.319 Y132.971 E24.44542
G1 X172.296 Y132.854 E24.44919
G1 X172.293 Y120.978 E24.82444
G1 X172.309 Y120.739 E24.832
G1 X172.341 Y120.639 E24.83532
G1 X172.4 Y120.545 E24.83883
G1 X172.479 Y120.472 E24.84223
G1 X172.574 Y120.419 E24.84566
G1 X172.681 Y120.392 E24.84915
G1 X183.235 Y120.383 E25.18263
G1 X183.372 Y120.4 E25.18699
G1 X183.472 Y120.44 E25.19039
G0 F1600 X183.654 Y120.115
;TYPE:WALL-OUTER
G1 F1200 X183.821 Y120.237 E25.19693
G1 X183.947 Y120.389 E25.20317
G1 X184.032 Y120.572 E25.20954
G1 X184.072 Y120.781 E25.21626
G1 X184.077 Y132.831 E25.59701
G1 X184.05 Y133.041 E25.6037
G1 X183.973 Y133.233 E25.61024
G1 X183.855 Y133.396 E25.61659
G1 X183.7 Y133.523 E25.62293
G1 X183.517 Y133.609 E25.62932
G1 X183.308 Y133.649 E25.63604
G1 X172.743 Y133.652 E25.96986
G1 X172.535 Y133.625 E25.97649
G1 X172.345 Y133.55 E25.98294
G1 X172.178 Y133.428 E25.98948
G1 X172.053 Y133.276 E25.9957
G1 X171.965 Y133.089 E26.00223
G1 X171.926 Y132.888 E26.0087
G1 X171.923 Y120.968 E26.38533
G1 X171.943 Y120.67 E26.39477
G1 X172.004 Y120.479 E26.40111
G1 X172.112 Y120.308 E26.4075
G1 X172.26 Y120.17 E26.41389
G1 X172.437 Y120.072 E26.42028
G1 X172.633 Y120.022 E26.42668
G1 X183.257 Y120.013 E26.76236
G1 X183.465 Y120.039 E26.76899
G1 X183.654 Y120.115 E26.77542
G0 F1600 X183.816 Y120.233
G0 X183.569 Y120.572
G0 X183.314 Y120.785
;TYPE:SKIN
G1 F1200 X183.321 Y120.8 E26.77595
G1 X183.332 Y120.854 E26.77769
G1 X183.337 Y132.79 E27.15483
G1 X183.322 Y132.871 E27.15743
G1 X183.309 Y132.888 E27.15811
G1 X183.287 Y132.899 E27.15889
G1 X183.237 Y132.909 E27.1605
G1 X172.784 Y132.912 E27.49078
G1 X172.707 Y132.898 E27.49326
G1 X172.685 Y132.879 E27.49418
G1 X172.673 Y132.854 E27.49505
G1 X172.666 Y132.818 E27.49621
G1 X172.663 Y121.003 E27.86953
G1 X172.677 Y120.804 E27.87583
G1 X172.697 Y120.774 E27.87697
G1 X172.727 Y120.762 E27.87799
G1 X183.206 Y120.753 E28.2091
G1 X183.283 Y120.762 E28.21155
G1 X183.314 Y120.785 E28.21277
G0 F1600 X182.725 Y120.924
G1 F1200 X183.161 Y121.36 E28.23225
G0 F1600 X183.161 Y121.897
G1 F1200 X182.188 Y120.925 E28.27571
G0 F1600 X181.651 Y120.925
G1 F1200 X183.161 Y122.434 E28.34316
G0 F1600 X183.161 Y122.972
G1 F1200 X181.114 Y120.925 E28.43463
G0 F1600 X180.578 Y120.926
G1 F1200 X183.161 Y123.51 E28.55007
G0 F1600 X183.161 Y124.047
G1 F1200 X180.04 Y120.926 E28.68954
G0 F1600 X179.504 Y120.927
G1 F1200 X183.161 Y124.585 E28.85297
G0 F1600 X183.162 Y125.123
G1 F1200 X178.967 Y120.927 E29.04045
G0 F1600 X178.429 Y120.927
G1 F1200 X183.162 Y125.66 E29.25194
G0 F1600 X183.162 Y126.198
G1 F1200 X177.893 Y120.928 E29.48741
G0 F1600 X177.356 Y120.929
G1 F1200 X183.162 Y126.735 E29.74685
G0 F1600 X183.163 Y127.273
G1 F1200 X176.819 Y120.929 E30.03034
G0 F1600 X176.282 Y120.93
G1 F1200 X183.163 Y127.81 E30.33779
G0 F1600 X183.163 Y128.348
G1 F1200 X175.745 Y120.93 E30.66926
G0 F1600 X175.209 Y120.931
G1 F1200 X183.163 Y128.886 E31.02471
G0 F1600 X183.163 Y129.423
G1 F1200 X174.671 Y120.931 E31.40418
G0 F1600 X174.134 Y120.932
G1 F1200 X183.163 Y129.961 E31.80764
G0 F1600 X183.163 Y130.498
G1 F1200 X173.598 Y120.932 E32.23508
G0 F1600 X173.06 Y120.932
G1 F1200 X183.164 Y131.036 E32.68657
G0 F1600 X183.164 Y131.574
G1 F1200 X172.833 Y121.242 E33.14824
G0 F1600 X172.833 Y121.78
G1 F1200 X183.164 Y132.111 E33.60988
G0 F1600 X183.164 Y132.648
G1 F1200 X172.833 Y122.317 E34.07152
G0 F1600 X172.833 Y122.854
G1 F1200 X182.716 Y132.738 E34.51317
G0 F1600 X182.178 Y132.738
G1 F1200 X172.833 Y123.392 E34.93077
G0 F1600 X172.833 Y123.93
G1 F1200 X181.641 Y132.738 E35.32436
G0 F1600 X181.104 Y132.738
G1 F1200 X172.833 Y124.467 E35.69395
G0 F1600 X172.833 Y125.005
G1 F1200 X180.567 Y132.738 E36.03952
G0 F1600 X180.03 Y132.738
G1 F1200 X172.833 Y125.542 E36.3611
G0 F1600 X172.834 Y126.08
G1 F1200 X179.492 Y132.738 E36.65861
G0 F1600 X178.955 Y132.738
G1 F1200 X172.834 Y126.618 E36.9321
G0 F1600 X172.834 Y127.155
G1 F1200 X178.417 Y132.738 E37.18158
G0 F1600 X177.881 Y132.739
G1 F1200 X172.834 Y127.692 E37.40711
G0 F1600 X172.835 Y128.23
G1 F1200 X177.343 Y132.739 E37.60857
G0 F1600 X176.806 Y132.739
G1 F1200 X172.835 Y128.768 E37.78601
G0 F1600 X172.835 Y129.305
G1 F1200 X176.268 Y132.739 E37.93944
G0 F1600 X175.731 Y132.739
G1 F1200 X172.835 Y129.843 E38.06885
G0 F1600 X172.835 Y130.38
G1 F1200 X175.194 Y132.74 E38.17428
G0 F1600 X174.657 Y132.74
G1 F1200 X172.835 Y130.918 E38.2557
