;FLAVOR:Marlin
;TIME:2920
;Filament used: 1.99973m, 0m
;Layer height: 0.2
;MINX:165.542
;MINY:112.542
;MINZ:0.2
;MAXX:212.458
;MAXY:186.458
;MAXZ:7
;Generated with Cura_SteamEngine 4.6.1
T0
M140 S50
M105
M190 S50
M104 S205
M105
M109 S205
M82 ;absolute extrusion mode
G28 ;Home
G1 Z15.0 F6000 ;Move the platform down 15mm
;Prime the extruder
G92 E0
G1 F200 E3
G92 E0
G92 E0
G92 E0
G1 F4200 E-8
;LAYER_COUNT:35
;LAYER:0
M107
G1 F600 Z0.6
G0 F1600 X186.1 Y113.356 Z0.6
;TYPE:SKIRT
G1 F600 Z0.2
G1 F4200 E0
G1 F1200 X188.514 Y113.669 E0.07691
G1 X191.218 Y113.942 E0.16279
G1 X193.965 Y114.14 E0.24981
G1 X196.681 Y114.26 E0.33571
G1 X199.653 Y114.304 E0.42963
G1 X206.845 Y114.302 E0.65687
G1 X207.532 Y114.311 E0.67858
G1 X208.136 Y114.367 E0.69775
G1 X208.631 Y114.468 E0.71371
G1 X209.116 Y114.642 E0.72999
G1 X209.78 Y114.995 E0.75375
G1 X209.989 Y115.14 E0.76179
G1 X210.38 Y115.46 E0.77776
G1 X210.744 Y115.859 E0.79482
G1 X211.042 Y116.266 E0.81076
G1 X211.321 Y116.804 E0.82991
G1 X211.505 Y117.275 E0.84589
G1 X211.624 Y117.809 E0.86317
G1 X211.679 Y118.278 E0.87809
G1 X211.693 Y118.673 E0.89058
G1 X211.698 Y132.843 E1.33832
G1 X211.689 Y133.532 E1.36009
G1 X211.601 Y136.586 E1.45662
G1 X211.601 Y139.328 E1.54326
G1 X211.644 Y141.129 E1.60019
G1 X211.691 Y142.558 E1.64536
G1 X211.698 Y156.843 E2.09673
G1 X211.689 Y157.532 E2.1185
G1 X211.601 Y160.586 E2.21504
G1 X211.601 Y163.328 E2.30168
G1 X211.644 Y165.129 E2.3586
G1 X211.691 Y166.558 E2.40378
G1 X211.698 Y180.807 E2.854
G1 X211.689 Y181.519 E2.8765
G1 X211.635 Y182.121 E2.8956
G1 X211.536 Y182.616 E2.91155
G1 X211.371 Y183.084 E2.92723
G1 X211.036 Y183.729 E2.9502
G1 X210.885 Y183.953 E2.95873
G1 X210.571 Y184.348 E2.97468
G1 X210.113 Y184.766 E2.99427
G1 X209.705 Y185.062 E3.0102
G1 X209.196 Y185.324 E3.02828
G1 X208.724 Y185.505 E3.04426
G1 X208.194 Y185.623 E3.06141
G1 X207.708 Y185.68 E3.07687
G1 X207.31 Y185.694 E3.08946
G1 X193.387 Y185.698 E3.52939
G1 X192.005 Y185.679 E3.57306
G1 X189.862 Y185.631 E3.64079
G1 X185.752 Y185.681 E3.77066
G1 X171.387 Y185.698 E4.22455
G1 X170.556 Y185.687 E4.25081
G1 X170.159 Y185.666 E4.26337
G1 X169.418 Y185.533 E4.28716
G1 X169.123 Y185.443 E4.29691
G1 X168.653 Y185.258 E4.31287
G1 X168.173 Y184.977 E4.33044
G1 X167.768 Y184.675 E4.3464
G1 X167.392 Y184.299 E4.36321
G1 X167.073 Y183.908 E4.37915
G1 X166.803 Y183.457 E4.39576
G1 X166.589 Y182.999 E4.41173
G1 X166.424 Y182.428 E4.43051
G1 X166.323 Y181.686 E4.45417
G1 X166.312 Y181.071 E4.47361
G1 X166.302 Y167.196 E4.91202
G1 X166.311 Y166.485 E4.93449
G1 X166.404 Y163.324 E5.03441
G1 X166.404 Y160.593 E5.1207
G1 X166.344 Y158.292 E5.19343
G1 X166.318 Y157.607 E5.21509
G1 X166.311 Y157.048 E5.23275
G1 X166.302 Y143.196 E5.67044
G1 X166.312 Y142.432 E5.69458
G1 X166.346 Y141.6 E5.72089
G1 X166.424 Y138.809 E5.80911
G1 X166.422 Y136.078 E5.8954
G1 X166.364 Y133.855 E5.96567
G1 X166.319 Y132.661 E6.00342
G1 X166.311 Y132.05 E6.02273
G1 X166.302 Y118.194 E6.46054
G1 X166.312 Y117.462 E6.48367
G1 X166.366 Y116.87 E6.50245
G1 X166.466 Y116.375 E6.51841
G1 X166.634 Y115.901 E6.5343
G1 X166.851 Y115.445 E6.55026
G1 X167.166 Y114.975 E6.56813
G1 X167.489 Y114.587 E6.58409
G1 X167.924 Y114.203 E6.60242
G1 X168.337 Y113.913 E6.61837
G1 X168.82 Y113.67 E6.63545
G1 X169.291 Y113.49 E6.65138
G1 X169.817 Y113.375 E6.66839
G1 X170.292 Y113.32 E6.6835
G1 X170.69 Y113.306 E6.69609
G1 X184.843 Y113.302 E7.14328
G1 X185.532 Y113.311 E7.16505
G1 X186.1 Y113.356 E7.18306
G0 F1600 X186.149 Y112.98
G1 F1200 X188.532 Y113.289 E7.25898
G1 X191.249 Y113.563 E7.34527
G1 X193.972 Y113.76 E7.43153
G1 X196.704 Y113.88 E7.51794
G1 X199.658 Y113.924 E7.61129
G1 X206.845 Y113.922 E7.83838
G1 X207.537 Y113.931 E7.86024
G1 X208.182 Y113.99 E7.88071
G1 X208.706 Y114.094 E7.89759
G1 X209.253 Y114.288 E7.91593
G1 X209.735 Y114.517 E7.93279
G1 X210.206 Y114.828 E7.95062
G1 X210.621 Y115.164 E7.96749
G1 X211.031 Y115.611 E7.98666
G1 X211.349 Y116.04 E8.00353
G1 X211.663 Y116.639 E8.0249
G1 X211.859 Y117.135 E8.04175
G1 X211.998 Y117.737 E8.06127
G1 X212.059 Y118.262 E8.07797
G1 X212.073 Y118.673 E8.09097
G1 X212.078 Y132.843 E8.5387
G1 X212.069 Y133.537 E8.56063
G1 X211.981 Y136.597 E8.65736
G1 X211.981 Y139.319 E8.74336
G1 X212.024 Y141.117 E8.80019
G1 X212.071 Y142.546 E8.84537
G1 X212.078 Y156.843 E9.29711
G1 X212.069 Y157.537 E9.31904
G1 X211.981 Y160.597 E9.41577
G1 X211.981 Y163.319 E9.50178
G1 X212.024 Y165.117 E9.55861
G1 X212.071 Y166.546 E9.60378
G1 X212.078 Y180.807 E10.05439
G1 X212.069 Y181.524 E10.07705
G1 X212.012 Y182.166 E10.09741
G1 X211.91 Y182.69 E10.11428
G1 X211.726 Y183.22 E10.13201
G1 X211.499 Y183.703 E10.14887
G1 X211.2 Y184.166 E10.16628
G1 X210.869 Y184.585 E10.18316
G1 X210.36 Y185.054 E10.20502
G1 X209.929 Y185.37 E10.22191
G1 X209.359 Y185.667 E10.24222
G1 X208.861 Y185.86 E10.2591
G1 X208.267 Y185.996 E10.27835
G1 X207.724 Y186.06 E10.29563
G1 X207.31 Y186.074 E10.30871
G1 X193.387 Y186.078 E10.74864
G1 X191.999 Y186.059 E10.7925
G1 X189.859 Y186.011 E10.86014
G1 X185.768 Y186.061 E10.98941
G1 X171.387 Y186.078 E11.44381
G1 X170.551 Y186.067 E11.47023
G1 X170.137 Y186.046 E11.48332
G1 X169.608 Y185.974 E11.50019
G1 X169.012 Y185.807 E11.51975
G1 X168.515 Y185.613 E11.53661
G1 X167.97 Y185.299 E11.55648
G1 X167.541 Y184.981 E11.57336
G1 X167.117 Y184.562 E11.59219
G1 X166.778 Y184.149 E11.60907
G1 X166.472 Y183.644 E11.62773
G1 X166.244 Y183.161 E11.64461
G1 X166.056 Y182.524 E11.66559
G1 X165.961 Y181.998 E11.68248
G1 X165.932 Y181.078 E11.71157
G1 X165.922 Y167.196 E12.1502
G1 X165.931 Y166.48 E12.17282
G1 X166.024 Y163.313 E12.27293
G1 X166.024 Y160.603 E12.35856
G1 X165.964 Y158.302 E12.43129
G1 X165.939 Y157.622 E12.45279
G1 X165.931 Y157.052 E12.4708
G1 X165.922 Y143.196 E12.90861
G1 X165.932 Y142.426 E12.93295
G1 X165.966 Y141.582 E12.95964
G1 X166.044 Y138.798 E13.04764
G1 X166.042 Y136.088 E13.13327
G1 X165.984 Y133.865 E13.20353
G1 X165.939 Y132.675 E13.24116
G1 X165.931 Y132.055 E13.26075
G1 X165.922 Y118.194 E13.69872
G1 X165.932 Y117.457 E13.72201
G1 X165.989 Y116.824 E13.74209
G1 X166.093 Y116.3 E13.75897
G1 X166.279 Y115.766 E13.77683
G1 X166.506 Y115.282 E13.79373
G1 X166.856 Y114.756 E13.81369
G1 X167.195 Y114.344 E13.83055
G1 X167.682 Y113.91 E13.85116
G1 X168.117 Y113.601 E13.86802
G1 X168.657 Y113.326 E13.88717
G1 X169.155 Y113.134 E13.90403
G1 X169.745 Y113.002 E13.92313
G1 X170.276 Y112.94 E13.94003
G1 X170.69 Y112.926 E13.95311
G1 X184.843 Y112.922 E14.40031
G1 X185.537 Y112.931 E14.42224
G1 X186.149 Y112.98 E14.44164
G0 F1600 X186.058 Y112.587
G1 F1200 X188.581 Y112.912 E14.52202
G1 X191.281 Y113.184 E14.60776
G1 X194.019 Y113.382 E14.6945
G1 X196.691 Y113.5 E14.77901
G1 X199.664 Y113.544 E14.87296
G1 X206.845 Y113.542 E15.09986
G1 X207.542 Y113.551 E15.12188
G1 X208.229 Y113.612 E15.14367
G1 X208.78 Y113.72 E15.16142
G1 X209.39 Y113.933 E15.18183
G1 X209.898 Y114.173 E15.19958
G1 X210.423 Y114.516 E15.2194
G1 X210.86 Y114.868 E15.23713
G1 X211.319 Y115.363 E15.25846
G1 X211.655 Y115.813 E15.2762
G1 X212.005 Y116.473 E15.29981
G1 X212.214 Y116.995 E15.31758
G1 X212.371 Y117.665 E15.33932
G1 X212.439 Y118.246 E15.3578
G1 X212.453 Y118.673 E15.3713
G1 X212.458 Y132.843 E15.81903
G1 X212.449 Y133.542 E15.84112
G1 X212.361 Y136.571 E15.93687
G1 X212.361 Y139.31 E16.02341
G1 X212.404 Y141.104 E16.08012
G1 X212.451 Y142.533 E16.12529
G1 X212.458 Y156.843 E16.57745
G1 X212.449 Y157.542 E16.59954
G1 X212.361 Y160.571 E16.69528
G1 X212.361 Y163.31 E16.78183
G1 X212.404 Y165.104 E16.83853
G1 X212.451 Y166.533 E16.88371
G1 X212.458 Y180.807 E17.33472
G1 X212.449 Y181.529 E17.35754
G1 X212.39 Y182.21 E17.37914
G1 X212.284 Y182.762 E17.3969
G1 X212.081 Y183.355 E17.4167
G1 X211.844 Y183.864 E17.43444
G1 X211.515 Y184.378 E17.45373
G1 X211.169 Y184.82 E17.47146
G1 X210.807 Y185.172 E17.48742
G1 X210.607 Y185.343 E17.49573
G1 X210.155 Y185.677 E17.51349
G1 X209.523 Y186.01 E17.53606
G1 X209 Y186.215 E17.55381
G1 X208.34 Y186.369 E17.57522
G1 X207.739 Y186.44 E17.59435
G1 X207.31 Y186.454 E17.60791
G1 X193.387 Y186.458 E18.04783
G1 X191.994 Y186.439 E18.09185
G1 X189.854 Y186.391 E18.15949
G1 X185.785 Y186.441 E18.28807
G1 X171.387 Y186.458 E18.743
G1 X170.546 Y186.447 E18.76958
G1 X170.114 Y186.425 E18.78325
G1 X169.557 Y186.352 E18.801
G1 X168.901 Y186.17 E18.82251
G1 X168.377 Y185.968 E18.84025
G1 X167.768 Y185.62 E18.86241
G1 X167.315 Y185.288 E18.88016
G1 X166.843 Y184.824 E18.90107
G1 X166.484 Y184.392 E18.91882
G1 X166.141 Y183.831 E18.9396
G1 X165.9 Y183.324 E18.95734
G1 X165.688 Y182.619 E18.9806
G1 X165.586 Y182.066 E18.99836
G1 X165.552 Y181.085 E19.02938
G1 X165.542 Y167.197 E19.4682
G1 X165.551 Y166.475 E19.49102
G1 X165.644 Y163.339 E19.59015
G1 X165.644 Y160.613 E19.67628
G1 X165.584 Y158.312 E19.74901
G1 X165.559 Y157.636 E19.77039
G1 X165.551 Y157.056 E19.78871
G1 X165.542 Y143.197 E20.22662
G1 X165.552 Y142.421 E20.25114
G1 X165.588 Y141.524 E20.27951
G1 X165.664 Y138.824 E20.36485
G1 X165.662 Y136.098 E20.45099
G1 X165.604 Y133.875 E20.52125
G1 X165.56 Y132.69 E20.55872
G1 X165.551 Y132.059 E20.57866
G1 X165.542 Y118.195 E21.01672
G1 X165.552 Y117.451 E21.04023
G1 X165.612 Y116.778 E21.06158
G1 X165.719 Y116.227 E21.07932
G1 X165.924 Y115.63 E21.09926
G1 X166.161 Y115.121 E21.117
G1 X166.545 Y114.537 E21.13909
G1 X166.901 Y114.102 E21.15685
G1 X167.439 Y113.618 E21.17971
G1 X167.896 Y113.291 E21.19747
G1 X168.494 Y112.983 E21.21872
G1 X169.018 Y112.779 E21.23649
G1 X169.672 Y112.629 E21.25769
G1 X170.261 Y112.56 E21.27643
G1 X170.69 Y112.546 E21.28999
G1 X184.843 Y112.542 E21.73718
G1 X185.542 Y112.551 E21.75927
G1 X186.058 Y112.587 E21.77562
G1 F4200 E13.77562
;MESH:ktBOX4c.stl(2)
G0 F1600 X185.472 Y117.081
G0 X185.712 Y117.12
;TYPE:WALL-INNER
G1 F4200 E21.77562
G1 F1200 X185.799 Y117.183 E21.77901
G1 X185.867 Y117.265 E21.78238
G1 X185.912 Y117.361 E21.78573
G1 X185.935 Y117.482 E21.78962
G1 X185.938 Y132.473 E22.26329
G1 X185.92 Y132.61 E22.26766
G1 X185.879 Y132.713 E22.27116
G1 X185.817 Y132.8 E22.27454
G1 X185.736 Y132.866 E22.27784
G1 X185.636 Y132.913 E22.28133
G1 X185.52 Y132.935 E22.28506
G1 X170.748 Y132.938 E22.75181
G1 X170.404 Y132.922 E22.76269
G1 X170.314 Y132.893 E22.76568
G1 X170.222 Y132.834 E22.76913
G1 X170.148 Y132.756 E22.77253
G1 X170.098 Y132.665 E22.77581
G1 X170.071 Y132.557 E22.77933
G1 X170.062 Y117.527 E23.25423
G1 X170.08 Y117.39 E23.2586
G1 X170.121 Y117.287 E23.2621
G1 X170.183 Y117.2 E23.26548
G1 X170.264 Y117.134 E23.26878
G1 X170.364 Y117.087 E23.27227
G1 X170.48 Y117.065 E23.276
G1 X185.473 Y117.062 E23.74974
G1 X185.61 Y117.08 E23.7541
G1 X185.712 Y117.12 E23.75757
G0 F1600 X185.893 Y116.794
;TYPE:WALL-OUTER
G1 F1200 X186.053 Y116.91 E23.76381
G1 X186.183 Y117.066 E23.77023
G1 X186.266 Y117.246 E23.77649
G1 X186.305 Y117.448 E23.78299
G1 X186.308 Y132.498 E24.25853
G1 X186.281 Y132.703 E24.26506
G1 X186.206 Y132.893 E24.27151
G1 X186.089 Y133.055 E24.27783
G1 X185.936 Y133.181 E24.28409
G1 X185.752 Y133.267 E24.29051
G1 X185.552 Y133.305 E24.29694
G1 X170.731 Y133.308 E24.76524
G1 X170.339 Y133.29 E24.77764
G1 X170.154 Y133.23 E24.78379
G1 X169.985 Y133.123 E24.79011
G1 X169.847 Y132.976 E24.79648
G1 X169.75 Y132.799 E24.80286
G1 X169.701 Y132.605 E24.80918
G1 X169.692 Y117.502 E25.28639
G1 X169.719 Y117.297 E25.29292
G1 X169.794 Y117.107 E25.29938
G1 X169.911 Y116.945 E25.30569
G1 X170.064 Y116.819 E25.31195
G1 X170.248 Y116.733 E25.31837
G1 X170.448 Y116.695 E25.3248
G1 X185.498 Y116.692 E25.80034
G1 X185.703 Y116.719 E25.80687
G1 X185.893 Y116.794 E25.81333
G0 F1600 X186.053 Y116.91
G0 X186.054 Y116.912
G0 X185.733 Y117.178
G0 X185.516 Y117.44
;TYPE:SKIN
G1 F1200 X185.556 Y117.474 E25.81499
G1 X185.565 Y117.521 E25.8165
G1 X185.568 Y132.448 E26.28815
G1 X185.56 Y132.513 E26.29022
G1 X185.543 Y132.546 E26.29139
G1 X185.523 Y132.557 E26.29211
G1 X185.481 Y132.565 E26.29346
G1 X170.765 Y132.568 E26.75845
G1 X170.473 Y132.554 E26.76768
G1 X170.457 Y132.544 E26.76828
G1 X170.444 Y132.526 E26.76898
G1 X170.441 Y132.513 E26.7694
G1 X170.432 Y117.546 E27.24232
G1 X170.44 Y117.487 E27.2442
G1 X170.457 Y117.454 E27.24537
G1 X170.477 Y117.443 E27.24609
G1 X170.519 Y117.435 E27.24744
G1 X185.454 Y117.432 E27.71935
G1 X185.516 Y117.44 E27.72132
G0 F1600 X185.316 Y117.603
G1 F1200 X185.394 Y117.681 E27.72481
G0 F1600 X185.394 Y118.219
G1 F1200 X184.779 Y117.603 E27.75231
G0 F1600 X184.241 Y117.603
G1 F1200 X185.394 Y118.756 E27.80383
G0 F1600 X185.394 Y119.293
G1 F1200 X183.704 Y117.603 E27.87935
G0 F1600 X183.166 Y117.603
G1 F1200 X185.394 Y119.831 E27.97891
G0 F1600 X185.394 Y120.368
G1 F1200 X182.629 Y117.603 E28.10246
G0 F1600 X182.092 Y117.603
G1 F1200 X185.394 Y120.906 E28.25004
G0 F1600 X185.394 Y121.444
G1 F1200 X181.555 Y117.604 E28.4216
G0 F1600 X181.017 Y117.604
G1 F1200 X185.394 Y121.981 E28.61719
G0 F1600 X185.394 Y122.518
G1 F1200 X180.48 Y117.604 E28.83677
G0 F1600 X179.943 Y117.604
G1 F1200 X185.394 Y123.056 E29.08037
G0 F1600 X185.394 Y123.593
G1 F1200 X179.405 Y117.604 E29.34799
G0 F1600 X178.868 Y117.604
G1 F1200 X185.394 Y124.131 E29.63963
G0 F1600 X185.394 Y124.668
G1 F1200 X178.33 Y117.604 E29.95529
G0 F1600 X177.794 Y117.605
G1 F1200 X185.395 Y125.206 E30.29494
G0 F1600 X185.395 Y125.744
G1 F1200 X177.256 Y117.605 E30.65863
G0 F1600 X176.719 Y117.605
G1 F1200 X185.395 Y126.281 E31.04632
G0 F1600 X185.395 Y126.818
G1 F1200 X176.182 Y117.605 E31.458
G0 F1600 X175.644 Y117.605
G1 F1200 X185.395 Y127.356 E31.89373
G0 F1600 X185.395 Y127.893
G1 F1200 X175.107 Y117.605 E32.35345
G0 F1600 X174.569 Y117.605
G1 F1200 X185.395 Y128.431 E32.83721
G0 F1600 X185.396 Y128.969
G1 F1200 X174.033 Y117.605 E33.34499
G0 F1600 X173.495 Y117.605
G1 F1200 X185.396 Y129.506 E33.87678
G0 F1600 X185.396 Y130.044
G1 F1200 X172.958 Y117.605 E34.4326
G0 F1600 X172.42 Y117.605
G1 F1200 X185.396 Y130.581 E35.01243
G0 F1600 X185.396 Y131.118
G1 F1200 X171.883 Y117.605 E35.61626
G0 F1600 X171.346 Y117.605
G1 F1200 X185.396 Y131.656 E36.24411
G0 F1600 X185.396 Y132.193
G1 F1200 X170.808 Y117.605 E36.89597
G0 F1600 X170.602 Y117.936
G1 F1200 X185.059 Y132.394 E37.54201
G0 F1600 X184.522 Y132.394
G1 F1200 X170.602 Y118.474 E38.16403
G0 F1600 X170.602 Y119.012
G1 F1200 X183.984 Y132.394 E38.762
G0 F1600 X183.447 Y132.394
G1 F1200 X170.602 Y119.549 E39.33598
G0 F1600 X170.603 Y120.087
G1 F1200 X182.91 Y132.394 E39.88592
G0 F1600 X182.372 Y132.394
G1 F1200 X170.603 Y120.625 E40.41182
G0 F1600 X170.604 Y121.163
G1 F1200 X181.835 Y132.394 E40.91368
G0 F1600 X181.298 Y132.395
G1 F1200 X170.604 Y121.7 E41.39156
G0 F1600 X170.605 Y122.238
G1 F1200 X180.761 Y132.395 E41.84541
G0 F1600 X180.223 Y132.395
G1 F1200 X170.605 Y122.776 E42.27521
G0 F1600 X170.605 Y123.314
G1 F1200 X179.686 Y132.395 E42.681
G0 F1600 X179.149 Y132.395
G1 F1200 X170.605 Y123.851 E43.06279
G0 F1600 X170.605 Y124.389
G1 F1200 X178.611 Y132.395 E43.42053
G0 F1600 X178.074 Y132.395
G1 F1200 X170.606 Y124.927 E43.75424
G0 F1600 X170.606 Y125.464
G1 F1200 X177.537 Y132.395 E44.06395
G0 F1600 X177 Y132.395
G1 F1200 X170.607 Y126.002 E44.34963
G0 F1600 X170.607 Y126.54
G1 F1200 X176.462 Y132.395 E44.61126
G0 F1600 X175.925 Y132.395
G1 F1200 X170.607 Y127.078 E44.84887
G0 F1600 X170.607 Y127.615
G1 F1200 X175.387 Y132.395 E45.06247
G0 F1600 X174.85 Y132.395
G1 F1200 X170.608 Y128.153 E45.25202
G0 F1600 X170.608 Y128.691
G1 F1200 X174.313 Y132.396 E45.41758
G0 F1600 X173.776 Y132.396
G1 F1200 X170.609 Y129.229 E45.5591
G0 F1600 X170.609 Y129.766
G1 F1200 X173.239 Y132.396 E45.67662
G0 F1600 X172.701 Y132.396
G1 F1200 X170.61 Y130.304 E45.77008
G0 F1600 X170.61 Y130.842
G1 F1200 X172.164 Y132.396 E45.83952
G0 F1600 X171.626 Y132.396
G1 F1200 X170.61 Y131.38 E45.88492
G0 F1600 X170.61 Y131.917
G1 F1200 X171.089 Y132.396 E45.90632
G1 F4200 E37.90632
;MESH:ktBOX4c.stl(4)
G0 F1600 X185.935 Y118.211
G0 X192.081 Y118.528
G0 X207.665 Y118.207
G0 X207.712 Y118.12
;TYPE:WALL-INNER
G1 F4200 E45.90632
G1 F1200 X207.799 Y118.183 E45.90971
G1 X207.867 Y118.265 E45.91308
G1 X207.912 Y118.361 E45.91643
G1 X207.935 Y118.482 E45.92032
G1 X207.938 Y133.473 E46.39399
