;FLAVOR:Marlin
;TIME:6239
;Filament used: 5.99124m, 0m
;Layer height: 0.2
;MINX:164.05
;MINY:125.05
;MINZ:0.2
;MAXX:235.95
;MAXY:174.95
;MAXZ:22
;Generated with Cura_SteamEngine 4.6.1
T0
M140 S50
M105
M190 S50
M104 S205
M105
M109 S205
M82 ;absolute extrusion mode
G28 ;Home
G1 Z15.0 F6000 ;Move the platform down 15mm
;Prime the extruder
G92 E0
G1 F200 E3
G92 E0
G92 E0
G92 E0
G1 F4200 E-8
;LAYER_COUNT:110
;LAYER:0
M107
G1 F600 Z0.6
G0 F1600 X228.993 Y125.845 Z0.6
;TYPE:SKIRT
G1 F600 Z0.2
G1 F4200 E0
G1 F1200 X229.81 Y125.959 E0.02606
G1 X230.202 Y126.051 E0.03879
G1 X230.639 Y126.183 E0.05321
G1 X231.02 Y126.325 E0.06606
G1 X231.438 Y126.512 E0.08053
G1 X231.794 Y126.699 E0.09323
G1 X232.451 Y127.128 E0.11803
G1 X232.827 Y127.426 E0.13319
G1 X233.124 Y127.693 E0.14581
G1 X233.47 Y128.046 E0.16142
G1 X233.76 Y128.387 E0.17557
G1 X234.155 Y128.957 E0.19748
G1 X234.384 Y129.356 E0.21202
G1 X234.557 Y129.706 E0.22435
G1 X234.763 Y130.195 E0.24112
G1 X234.912 Y130.636 E0.25583
G1 X235.059 Y131.281 E0.27673
G1 X235.136 Y131.807 E0.29353
G1 X235.169 Y132.201 E0.30602
G1 X235.189 Y133.142 E0.33576
G1 X235.19 Y166.736 E1.39723
G1 X235.178 Y167.589 E1.42419
G1 X235.149 Y168.111 E1.44071
G1 X235.041 Y168.827 E1.46359
G1 X234.819 Y169.636 E1.49009
G1 X234.676 Y170.022 E1.5031
G1 X234.501 Y170.413 E1.51664
G1 X234.316 Y170.766 E1.52923
G1 X234.044 Y171.214 E1.54579
G1 X233.784 Y171.581 E1.56
G1 X233.331 Y172.102 E1.58181
G1 X232.952 Y172.472 E1.59855
G1 X232.374 Y172.937 E1.62199
G1 X232.06 Y173.143 E1.63386
G1 X231.618 Y173.397 E1.64996
G1 X231.266 Y173.572 E1.66238
G1 X230.819 Y173.76 E1.67771
G1 X230.378 Y173.908 E1.69241
G1 X229.721 Y174.059 E1.71371
G1 X229.259 Y174.127 E1.72846
G1 X228.858 Y174.16 E1.74117
G1 X227.765 Y174.182 E1.77572
G1 X172.213 Y174.19 E3.531
G1 X171.629 Y174.182 E3.54945
G1 X171.007 Y174.155 E3.56913
G1 X170.19 Y174.041 E3.59519
G1 X169.798 Y173.949 E3.60791
G1 X169.361 Y173.817 E3.62234
G1 X168.98 Y173.675 E3.63519
G1 X168.56 Y173.487 E3.64973
G1 X167.87 Y173.096 E3.67478
G1 X167.549 Y172.872 E3.68715
G1 X167.173 Y172.574 E3.70231
G1 X166.876 Y172.307 E3.71493
G1 X166.528 Y171.952 E3.73064
G1 X166.233 Y171.605 E3.74503
G1 X165.844 Y171.041 E3.76668
G1 X165.615 Y170.642 E3.78121
G1 X165.442 Y170.292 E3.79355
G1 X165.236 Y169.803 E3.81032
G1 X165.086 Y169.358 E3.82515
G1 X164.942 Y168.725 E3.84567
G1 X164.874 Y168.267 E3.8603
G1 X164.84 Y167.862 E3.87314
G1 X164.818 Y166.754 E3.90815
G1 X164.81 Y133.323 E4.96448
G1 X164.822 Y132.444 E4.99225
G1 X164.853 Y131.882 E5.01004
G1 X164.94 Y131.265 E5.02973
G1 X165.171 Y130.397 E5.05811
G1 X165.324 Y129.978 E5.0722
G1 X165.499 Y129.587 E5.08574
G1 X165.684 Y129.234 E5.09833
G1 X165.956 Y128.786 E5.11489
G1 X166.212 Y128.424 E5.1289
G1 X166.666 Y127.9 E5.15081
G1 X167.039 Y127.535 E5.1673
G1 X167.37 Y127.252 E5.18106
G1 X167.94 Y126.857 E5.20297
G1 X168.382 Y126.603 E5.21908
G1 X168.734 Y126.428 E5.2315
G1 X169.181 Y126.24 E5.24682
G1 X169.622 Y126.092 E5.26152
G1 X170.279 Y125.941 E5.28282
G1 X170.741 Y125.873 E5.29757
G1 X171.142 Y125.84 E5.31029
G1 X172.235 Y125.818 E5.34483
G1 X227.787 Y125.81 E7.10011
G1 X228.372 Y125.818 E7.1186
G1 X228.993 Y125.845 E7.13824
G0 F1600 X229.011 Y125.466
G1 F1200 X229.44 Y125.512 E7.15187
G1 X229.873 Y125.585 E7.16575
G1 X230.312 Y125.688 E7.18
G1 X230.749 Y125.82 E7.19442
G1 X231.175 Y125.978 E7.20878
G1 X231.593 Y126.165 E7.22325
G1 X231.992 Y126.375 E7.23749
G1 X232.327 Y126.579 E7.24989
G1 X232.687 Y126.83 E7.26375
G1 X233.063 Y127.128 E7.27891
G1 X233.396 Y127.427 E7.29305
G1 X233.742 Y127.78 E7.30867
G1 X234.066 Y128.161 E7.32447
G1 X234.484 Y128.768 E7.34776
G1 X234.713 Y129.167 E7.3623
G1 X234.907 Y129.558 E7.37609
G1 X235.113 Y130.047 E7.39285
G1 X235.28 Y130.541 E7.40933
G1 X235.435 Y131.226 E7.43152
G1 X235.512 Y131.752 E7.44832
G1 X235.549 Y132.193 E7.4623
G1 X235.569 Y133.134 E7.49204
G1 X235.57 Y166.741 E8.55393
G1 X235.558 Y167.594 E8.58088
G1 X235.528 Y168.134 E8.59797
G1 X235.415 Y168.895 E8.62228
G1 X235.183 Y169.745 E8.65012
G1 X235.023 Y170.177 E8.66468
G1 X234.848 Y170.568 E8.67821
G1 X234.641 Y170.963 E8.6923
G1 X234.369 Y171.411 E8.70886
G1 X234.078 Y171.822 E8.72477
G1 X233.597 Y172.374 E8.74791
G1 X233.218 Y172.744 E8.76464
G1 X232.6 Y173.242 E8.78972
G1 X232.25 Y173.472 E8.80296
G1 X231.808 Y173.726 E8.81906
G1 X231.413 Y173.922 E8.833
G1 X230.966 Y174.11 E8.84832
G1 X230.473 Y174.276 E8.86476
G1 X229.776 Y174.435 E8.88734
G1 X229.314 Y174.503 E8.9021
G1 X228.866 Y174.54 E8.9163
G1 X227.773 Y174.562 E8.95085
G1 X172.213 Y174.57 E10.70638
G1 X171.624 Y174.562 E10.72499
G1 X170.99 Y174.534 E10.74505
G1 X170.56 Y174.488 E10.75871
G1 X170.127 Y174.415 E10.77259
G1 X169.688 Y174.312 E10.78683
G1 X169.251 Y174.18 E10.80126
G1 X168.824 Y174.021 E10.81565
G1 X168.404 Y173.833 E10.83019
G1 X168.005 Y173.623 E10.84444
G1 X167.672 Y173.42 E10.85676
G1 X167.313 Y173.17 E10.87059
G1 X166.937 Y172.872 E10.88575
G1 X166.605 Y172.573 E10.89986
G1 X166.257 Y172.218 E10.91557
G1 X165.927 Y171.83 E10.93167
G1 X165.515 Y171.23 E10.95466
G1 X165.286 Y170.831 E10.9692
G1 X165.092 Y170.44 E10.98299
G1 X164.886 Y169.951 E10.99976
G1 X164.718 Y169.452 E11.01639
G1 X164.566 Y168.781 E11.03813
G1 X164.498 Y168.323 E11.05276
G1 X164.46 Y167.87 E11.06713
G1 X164.438 Y166.762 E11.10214
G1 X164.43 Y133.323 E12.15872
G1 X164.442 Y132.439 E12.18665
G1 X164.473 Y131.859 E12.20501
G1 X164.565 Y131.199 E12.22606
G1 X164.806 Y130.292 E12.25571
G1 X164.977 Y129.823 E12.27149
G1 X165.152 Y129.432 E12.28502
G1 X165.359 Y129.037 E12.29911
G1 X165.631 Y128.589 E12.31567
G1 X165.918 Y128.184 E12.33136
G1 X166.4 Y127.628 E12.35461
G1 X166.773 Y127.263 E12.3711
G1 X167.144 Y126.947 E12.3865
G1 X167.75 Y126.528 E12.40978
G1 X168.192 Y126.274 E12.42588
G1 X168.587 Y126.078 E12.43982
G1 X169.034 Y125.89 E12.45514
G1 X169.527 Y125.724 E12.47158
G1 X170.224 Y125.565 E12.49417
G1 X170.686 Y125.497 E12.50892
G1 X171.134 Y125.46 E12.52312
G1 X172.227 Y125.438 E12.55767
G1 X227.787 Y125.43 E14.3132
G1 X228.377 Y125.438 E14.33185
G1 X229.011 Y125.466 E14.3519
G0 F1600 X229.028 Y125.086
G1 F1200 X229.504 Y125.137 E14.36703
G1 X229.937 Y125.21 E14.3809
G1 X230.422 Y125.324 E14.39664
G1 X230.859 Y125.456 E14.41107
G1 X231.33 Y125.631 E14.42694
G1 X231.748 Y125.818 E14.44141
G1 X232.189 Y126.05 E14.45716
G1 X232.524 Y126.254 E14.46955
G1 X232.923 Y126.532 E14.48492
G1 X233.299 Y126.83 E14.50007
G1 X233.667 Y127.161 E14.51571
G1 X234.013 Y127.514 E14.53133
G1 X234.372 Y127.936 E14.54884
G1 X234.814 Y128.579 E14.57349
G1 X235.043 Y128.978 E14.58803
G1 X235.257 Y129.411 E14.60329
G1 X235.463 Y129.9 E14.62006
G1 X235.648 Y130.446 E14.63827
G1 X235.811 Y131.171 E14.66175
G1 X235.888 Y131.697 E14.67855
G1 X235.929 Y132.185 E14.69402
G1 X235.949 Y133.126 E14.72376
G1 X235.95 Y166.747 E15.78609
G1 X235.938 Y167.6 E15.81304
G1 X235.907 Y168.158 E15.8307
G1 X235.789 Y168.963 E15.85641
G1 X235.685 Y169.394 E15.87042
G1 X235.547 Y169.854 E15.88559
G1 X235.369 Y170.333 E15.90174
G1 X235.194 Y170.724 E15.91528
G1 X234.965 Y171.16 E15.93084
G1 X234.693 Y171.608 E15.9474
G1 X234.372 Y172.062 E15.96497
G1 X233.862 Y172.645 E15.98944
G1 X233.483 Y173.015 E16.00618
G1 X233.08 Y173.359 E16.02292
G1 X232.439 Y173.802 E16.04754
G1 X231.997 Y174.056 E16.06365
G1 X231.56 Y174.272 E16.07905
G1 X231.113 Y174.46 E16.09437
G1 X230.568 Y174.644 E16.11255
G1 X229.831 Y174.811 E16.13642
G1 X229.369 Y174.879 E16.15118
G1 X228.873 Y174.92 E16.1669
G1 X227.78 Y174.942 E16.20145
G1 X172.213 Y174.95 E17.9572
G1 X171.618 Y174.942 E17.97601
G1 X170.972 Y174.914 E17.99644
G1 X170.496 Y174.863 E18.01156
G1 X170.063 Y174.79 E18.02544
G1 X169.578 Y174.676 E18.04118
G1 X169.141 Y174.544 E18.0556
G1 X168.669 Y174.368 E18.07152
G1 X168.249 Y174.18 E18.08606
G1 X167.807 Y173.948 E18.10183
G1 X167.474 Y173.745 E18.11416
G1 X167.077 Y173.468 E18.12945
G1 X166.701 Y173.17 E18.14461
G1 X166.333 Y172.839 E18.16025
G1 X165.985 Y172.484 E18.17596
G1 X165.62 Y172.054 E18.19378
G1 X165.185 Y171.419 E18.2181
G1 X164.956 Y171.02 E18.23264
G1 X164.742 Y170.587 E18.2479
G1 X164.536 Y170.098 E18.26466
G1 X164.35 Y169.546 E18.28307
G1 X164.19 Y168.837 E18.30604
G1 X164.122 Y168.379 E18.32067
G1 X164.08 Y167.877 E18.33658
G1 X164.058 Y166.769 E18.3716
G1 X164.05 Y133.323 E19.4284
G1 X164.062 Y132.433 E19.45652
G1 X164.094 Y131.836 E19.47541
G1 X164.191 Y131.134 E19.4978
G1 X164.287 Y130.72 E19.51123
G1 X164.441 Y130.186 E19.52879
G1 X164.631 Y129.667 E19.54626
G1 X164.806 Y129.276 E19.55979
G1 X165.035 Y128.84 E19.57535
G1 X165.307 Y128.392 E19.59191
G1 X165.624 Y127.943 E19.60928
G1 X166.134 Y127.357 E19.63382
G1 X166.507 Y126.992 E19.65031
G1 X166.918 Y126.642 E19.66737
G1 X167.561 Y126.198 E19.69206
G1 X168.003 Y125.944 E19.70817
G1 X168.44 Y125.728 E19.72357
G1 X168.887 Y125.54 E19.73889
G1 X169.432 Y125.356 E19.75707
G1 X170.169 Y125.189 E19.78095
G1 X170.631 Y125.121 E19.7957
G1 X171.127 Y125.08 E19.81143
G1 X172.22 Y125.058 E19.84597
G1 X227.787 Y125.05 E21.60173
G1 X228.383 Y125.058 E21.62056
G1 X229.028 Y125.086 E21.64096
G1 F4200 E13.64096
G0 F1600 X218.076 Y140.543
;TYPE:SUPPORT
G1 F4200 E21.64096
G1 F1200 X218.076 Y147.32 E21.85509
G1 X217.874 Y147.32 E21.86148
G1 X217.495 Y147.699 E21.87841
G1 X217.496 Y159.497 E22.2512
G1 X198.503 Y159.497 E22.85132
G1 X198.504 Y140.505 E23.45141
G1 X212.786 Y140.504 E23.90268
G1 X213.156 Y140.543 E23.91444
G1 X218.076 Y140.543 E24.0699
G1 F4200 E16.0699
G0 F1600 X215.458 Y142.162
G1 F4200 E24.0699
G1 F1200 X200.542 Y142.163 E24.5412
G1 X200.163 Y142.542 E24.55814
G1 X200.162 Y157.213 E25.0217
G1 X200.353 Y157.676 E25.03752
G1 X200.824 Y157.838 E25.05326
G1 X215.459 Y157.837 E25.51568
G1 X215.665 Y157.631 E25.52489
G1 X215.838 Y157.212 E25.53921
G1 X215.837 Y142.541 E26.00277
G1 X215.458 Y142.162 E26.01971
G0 F1600 X215.6 Y141.82
G1 F1200 X216.179 Y142.399 E26.04558
G1 X216.179 Y151.138 E26.32171
G1 X217.153 Y151.7 E26.35724
G1 X217.154 Y159.155 E26.5928
G1 X216.6 Y159.155 E26.6103
G1 X216.6 Y140.885 E27.18758
G1 X217.734 Y140.885 E27.22341
G1 X217.734 Y146.978 E27.41593
G0 F1600 X217.732 Y146.978
G1 F1200 X217.153 Y147.557 E27.44181
G1 X217.152 Y151.062 E27.55255
G1 X216.179 Y151.623 E27.58804
G1 X216.18 Y157.28 E27.76679
G1 X215.955 Y157.825 E27.78542
G1 X215.601 Y158.179 E27.80124
G1 X205.575 Y158.179 E28.11803
G1 X207.262 Y159.154 E28.1796
G1 X205.2 Y159.155 E28.24475
G1 X205.2 Y158.179 E28.27559
G1 X204.825 Y158.179 E28.28744
G1 X203.135 Y159.154 E28.34909
G1 X198.845 Y159.155 E28.48464
G1 X198.845 Y154.294 E28.63823
G1 X199.82 Y154.857 E28.67381
G1 X199.819 Y147.905 E28.89347
G1 X198.845 Y148.468 E28.92902
G1 X198.845 Y141.13 E29.16088
G1 X200.267 Y141.951 E29.21276
G1 X200.4 Y141.821 E29.21863
G1 X210.36 Y141.82 E29.53334
G1 X212.048 Y140.845 E29.59494
G1 X205.2 Y140.846 E29.81131
G1 X205.2 Y141.821 E29.84212
G1 F4200 E21.84212
;MESH:ktBOX4a.stl
G0 F1600 X195.422 Y141.818
G0 X195.34 Y162.37
G0 X195.439 Y162.37
;TYPE:WALL-INNER
G1 F4200 E29.84212
G1 F1200 X195.439 Y162.559 E29.84809
G1 X195.628 Y162.559 E29.85195
G1 X220.558 Y162.558 E30.63967
G1 X220.558 Y137.442 E31.43326
G1 X195.442 Y137.442 E32.22686
G1 X195.439 Y162.37 E33.01451
G0 F1600 X195.809 Y162.189
;TYPE:WALL-OUTER
G1 F1200 X195.999 Y162.189 E33.02051
G1 X220.188 Y162.188 E33.78482
G1 X220.188 Y137.812 E34.55503
G1 X195.812 Y137.812 E35.32524
G1 X195.809 Y161.999 E36.08948
G1 X195.809 Y162.189 E36.09337
G0 F1600 X195.999 Y162.189
G0 X196.009 Y162.189
G0 X196.009 Y162.607
G0 X196.008 Y162.659
G0 X220.586 Y162.586
G0 X229.203 Y129.759
G0 X229.227 Y129.663
;TYPE:WALL-INNER
G1 F1200 X229.577 Y129.777 E36.105
G1 X229.912 Y129.934 E36.11669
G1 X230.223 Y130.132 E36.12834
G1 X230.505 Y130.365 E36.13989
G1 X230.757 Y130.634 E36.15154
G1 X230.974 Y130.934 E36.16324
G1 X231.15 Y131.251 E36.1747
G1 X231.284 Y131.59 E36.18621
G1 X231.378 Y131.96 E36.19828
G1 X231.423 Y132.314 E36.20955
G1 X231.43 Y132.983 E36.23069
G1 X231.43 Y167.377 E37.31744
G1 X231.404 Y167.873 E37.33314
G1 X231.337 Y168.227 E37.34452
G1 X231.222 Y168.579 E37.35622
G1 X231.068 Y168.908 E37.3677
G1 X230.869 Y169.222 E37.37945
G1 X230.635 Y169.505 E37.39105
G1 X230.365 Y169.758 E37.40274
G1 X230.063 Y169.977 E37.41453
G1 X229.752 Y170.148 E37.42574
G1 X229.409 Y170.284 E37.4374
G1 X229.04 Y170.378 E37.44943
G1 X228.687 Y170.423 E37.46068
G1 X171.521 Y170.43 E39.26696
G1 X171.129 Y170.405 E39.27937
G1 X170.773 Y170.337 E39.29082
G1 X170.423 Y170.223 E39.30245
G1 X170.088 Y170.066 E39.31414
G1 X169.777 Y169.868 E39.32579
G1 X169.495 Y169.635 E39.33735
G1 X169.243 Y169.366 E39.349
G1 X169.026 Y169.066 E39.36069
G1 X168.85 Y168.749 E39.37215
G1 X168.716 Y168.41 E39.38367
G1 X168.622 Y168.041 E39.3957
G1 X168.577 Y167.688 E39.40694
G1 X168.57 Y132.684 E40.51297
G1 X168.596 Y132.127 E40.53059
G1 X168.663 Y131.773 E40.54197
G1 X168.778 Y131.421 E40.55367
G1 X168.932 Y131.091 E40.56518
G1 X169.131 Y130.778 E40.5769
G1 X169.366 Y130.494 E40.58855
G1 X169.635 Y130.242 E40.60019
G1 X169.937 Y130.023 E40.61198
G1 X170.248 Y129.852 E40.6232
G1 X170.591 Y129.716 E40.63485
G1 X170.96 Y129.622 E40.64689
G1 X171.313 Y129.577 E40.65813
G1 X228.479 Y129.57 E42.46441
G1 X228.871 Y129.595 E42.47682
G1 X229.227 Y129.663 E42.48827
G0 F1600 X229.318 Y129.303
;TYPE:WALL-OUTER
G1 F1200 X229.714 Y129.432 E42.50143
G1 X230.09 Y129.609 E42.51457
G1 X230.439 Y129.83 E42.52762
G1 X230.759 Y130.095 E42.54075
G1 X231.044 Y130.399 E42.55391
G1 X231.287 Y130.734 E42.56699
G1 X231.484 Y131.091 E42.57987
G1 X231.638 Y131.479 E42.59306
G1 X231.742 Y131.887 E42.60637
G1 X231.793 Y132.29 E42.6192
G1 X231.8 Y132.983 E42.6411
G1 X231.8 Y167.396 E43.72845
G1 X231.773 Y167.917 E43.74494
G1 X231.697 Y168.318 E43.75783
G1 X231.568 Y168.713 E43.77096
G1 X231.392 Y169.089 E43.78408
G1 X231.171 Y169.438 E43.79713
G1 X230.905 Y169.759 E43.8103
G1 X230.6 Y170.045 E43.82352
G1 X230.265 Y170.288 E43.83659
G1 X229.908 Y170.484 E43.84946
G1 X229.52 Y170.638 E43.86265
G1 X229.112 Y170.742 E43.87595
G1 X228.71 Y170.793 E43.88876
G1 X171.513 Y170.8 E45.69602
G1 X171.077 Y170.772 E45.70982
G1 X170.682 Y170.697 E45.72253
G1 X170.286 Y170.568 E45.73569
G1 X169.91 Y170.391 E45.74882
G1 X169.561 Y170.17 E45.76187
G1 X169.241 Y169.905 E45.775
G1 X168.956 Y169.601 E45.78817
G1 X168.713 Y169.266 E45.80124
G1 X168.516 Y168.909 E45.81413
G1 X168.362 Y168.521 E45.82732
G1 X168.258 Y168.113 E45.84062
G1 X168.207 Y167.711 E45.85342
G1 X168.2 Y132.667 E46.96071
G1 X168.227 Y132.083 E46.97919
G1 X168.303 Y131.682 E46.99208
G1 X168.432 Y131.287 E47.00521
G1 X168.608 Y130.911 E47.01833
G1 X168.829 Y130.562 E47.03138
G1 X169.096 Y130.24 E47.0446
G1 X169.4 Y129.955 E47.05776
G1 X169.735 Y129.712 E47.07084
G1 X170.092 Y129.516 E47.08371
G1 X170.48 Y129.362 E47.0969
G1 X170.888 Y129.258 E47.1102
G1 X171.29 Y129.207 E47.12301
G1 X228.487 Y129.2 E48.93027
G1 X228.923 Y129.228 E48.94407
G1 X229.318 Y129.303 E48.95678
G0 F1600 X229.508 Y129.365
G0 X229.379 Y129.762
G0 X229.137 Y130.023
;TYPE:SKIN
G1 F1200 X229.443 Y130.123 E48.96695
G1 X229.733 Y130.258 E48.97706
G1 X230.005 Y130.432 E48.98726
G1 X230.247 Y130.632 E48.99718
G1 X230.473 Y130.873 E49.00762
G1 X230.662 Y131.133 E49.01777
G1 X230.816 Y131.412 E49.02784
G1 X230.933 Y131.708 E49.0379
G1 X231.013 Y132.022 E49.04814
G1 X231.053 Y132.339 E49.05823
G1 X231.06 Y132.983 E49.07858
G1 X231.06 Y167.358 E50.16474
G1 X231.036 Y167.83 E50.17967
G1 X230.978 Y168.135 E50.18948
G1 X230.876 Y168.445 E50.19979
G1 X230.742 Y168.733 E50.20983
G1 X230.572 Y169.001 E50.21986
G1 X230.368 Y169.247 E50.22995
G1 X230.129 Y169.471 E50.2403
G1 X229.86 Y169.667 E50.25082
G1 X229.592 Y169.814 E50.26048
G1 X229.291 Y169.933 E50.27071
G1 X228.975 Y170.013 E50.281
G1 X228.664 Y170.053 E50.29091
G1 X171.544 Y170.06 E52.09574
G1 X171.175 Y170.037 E52.10742
G1 X170.863 Y169.977 E52.11746
G1 X170.557 Y169.877 E52.12763
G1 X170.267 Y169.742 E52.13774
G1 X169.995 Y169.568 E52.14794
G1 X169.753 Y169.368 E52.15786
G1 X169.527 Y169.127 E52.1683
G1 X169.338 Y168.867 E52.17846
G1 X169.184 Y168.588 E52.18853
G1 X169.067 Y168.292 E52.19858
G1 X168.987 Y167.976 E52.20888
