;FLAVOR:Marlin
;TIME:2047
;Filament used: 1.88564m, 0m
;Layer height: 0.2
;MINX:164.05
;MINY:125.05
;MINZ:0.2
;MAXX:235.95
;MAXY:174.95
;MAXZ:7
;Generated with Cura_SteamEngine 4.6.1
T0
M140 S50
M105
M190 S50
M104 S205
M105
M109 S205
M82 ;absolute extrusion mode
G28 ;Home
G1 Z15.0 F6000 ;Move the platform down 15mm
;Prime the extruder
G92 E0
G1 F200 E3
G92 E0
G92 E0
G92 E0
G1 F4200 E-8
;LAYER_COUNT:35
;LAYER:0
M107
G1 F600 Z0.6
G0 F1600 X228.996 Y125.846 Z0.6
;TYPE:SKIRT
G1 F600 Z0.2
G1 F4200 E0
G1 F1200 X229.397 Y125.89 E0.01275
G1 X229.856 Y125.97 E0.02747
G1 X230.631 Y126.18 E0.05284
G1 X231.01 Y126.322 E0.06563
G1 X231.433 Y126.511 E0.08027
G1 X231.793 Y126.699 E0.0931
G1 X232.226 Y126.963 E0.10912
G1 X232.596 Y127.227 E0.12348
G1 X233.111 Y127.675 E0.14505
G1 X233.454 Y128.026 E0.16056
G1 X233.94 Y128.631 E0.18508
G1 X234.15 Y128.949 E0.19712
G1 X234.382 Y129.352 E0.21181
G1 X234.557 Y129.706 E0.22429
G1 X234.763 Y130.195 E0.24106
G1 X234.912 Y130.636 E0.25577
G1 X235.058 Y131.275 E0.27648
G1 X235.126 Y131.733 E0.29111
G1 X235.16 Y132.137 E0.30392
G1 X235.182 Y133.236 E0.33865
G1 X235.19 Y166.789 E1.39883
G1 X235.184 Y167.333 E1.41602
G1 X235.154 Y167.996 E1.43699
G1 X235.041 Y168.808 E1.46289
G1 X234.949 Y169.199 E1.47558
G1 X234.814 Y169.647 E1.49037
G1 X234.673 Y170.028 E1.5032
G1 X234.502 Y170.411 E1.51646
G1 X234.316 Y170.766 E1.52912
G1 X234.044 Y171.214 E1.54568
G1 X233.785 Y171.58 E1.55985
G1 X233.343 Y172.088 E1.58112
G1 X232.946 Y172.476 E1.59867
G1 X232.598 Y172.771 E1.61308
G1 X232.034 Y173.159 E1.63471
G1 X231.625 Y173.394 E1.64962
G1 X231.275 Y173.568 E1.66197
G1 X230.817 Y173.761 E1.67767
G1 X230.375 Y173.91 E1.69241
G1 X229.713 Y174.06 E1.71385
G1 X229.178 Y174.136 E1.73093
G1 X228.8 Y174.167 E1.74291
G1 X227.948 Y174.186 E1.76984
G1 X226.85 Y174.19 E1.80453
G1 X172.162 Y174.19 E3.53252
G1 X171.567 Y174.18 E3.55132
G1 X171.004 Y174.154 E3.56913
G1 X170.603 Y174.11 E3.58188
G1 X170.144 Y174.03 E3.5966
G1 X169.369 Y173.82 E3.62197
G1 X168.989 Y173.678 E3.63479
G1 X168.564 Y173.488 E3.6495
G1 X168.206 Y173.3 E3.66227
G1 X167.863 Y173.091 E3.67496
G1 X167.536 Y172.862 E3.68758
G1 X167.158 Y172.561 E3.70285
G1 X166.866 Y172.298 E3.71526
G1 X166.536 Y171.961 E3.73017
G1 X166.25 Y171.625 E3.74411
G1 X165.844 Y171.041 E3.76658
G1 X165.615 Y170.642 E3.78112
G1 X165.442 Y170.292 E3.79345
G1 X165.236 Y169.803 E3.81022
G1 X165.086 Y169.358 E3.82506
G1 X164.942 Y168.725 E3.84557
G1 X164.874 Y168.267 E3.8602
G1 X164.84 Y167.863 E3.87301
G1 X164.818 Y166.764 E3.90774
G1 X164.81 Y133.165 E4.96937
G1 X164.816 Y132.663 E4.98524
G1 X164.846 Y132.004 E5.00608
G1 X164.959 Y131.192 E5.03199
G1 X165.051 Y130.801 E5.04468
G1 X165.186 Y130.353 E5.05946
G1 X165.327 Y129.972 E5.0723
G1 X165.498 Y129.589 E5.08555
G1 X165.684 Y129.234 E5.09821
G1 X165.956 Y128.786 E5.11477
G1 X166.215 Y128.42 E5.12894
G1 X166.657 Y127.912 E5.15022
G1 X167.054 Y127.524 E5.16776
G1 X167.405 Y127.227 E5.18229
G1 X167.967 Y126.84 E5.20385
G1 X168.374 Y126.606 E5.21868
G1 X168.728 Y126.431 E5.23116
G1 X169.185 Y126.239 E5.24682
G1 X169.617 Y126.093 E5.26123
G1 X170.287 Y125.94 E5.28294
G1 X170.822 Y125.864 E5.30002
G1 X171.2 Y125.833 E5.312
G1 X172.052 Y125.814 E5.33893
G1 X173.15 Y125.81 E5.37362
G1 X227.838 Y125.81 E7.10161
G1 X228.996 Y125.846 E7.13821
G0 F1600 X229.014 Y125.467
G1 F1200 X229.462 Y125.516 E7.15245
G1 X229.921 Y125.596 E7.16718
G1 X230.339 Y125.695 E7.18075
G1 X230.74 Y125.816 E7.19398
G1 X231.165 Y125.975 E7.20832
G1 X231.588 Y126.164 E7.22296
G1 X231.99 Y126.375 E7.23731
G1 X232.423 Y126.639 E7.25333
G1 X232.838 Y126.934 E7.26942
G1 X233.382 Y127.41 E7.29226
G1 X233.725 Y127.761 E7.30777
G1 X234.032 Y128.119 E7.32267
G1 X234.479 Y128.76 E7.34736
G1 X234.711 Y129.163 E7.36205
G1 X234.907 Y129.558 E7.37598
G1 X235.113 Y130.047 E7.39275
G1 X235.28 Y130.541 E7.40923
G1 X235.434 Y131.219 E7.4312
G1 X235.502 Y131.677 E7.44583
G1 X235.54 Y132.13 E7.46019
G1 X235.562 Y133.229 E7.49492
G1 X235.57 Y166.789 E8.55532
G1 X235.564 Y167.337 E8.57264
G1 X235.534 Y168.014 E8.59405
G1 X235.489 Y168.437 E8.60749
G1 X235.416 Y168.871 E8.6214
G1 X235.313 Y169.309 E8.63561
G1 X235.178 Y169.757 E8.6504
G1 X235.02 Y170.182 E8.66473
G1 X234.849 Y170.565 E8.67798
G1 X234.641 Y170.963 E8.69217
G1 X234.369 Y171.411 E8.70873
G1 X234.079 Y171.82 E8.72457
G1 X233.608 Y172.36 E8.74721
G1 X233.211 Y172.748 E8.76475
G1 X232.822 Y173.078 E8.78087
G1 X232.224 Y173.488 E8.80378
G1 X231.815 Y173.723 E8.81868
G1 X231.422 Y173.918 E8.83255
G1 X230.964 Y174.111 E8.84825
G1 X230.47 Y174.278 E8.86473
G1 X229.766 Y174.437 E8.88753
G1 X229.231 Y174.513 E8.90461
G1 X228.809 Y174.547 E8.91798
G1 X227.957 Y174.566 E8.94491
G1 X226.851 Y174.57 E8.97986
G1 X172.156 Y174.57 E10.70806
G1 X171.549 Y174.559 E10.72724
G1 X170.986 Y174.533 E10.74505
G1 X170.538 Y174.484 E10.75929
G1 X170.079 Y174.404 E10.77401
G1 X169.661 Y174.305 E10.78759
G1 X169.26 Y174.184 E10.80082
G1 X168.834 Y174.025 E10.81519
G1 X168.409 Y173.835 E10.8299
G1 X168.008 Y173.625 E10.8442
G1 X167.665 Y173.416 E10.85689
G1 X167.299 Y173.16 E10.87101
G1 X166.921 Y172.859 E10.88627
G1 X166.594 Y172.564 E10.90019
G1 X166.264 Y172.227 E10.91509
G1 X165.944 Y171.851 E10.93069
G1 X165.515 Y171.23 E10.95454
G1 X165.286 Y170.831 E10.96908
G1 X165.092 Y170.44 E10.98287
G1 X164.886 Y169.951 E10.99964
G1 X164.718 Y169.452 E11.01627
G1 X164.566 Y168.781 E11.03801
G1 X164.498 Y168.323 E11.05264
G1 X164.46 Y167.87 E11.067
G1 X164.438 Y166.771 E11.10174
G1 X164.43 Y133.165 E12.16359
G1 X164.436 Y132.658 E12.17961
G1 X164.466 Y131.986 E12.20087
G1 X164.511 Y131.563 E12.21431
G1 X164.584 Y131.129 E12.22821
G1 X164.687 Y130.691 E12.24243
G1 X164.822 Y130.243 E12.25721
G1 X164.98 Y129.818 E12.27154
G1 X165.151 Y129.435 E12.28479
G1 X165.359 Y129.037 E12.29898
G1 X165.631 Y128.589 E12.31554
G1 X165.921 Y128.18 E12.33138
G1 X166.392 Y127.64 E12.35403
G1 X166.789 Y127.252 E12.37157
G1 X167.181 Y126.92 E12.3878
G1 X167.778 Y126.511 E12.41066
G1 X168.185 Y126.277 E12.4255
G1 X168.581 Y126.081 E12.43946
G1 X169.038 Y125.889 E12.45512
G1 X169.522 Y125.725 E12.47127
G1 X170.234 Y125.563 E12.49434
G1 X170.769 Y125.487 E12.51141
G1 X171.191 Y125.453 E12.52479
G1 X172.043 Y125.434 E12.55172
G1 X173.149 Y125.43 E12.58667
G1 X227.844 Y125.43 E14.31487
G1 X229.014 Y125.467 E14.35186
G0 F1600 X229.032 Y125.087
G1 F1200 X229.527 Y125.142 E14.36759
G1 X229.986 Y125.222 E14.38232
G1 X230.449 Y125.331 E14.39735
G1 X230.85 Y125.452 E14.41058
G1 X231.32 Y125.628 E14.42644
G1 X231.743 Y125.817 E14.44108
G1 X232.188 Y126.05 E14.45695
G1 X232.621 Y126.314 E14.47297
G1 X233.08 Y126.641 E14.49078
G1 X233.654 Y127.144 E14.51489
G1 X233.997 Y127.495 E14.5304
G1 X234.336 Y127.891 E14.54687
G1 X234.808 Y128.57 E14.573
G1 X235.04 Y128.973 E14.58769
G1 X235.257 Y129.411 E14.60314
G1 X235.463 Y129.9 E14.61991
G1 X235.648 Y130.446 E14.63812
G1 X235.81 Y131.163 E14.66135
G1 X235.878 Y131.621 E14.67598
G1 X235.92 Y132.122 E14.69186
G1 X235.942 Y133.221 E14.72659
G1 X235.95 Y166.789 E15.78725
G1 X235.944 Y167.342 E15.80472
G1 X235.914 Y168.032 E15.82654
G1 X235.863 Y168.5 E15.84142
G1 X235.79 Y168.934 E15.85532
G1 X235.677 Y169.419 E15.87106
G1 X235.542 Y169.867 E15.88584
G1 X235.367 Y170.337 E15.90169
G1 X235.196 Y170.72 E15.91494
G1 X234.965 Y171.16 E15.93065
G1 X234.693 Y171.608 E15.94721
G1 X234.372 Y172.061 E15.96475
G1 X233.874 Y172.632 E15.98869
G1 X233.477 Y173.02 E16.00623
G1 X233.046 Y173.384 E16.02405
G1 X232.413 Y173.818 E16.04831
G1 X232.004 Y174.053 E16.06321
G1 X231.57 Y174.268 E16.07851
G1 X231.112 Y174.461 E16.09422
G1 X230.565 Y174.646 E16.11246
G1 X229.82 Y174.813 E16.13659
G1 X229.285 Y174.889 E16.15366
G1 X228.817 Y174.927 E16.1685
G1 X227.965 Y174.946 E16.19542
G1 X226.852 Y174.95 E16.23059
G1 X172.151 Y174.95 E17.95899
G1 X171.532 Y174.939 E17.97855
G1 X170.969 Y174.913 E17.99636
G1 X170.473 Y174.858 E18.01212
G1 X170.014 Y174.778 E18.02685
G1 X169.551 Y174.669 E18.04188
G1 X169.15 Y174.548 E18.05511
G1 X168.679 Y174.372 E18.071
G1 X168.254 Y174.182 E18.08571
G1 X167.811 Y173.949 E18.10152
G1 X167.468 Y173.74 E18.11421
G1 X167.062 Y173.457 E18.12985
G1 X166.684 Y173.156 E18.14512
G1 X166.323 Y172.83 E18.16049
G1 X165.993 Y172.493 E18.17539
G1 X165.639 Y172.077 E18.19265
G1 X165.185 Y171.419 E18.21791
G1 X164.956 Y171.02 E18.23245
G1 X164.742 Y170.587 E18.24771
G1 X164.536 Y170.098 E18.26447
G1 X164.35 Y169.546 E18.28288
G1 X164.19 Y168.837 E18.30585
G1 X164.122 Y168.379 E18.32048
G1 X164.08 Y167.878 E18.33636
G1 X164.058 Y166.779 E18.37109
G1 X164.05 Y133.165 E19.4332
G1 X164.056 Y132.653 E19.44938
G1 X164.086 Y131.968 E19.47104
G1 X164.137 Y131.5 E19.48592
G1 X164.21 Y131.066 E19.49982
G1 X164.323 Y130.581 E19.51556
G1 X164.458 Y130.133 E19.53034
G1 X164.633 Y129.663 E19.54619
G1 X164.804 Y129.28 E19.55944
G1 X165.035 Y128.84 E19.57515
G1 X165.307 Y128.392 E19.59171
G1 X165.628 Y127.939 E19.60925
G1 X166.126 Y127.368 E19.63319
G1 X166.523 Y126.98 E19.65073
G1 X166.957 Y126.613 E19.66869
G1 X167.588 Y126.182 E19.69283
G1 X167.995 Y125.948 E19.70767
G1 X168.434 Y125.73 E19.72315
G1 X168.891 Y125.538 E19.73882
G1 X169.426 Y125.357 E19.75666
G1 X170.18 Y125.187 E19.78108
G1 X170.715 Y125.111 E19.79816
G1 X171.183 Y125.073 E19.81299
G1 X172.035 Y125.054 E19.83992
G1 X173.148 Y125.05 E19.87509
G1 X227.849 Y125.05 E21.60348
G1 X229.032 Y125.087 E21.64088
G1 F4200 E13.64088
;MESH:ktBOX4b.stl
G0 F1600 X228.478 Y129.589
G0 X184.116 Y151.436
G0 X183.378 Y151.593
G0 X182.622 Y151.593
G0 X181.161 Y151.18
G0 X181.211 Y151.094
;TYPE:WALL-INNER
G1 F4200 E21.64088
G1 F1200 X181.896 Y151.398 E21.66456
G1 X182.626 Y151.554 E21.68815
G1 X183.374 Y151.554 E21.71178
G1 X184.104 Y151.398 E21.73537
G1 X184.787 Y151.094 E21.75899
G1 X185.391 Y150.654 E21.7826
G1 X185.871 Y150.122 E21.80524
G1 X186.249 Y149.48 E21.82878
G1 X186.484 Y148.772 E21.85235
G1 X186.569 Y148.032 E21.87589
G1 X186.5 Y147.288 E21.8995
G1 X186.275 Y146.577 E21.92306
G1 X185.908 Y145.927 E21.94665
G1 X185.412 Y145.369 E21.97024
G1 X184.789 Y144.906 E21.99476
G1 X184.104 Y144.602 E22.01844
G1 X183.374 Y144.446 E22.04203
G1 X182.626 Y144.446 E22.06567
G1 X181.896 Y144.602 E22.08925
G1 X181.213 Y144.906 E22.11287
G1 X180.609 Y145.346 E22.13649
G1 X180.129 Y145.878 E22.15913
G1 X179.751 Y146.52 E22.18267
G1 X179.516 Y147.228 E22.20624
G1 X179.431 Y147.968 E22.22977
G1 X179.5 Y148.712 E22.25338
G1 X179.725 Y149.423 E22.27695
G1 X180.092 Y150.073 E22.30053
G1 X180.588 Y150.631 E22.32412
G1 X181.211 Y151.094 E22.34865
G0 F1600 X181.399 Y150.772
;TYPE:WALL-OUTER
G1 F1200 X182.011 Y151.044 E22.36981
G1 X182.665 Y151.184 E22.39094
G1 X183.335 Y151.184 E22.41211
G1 X183.989 Y151.044 E22.43324
G1 X184.601 Y150.772 E22.45441
G1 X185.142 Y150.378 E22.47555
G1 X185.571 Y149.902 E22.4958
G1 X185.91 Y149.326 E22.51692
G1 X186.121 Y148.692 E22.53803
G1 X186.197 Y148.028 E22.55915
G1 X186.135 Y147.362 E22.58028
G1 X185.934 Y146.725 E22.60139
G1 X185.605 Y146.143 E22.62251
G1 X185.161 Y145.643 E22.64364
G1 X184.601 Y145.228 E22.66566
G1 X183.989 Y144.956 E22.68683
G1 X183.335 Y144.816 E22.70796
G1 X182.665 Y144.816 E22.72913
G1 X182.011 Y144.956 E22.75026
G1 X181.399 Y145.228 E22.77142
G1 X180.858 Y145.622 E22.79257
G1 X180.429 Y146.098 E22.81282
G1 X180.09 Y146.674 E22.83393
G1 X179.879 Y147.308 E22.85505
G1 X179.803 Y147.972 E22.87617
G1 X179.865 Y148.638 E22.8973
G1 X180.066 Y149.275 E22.91841
G1 X180.395 Y149.857 E22.93953
G1 X180.839 Y150.357 E22.96066
G1 X181.399 Y150.772 E22.98268
G0 F1600 X181.581 Y150.853
G0 X181.412 Y151.234
G0 X181.39 Y151.282
G0 X184.36 Y165.14
G0 X184.43 Y165.07
;TYPE:WALL-INNER
G1 F1200 X200.57 Y165.07 E23.49266
G1 X200.57 Y153.93 E23.84465
G1 X184.43 Y153.93 E24.35463
G1 X184.43 Y165.07 E24.70662
G0 F1600 X184.8 Y164.7
;TYPE:WALL-OUTER
G1 F1200 X200.2 Y164.7 E25.19322
G1 X200.2 Y154.3 E25.52183
G1 X184.8 Y154.3 E26.00842
G1 X184.8 Y164.7 E26.33703
G0 F1600 X185 Y164.7
G0 X185 Y165.118
G0 X185 Y165.17
G0 X200.598 Y165.098
G0 X223.161 Y151.18
G0 X223.211 Y151.094
;TYPE:WALL-INNER
G1 F1200 X223.896 Y151.398 E26.36071
G1 X224.626 Y151.554 E26.3843
G1 X225.374 Y151.554 E26.40793
G1 X226.104 Y151.398 E26.43152
G1 X226.787 Y151.094 E26.45514
G1 X227.391 Y150.654 E26.47875
G1 X227.871 Y150.122 E26.50139
G1 X228.249 Y149.48 E26.52494
G1 X228.484 Y148.772 E26.54851
G1 X228.569 Y148.032 E26.57204
G1 X228.5 Y147.288 E26.59565
G1 X228.275 Y146.577 E26.61921
G1 X227.908 Y145.927 E26.6428
G1 X227.412 Y145.369 E26.66639
G1 X226.789 Y144.906 E26.69092
G1 X226.104 Y144.602 E26.7146
G1 X225.374 Y144.446 E26.73818
G1 X224.626 Y144.446 E26.76182
G1 X223.896 Y144.602 E26.7854
G1 X223.213 Y144.906 E26.80903
G1 X222.609 Y145.346 E26.83264
G1 X222.129 Y145.878 E26.85528
G1 X221.751 Y146.52 E26.87882
G1 X221.516 Y147.228 E26.90239
G1 X221.431 Y147.968 E26.92592
G1 X221.5 Y148.712 E26.94953
G1 X221.725 Y149.423 E26.9731
G1 X222.092 Y150.073 E26.99668
G1 X222.588 Y150.631 E27.02027
G1 X223.211 Y151.094 E27.0448
G0 F1600 X223.399 Y150.772
;TYPE:WALL-OUTER
G1 F1200 X224.011 Y151.044 E27.06596
G1 X224.665 Y151.184 E27.08709
G1 X225.335 Y151.184 E27.10826
G1 X225.989 Y151.044 E27.1294
G1 X226.601 Y150.772 E27.15056
G1 X227.142 Y150.378 E27.1717
G1 X227.571 Y149.902 E27.19195
G1 X227.91 Y149.326 E27.21307
G1 X228.121 Y148.692 E27.23418
G1 X228.197 Y148.028 E27.2553
G1 X228.135 Y147.362 E27.27643
G1 X227.934 Y146.725 E27.29754
G1 X227.605 Y146.143 E27.31866
G1 X227.161 Y145.643 E27.33979
G1 X226.601 Y145.228 E27.36182
G1 X225.989 Y144.956 E27.38298
G1 X225.335 Y144.816 E27.40411
G1 X224.665 Y144.816 E27.42528
G1 X224.011 Y144.956 E27.44641
G1 X223.399 Y145.228 E27.46757
G1 X222.858 Y145.622 E27.48872
G1 X222.429 Y146.098 E27.50897
G1 X222.09 Y146.674 E27.53009
G1 X221.879 Y147.308 E27.5512
G1 X221.803 Y147.972 E27.57232
G1 X221.865 Y148.638 E27.59345
G1 X222.066 Y149.275 E27.61456
G1 X222.395 Y149.857 E27.63568
G1 X222.839 Y150.357 E27.65681
G1 X223.399 Y150.772 E27.67883
G0 F1600 X223.581 Y150.853
G0 X223.412 Y151.234
G0 X223.39 Y151.282
G0 X222.561 Y150.66
G0 X222.06 Y150.096
G0 X221.689 Y149.438
G0 X221.461 Y148.719
G0 X221.392 Y147.968
G0 X221.477 Y147.22
G0 X229.2 Y129.758
G0 X229.224 Y129.662
;TYPE:WALL-INNER
G1 F1200 X229.581 Y129.779 E27.6907
G1 X229.917 Y129.937 E27.70244
G1 X230.223 Y130.132 E27.7139
G1 X230.509 Y130.369 E27.72564
G1 X230.757 Y130.634 E27.73711
G1 X230.974 Y130.934 E27.7488
G1 X231.15 Y131.251 E27.76026
G1 X231.284 Y131.59 E27.77178
G1 X231.378 Y131.959 E27.78381
G1 X231.423 Y132.312 E27.79505
G1 X231.43 Y167.479 E28.90623
G1 X231.405 Y167.87 E28.91861
G1 X231.337 Y168.226 E28.93006
G1 X231.222 Y168.579 E28.94179
G1 X231.068 Y168.908 E28.95327
G1 X230.869 Y169.222 E28.96502
G1 X230.635 Y169.505 E28.97662
G1 X230.363 Y169.759 E28.98838
G1 X230.066 Y169.975 E28.99998
G1 X229.742 Y170.152 E29.01165
G1 X229.404 Y170.286 E29.02314
G1 X229.037 Y170.379 E29.0351
G1 X228.684 Y170.423 E29.04634
G1 X227.072 Y170.43 E29.09727
G1 X171.522 Y170.43 E30.85249
G1 X171.12 Y170.403 E30.86523
G1 X170.776 Y170.338 E30.87629
G1 X170.419 Y170.221 E30.88816
G1 X170.079 Y170.061 E30.90003
G1 X169.779 Y169.871 E30.91125
G1 X169.495 Y169.635 E30.92292
G1 X169.243 Y169.366 E30.93457
G1 X169.026 Y169.066 E30.94626
G1 X168.85 Y168.749 E30.95772
G1 X168.716 Y168.41 E30.96924
G1 X168.622 Y168.041 E30.98127
G1 X168.577 Y167.688 E30.99251
G1 X168.57 Y132.521 E32.10369
G1 X168.595 Y132.13 E32.11607
G1 X168.663 Y131.774 E32.12752
G1 X168.778 Y131.421 E32.13925
G1 X168.932 Y131.091 E32.15076
G1 X169.131 Y130.778 E32.16248
G1 X169.365 Y130.495 E32.17408
G1 X169.637 Y130.24 E32.18586
G1 X169.934 Y130.025 E32.19745
G1 X170.258 Y129.848 E32.20911
G1 X170.596 Y129.714 E32.2206
G1 X170.963 Y129.621 E32.23256
G1 X171.316 Y129.577 E32.2438
G1 X172.928 Y129.57 E32.29474
G1 X228.478 Y129.57 E34.04996
G1 X228.88 Y129.597 E34.06269
G1 X229.224 Y129.662 E34.07375
G0 F1600 X229.323 Y129.305
;TYPE:WALL-OUTER
G1 F1200 X229.718 Y129.434 E34.08688
G1 X230.094 Y129.611 E34.10001
G1 X230.441 Y129.832 E34.11301
G1 X230.763 Y130.099 E34.12623
G1 X231.044 Y130.399 E34.13922
G1 X231.287 Y130.734 E34.15229
