;FLAVOR:Marlin
;TIME:2911
;Filament used: 1.98897m, 0m
;Layer height: 0.2
;MINX:165.542
;MINY:112.542
;MINZ:0.2
;MAXX:212.458
;MAXY:186.458
;MAXZ:7
;Generated with Cura_SteamEngine 4.6.1
T0
M140 S50
M105
M190 S50
M104 S205
M105
M109 S205
M82 ;absolute extrusion mode
G28 ;Home
G1 Z15.0 F6000 ;Move the platform down 15mm
;Prime the extruder
G92 E0
G1 F200 E3
G92 E0
G92 E0
G92 E0
G1 F4200 E-8
;LAYER_COUNT:35
;LAYER:0
M107
G1 F600 Z0.6
G0 F1600 X186.026 Y113.35 Z0.6
;TYPE:SKIRT
G1 F600 Z0.2
G1 F4200 E0
G1 F1200 X186.551 Y113.41 E0.0167
G1 X188.331 Y113.643 E0.07342
G1 X191.041 Y113.924 E0.15951
G1 X193.746 Y114.125 E0.24521
G1 X196.502 Y114.253 E0.33239
G1 X199.691 Y114.304 E0.43316
G1 X206.616 Y114.302 E0.65197
G1 X207.445 Y114.313 E0.67817
G1 X207.841 Y114.334 E0.6907
G1 X208.578 Y114.466 E0.71436
G1 X208.874 Y114.556 E0.72413
G1 X209.344 Y114.741 E0.74009
G1 X209.831 Y115.026 E0.75792
G1 X210.393 Y115.481 E0.78077
G1 X210.576 Y115.667 E0.78901
G1 X210.9 Y116.053 E0.80494
G1 X211.183 Y116.517 E0.82211
G1 X211.398 Y116.974 E0.83807
G1 X211.558 Y117.5 E0.85544
G1 X211.657 Y117.995 E0.87139
G1 X211.688 Y118.869 E0.89902
G1 X211.698 Y132.804 E1.33933
G1 X211.689 Y133.515 E1.3618
G1 X211.596 Y136.676 E1.46172
G1 X211.596 Y139.407 E1.54801
G1 X211.655 Y141.672 E1.6196
G1 X211.681 Y142.37 E1.64167
G1 X211.689 Y142.947 E1.65991
G1 X211.698 Y156.804 E2.09775
G1 X211.689 Y157.515 E2.12022
G1 X211.596 Y160.676 E2.22014
G1 X211.596 Y163.407 E2.30643
G1 X211.655 Y165.672 E2.37802
G1 X211.681 Y166.37 E2.40009
G1 X211.689 Y166.947 E2.41832
G1 X211.698 Y180.751 E2.85449
G1 X211.688 Y181.534 E2.87923
G1 X211.634 Y182.13 E2.89814
G1 X211.534 Y182.625 E2.9141
G1 X211.371 Y183.084 E2.92949
G1 X211.04 Y183.724 E2.95226
G1 X210.889 Y183.949 E2.96082
G1 X210.575 Y184.344 E2.97676
G1 X210.113 Y184.766 E2.99653
G1 X209.704 Y185.062 E3.01249
G1 X209.224 Y185.311 E3.02957
G1 X208.754 Y185.496 E3.04553
G1 X208.191 Y185.623 E3.06377
G1 X207.708 Y185.68 E3.07914
G1 X207.31 Y185.694 E3.09172
G1 X193.157 Y185.698 E3.53891
G1 X191.777 Y185.679 E3.58252
G1 X190.303 Y185.638 E3.62911
G1 X187.567 Y185.638 E3.71556
G1 X185.397 Y185.692 E3.78415
G1 X171.157 Y185.698 E4.23409
G1 X170.469 Y185.689 E4.25583
G1 X169.865 Y185.633 E4.275
G1 X169.371 Y185.533 E4.29093
G1 X168.88 Y185.356 E4.30742
G1 X168.425 Y185.136 E4.32339
G1 X167.979 Y184.836 E4.34037
G1 X167.59 Y184.513 E4.35635
G1 X167.205 Y184.077 E4.37472
G1 X166.914 Y183.665 E4.39066
G1 X166.669 Y183.178 E4.40789
G1 X166.49 Y182.706 E4.42384
G1 X166.374 Y182.181 E4.44083
G1 X166.319 Y181.705 E4.45597
G1 X166.306 Y181.302 E4.46871
G1 X166.302 Y167.157 E4.91565
G1 X166.311 Y166.46 E4.93767
G1 X166.399 Y163.414 E5.03396
G1 X166.399 Y160.673 E5.12057
G1 X166.355 Y158.843 E5.17841
G1 X166.309 Y157.442 E5.2227
G1 X166.302 Y143.157 E5.67406
G1 X166.311 Y142.467 E5.69587
G1 X166.344 Y141.672 E5.72101
G1 X166.422 Y138.91 E5.80831
G1 X166.422 Y136.192 E5.89419
G1 X166.343 Y133.401 E5.98242
G1 X166.308 Y132.425 E6.01328
G1 X166.302 Y118.158 E6.46407
G1 X166.311 Y117.467 E6.48591
G1 X166.367 Y116.86 E6.50517
G1 X166.469 Y116.366 E6.52111
G1 X166.639 Y115.892 E6.53702
G1 X166.856 Y115.436 E6.55297
G1 X167.16 Y114.981 E6.57027
G1 X167.482 Y114.592 E6.58622
G1 X167.91 Y114.212 E6.60431
G1 X168.322 Y113.921 E6.62024
G1 X168.769 Y113.694 E6.63608
G1 X169.403 Y113.47 E6.65733
G1 X169.685 Y113.403 E6.66649
G1 X170.292 Y113.32 E6.68585
G1 X170.69 Y113.306 E6.69843
G1 X184.613 Y113.302 E7.13836
G1 X185.445 Y113.313 E7.16465
G1 X186.026 Y113.35 E7.18304
G0 F1600 X186.069 Y112.972
G1 F1200 X186.594 Y113.032 E7.19974
G1 X188.346 Y113.263 E7.25558
G1 X191.073 Y113.545 E7.3422
G1 X193.792 Y113.747 E7.42835
G1 X196.492 Y113.873 E7.51376
G1 X199.697 Y113.924 E7.61504
G1 X206.616 Y113.922 E7.83366
G1 X207.45 Y113.933 E7.86001
G1 X207.864 Y113.954 E7.87311
G1 X208.393 Y114.026 E7.88998
G1 X208.985 Y114.192 E7.90941
G1 X209.482 Y114.386 E7.92626
G1 X210.035 Y114.705 E7.94644
G1 X210.462 Y115.025 E7.9633
G1 X210.847 Y115.4 E7.98028
G1 X211.192 Y115.808 E7.99716
G1 X211.514 Y116.329 E8.01651
G1 X211.743 Y116.812 E8.0334
G1 X211.924 Y117.397 E8.05275
G1 X212.031 Y117.92 E8.06962
G1 X212.068 Y118.862 E8.09941
G1 X212.078 Y132.804 E8.53993
G1 X212.069 Y133.52 E8.56256
G1 X211.976 Y136.687 E8.66267
G1 X211.976 Y139.397 E8.7483
G1 X212.035 Y141.658 E8.81976
G1 X212.061 Y142.356 E8.84183
G1 X212.069 Y142.943 E8.86038
G1 X212.078 Y156.804 E9.29835
G1 X212.069 Y157.52 E9.32098
G1 X211.976 Y160.687 E9.42109
G1 X211.976 Y163.397 E9.50672
G1 X212.035 Y165.658 E9.57818
G1 X212.061 Y166.356 E9.60025
G1 X212.069 Y166.943 E9.6188
G1 X212.078 Y180.751 E10.05509
G1 X212.068 Y181.539 E10.08
G1 X212.011 Y182.176 E10.1002
G1 X211.907 Y182.7 E10.11708
G1 X211.726 Y183.22 E10.13448
G1 X211.499 Y183.703 E10.15134
G1 X211.204 Y184.16 E10.16853
G1 X210.874 Y184.58 E10.18541
G1 X210.359 Y185.055 E10.20754
G1 X209.927 Y185.37 E10.22444
G1 X209.391 Y185.652 E10.24357
G1 X208.895 Y185.85 E10.26045
G1 X208.264 Y185.996 E10.28091
G1 X207.724 Y186.06 E10.2981
G1 X207.31 Y186.074 E10.31118
G1 X193.157 Y186.078 E10.75838
G1 X191.771 Y186.059 E10.80218
G1 X190.292 Y186.018 E10.84893
G1 X187.577 Y186.018 E10.93471
G1 X185.407 Y186.072 E11.0033
G1 X171.157 Y186.078 E11.45356
G1 X170.464 Y186.069 E11.47546
G1 X169.819 Y186.011 E11.49592
G1 X169.295 Y185.906 E11.51281
G1 X168.742 Y185.71 E11.53134
G1 X168.26 Y185.48 E11.54822
G1 X167.76 Y185.146 E11.56722
G1 X167.348 Y184.807 E11.58408
G1 X166.913 Y184.32 E11.60471
G1 X166.603 Y183.885 E11.62159
G1 X166.325 Y183.341 E11.64089
G1 X166.134 Y182.842 E11.65777
G1 X166.001 Y182.253 E11.67685
G1 X165.94 Y181.72 E11.6938
G1 X165.926 Y181.302 E11.70702
G1 X165.922 Y167.157 E12.15396
G1 X165.931 Y166.455 E12.17614
G1 X166.019 Y163.403 E12.27262
G1 X166.019 Y160.682 E12.35859
G1 X165.975 Y158.852 E12.41643
G1 X165.929 Y157.454 E12.46063
G1 X165.922 Y143.157 E12.91237
G1 X165.931 Y142.462 E12.93434
G1 X165.964 Y141.658 E12.95976
G1 X166.042 Y138.899 E13.04697
G1 X166.042 Y136.203 E13.13216
G1 X165.963 Y133.412 E13.22038
G1 X165.928 Y132.438 E13.25118
G1 X165.922 Y118.158 E13.70238
G1 X165.931 Y117.461 E13.72441
G1 X165.99 Y116.814 E13.74494
G1 X166.095 Y116.29 E13.76182
G1 X166.284 Y115.756 E13.77972
G1 X166.512 Y115.273 E13.7966
G1 X166.849 Y114.763 E13.81591
G1 X167.188 Y114.35 E13.8328
G1 X167.667 Y113.92 E13.85313
G1 X168.102 Y113.61 E13.87001
G1 X168.605 Y113.351 E13.88789
G1 X169.315 Y113.101 E13.91167
G1 X169.597 Y113.034 E13.92083
G1 X170.276 Y112.94 E13.94249
G1 X170.69 Y112.926 E13.95558
G1 X184.613 Y112.922 E14.39551
G1 X185.45 Y112.933 E14.42195
G1 X186.069 Y112.972 E14.44155
G0 F1600 X186.113 Y112.595
G1 F1200 X186.638 Y112.655 E14.45825
G1 X188.401 Y112.886 E14.51443
G1 X191.106 Y113.166 E14.60036
G1 X193.801 Y113.367 E14.68575
G1 X196.55 Y113.494 E14.7727
G1 X199.642 Y113.544 E14.87041
G1 X206.616 Y113.542 E15.09077
G1 X207.455 Y113.553 E15.11728
G1 X207.887 Y113.575 E15.13095
G1 X208.444 Y113.649 E15.1487
G1 X209.095 Y113.829 E15.17005
G1 X209.62 Y114.03 E15.18781
G1 X210.065 Y114.275 E15.20386
G1 X210.69 Y114.719 E15.22808
G1 X211.118 Y115.134 E15.24692
G1 X211.482 Y115.561 E15.26465
G1 X211.844 Y116.141 E15.28625
G1 X212.087 Y116.648 E15.30402
G1 X212.29 Y117.293 E15.32538
G1 X212.404 Y117.843 E15.34313
G1 X212.438 Y118.298 E15.35755
G1 X212.448 Y118.855 E15.37515
G1 X212.458 Y132.803 E15.81587
G1 X212.449 Y133.525 E15.83868
G1 X212.356 Y136.661 E15.93781
G1 X212.356 Y139.387 E16.02395
G1 X212.416 Y141.688 E16.09668
G1 X212.44 Y142.342 E16.11736
G1 X212.449 Y142.938 E16.13619
G1 X212.458 Y156.803 E16.57428
G1 X212.449 Y157.525 E16.5971
G1 X212.356 Y160.661 E16.69623
G1 X212.356 Y163.387 E16.78237
G1 X212.416 Y165.688 E16.85509
G1 X212.44 Y166.342 E16.87577
G1 X212.449 Y166.938 E16.89461
G1 X212.458 Y180.75 E17.33103
G1 X212.448 Y181.545 E17.35615
G1 X212.388 Y182.222 E17.37762
G1 X212.281 Y182.773 E17.39536
G1 X212.081 Y183.355 E17.4148
G1 X211.844 Y183.864 E17.43254
G1 X211.52 Y184.372 E17.45158
G1 X211.174 Y184.815 E17.46934
G1 X210.799 Y185.18 E17.48588
G1 X210.152 Y185.678 E17.51168
G1 X209.558 Y185.994 E17.53294
G1 X209.037 Y186.204 E17.55069
G1 X208.337 Y186.369 E17.57341
G1 X207.739 Y186.44 E17.59244
G1 X207.31 Y186.454 E17.606
G1 X193.157 Y186.458 E18.05319
G1 X191.766 Y186.439 E18.09715
G1 X190.318 Y186.398 E18.14292
G1 X187.586 Y186.398 E18.22924
G1 X185.416 Y186.452 E18.29783
G1 X171.157 Y186.458 E18.74837
G1 X170.459 Y186.449 E18.77043
G1 X169.773 Y186.388 E18.79219
G1 X169.222 Y186.28 E18.80993
G1 X168.604 Y186.064 E18.83062
G1 X168.097 Y185.824 E18.84834
G1 X167.541 Y185.457 E18.86939
G1 X167.106 Y185.102 E18.88713
G1 X166.621 Y184.563 E18.91004
G1 X166.293 Y184.106 E18.92782
G1 X165.982 Y183.503 E18.94926
G1 X165.778 Y182.98 E18.96699
G1 X165.628 Y182.325 E18.98823
G1 X165.56 Y181.735 E19.00699
G1 X165.546 Y181.302 E19.02068
G1 X165.542 Y167.157 E19.46762
G1 X165.551 Y166.449 E19.48999
G1 X165.639 Y163.429 E19.58546
G1 X165.639 Y160.691 E19.67197
G1 X165.595 Y158.861 E19.72981
G1 X165.549 Y157.467 E19.77388
G1 X165.542 Y143.157 E20.22604
G1 X165.551 Y142.457 E20.24816
G1 X165.586 Y141.622 E20.27456
G1 X165.662 Y138.924 E20.35985
G1 X165.662 Y136.178 E20.44661
G1 X165.584 Y133.423 E20.5337
G1 X165.549 Y132.452 E20.5644
G1 X165.542 Y118.158 E21.01605
G1 X165.551 Y117.456 E21.03823
G1 X165.613 Y116.767 E21.06009
G1 X165.722 Y116.216 E21.07784
G1 X165.929 Y115.619 E21.0978
G1 X166.167 Y115.111 E21.11553
G1 X166.538 Y114.545 E21.13691
G1 X166.893 Y114.109 E21.15467
G1 X167.424 Y113.628 E21.17731
G1 X167.88 Y113.3 E21.19506
G1 X168.442 Y113.008 E21.21507
G1 X169.227 Y112.731 E21.24138
G1 X169.509 Y112.664 E21.25053
G1 X170.261 Y112.56 E21.27452
G1 X170.69 Y112.546 E21.28808
G1 X184.613 Y112.542 E21.72801
G1 X185.455 Y112.553 E21.75462
G1 X186.113 Y112.595 E21.77545
G1 F4200 E13.77545
;MESH:ktBOX4c.stl(2)
G0 F1600 X185.593 Y117.097
G0 X185.686 Y117.107
;TYPE:WALL-INNER
G1 F4200 E21.77545
G1 F1200 X185.778 Y117.166 E21.7789
G1 X185.851 Y117.243 E21.78226
G1 X185.902 Y117.335 E21.78558
G1 X185.929 Y117.443 E21.7891
G1 X185.938 Y132.473 E22.264
G1 X185.92 Y132.61 E22.26837
G1 X185.879 Y132.713 E22.27187
G1 X185.817 Y132.8 E22.27525
G1 X185.736 Y132.866 E22.27855
G1 X185.636 Y132.913 E22.28204
G1 X185.52 Y132.935 E22.28577
G1 X170.527 Y132.938 E22.75951
G1 X170.389 Y132.92 E22.7639
G1 X170.289 Y132.88 E22.76731
G1 X170.203 Y132.817 E22.77068
G1 X170.133 Y132.733 E22.77413
G1 X170.087 Y132.635 E22.77755
G1 X170.065 Y132.52 E22.78125
G1 X170.062 Y117.527 E23.25499
G1 X170.08 Y117.39 E23.25935
G1 X170.121 Y117.285 E23.26291
G1 X170.182 Y117.201 E23.26619
G1 X170.265 Y117.133 E23.26958
G1 X170.361 Y117.088 E23.27293
G1 X170.482 Y117.065 E23.27683
G1 X185.252 Y117.062 E23.74352
G1 X185.596 Y117.078 E23.7544
G1 X185.686 Y117.107 E23.75738
G0 F1600 X185.846 Y116.77
;TYPE:WALL-OUTER
G1 F1200 X186.015 Y116.877 E23.7637
G1 X186.153 Y117.024 E23.77008
G1 X186.25 Y117.201 E23.77645
G1 X186.299 Y117.395 E23.78278
G1 X186.308 Y132.498 E24.25999
G1 X186.281 Y132.703 E24.26652
G1 X186.206 Y132.893 E24.27297
G1 X186.089 Y133.055 E24.27929
G1 X185.936 Y133.181 E24.28555
G1 X185.752 Y133.267 E24.29197
G1 X185.552 Y133.305 E24.2984
G1 X170.502 Y133.308 E24.77394
G1 X170.297 Y133.281 E24.78047
G1 X170.109 Y133.207 E24.78686
G1 X169.947 Y133.088 E24.79321
G1 X169.818 Y132.933 E24.79958
G1 X169.733 Y132.752 E24.8059
G1 X169.695 Y132.552 E24.81233
G1 X169.692 Y117.502 E25.28787
G1 X169.719 Y117.297 E25.2944
G1 X169.794 Y117.107 E25.30085
G1 X169.91 Y116.946 E25.30712
G1 X170.066 Y116.817 E25.31352
G1 X170.246 Y116.734 E25.31978
G1 X170.448 Y116.695 E25.32628
G1 X185.269 Y116.692 E25.79458
G1 X185.661 Y116.71 E25.80698
G1 X185.846 Y116.77 E25.81313
G0 F1600 X186.015 Y116.877
G0 X185.749 Y117.199
G0 X185.55 Y117.463
;TYPE:SKIN
G1 F1200 X185.559 Y117.485 E25.81388
G1 X185.568 Y132.454 E26.28686
G1 X185.56 Y132.513 E26.28874
G1 X185.544 Y132.545 E26.28987
G1 X185.523 Y132.557 E26.29063
G1 X185.481 Y132.565 E26.29198
G1 X170.545 Y132.568 E26.76392
G1 X170.468 Y132.553 E26.7664
G1 X170.446 Y132.53 E26.7674
G1 X170.435 Y132.481 E26.76899
G1 X170.432 Y117.546 E27.24089
G1 X170.44 Y117.484 E27.24287
G1 X170.448 Y117.465 E27.24352
G1 X170.474 Y117.444 E27.24458
G1 X170.521 Y117.435 E27.24609
G1 X185.235 Y117.432 E27.71101
G1 X185.529 Y117.446 E27.72031
G1 X185.55 Y117.463 E27.72116
G0 F1600 X185.387 Y117.675
G1 F1200 X185.32 Y117.608 E27.72416
G0 F1600 X184.779 Y117.603
G1 F1200 X185.387 Y118.212 E27.75135
G0 F1600 X185.388 Y118.75
G1 F1200 X184.241 Y117.603 E27.8026
G0 F1600 X183.704 Y117.603
G1 F1200 X185.388 Y119.288 E27.87787
G0 F1600 X185.388 Y119.825
G1 F1200 X183.166 Y117.603 E27.97716
G0 F1600 X182.629 Y117.603
G1 F1200 X185.389 Y120.363 E28.10049
G0 F1600 X185.389 Y120.901
G1 F1200 X182.092 Y117.603 E28.24784
G0 F1600 X181.555 Y117.604
G1 F1200 X185.389 Y121.439 E28.41919
G0 F1600 X185.389 Y121.976
G1 F1200 X181.017 Y117.604 E28.61455
G0 F1600 X180.48 Y117.604
G1 F1200 X185.39 Y122.514 E28.83395
G0 F1600 X185.39 Y123.052
G1 F1200 X179.943 Y117.604 E29.07738
G0 F1600 X179.405 Y117.604
G1 F1200 X185.391 Y123.59 E29.34486
G0 F1600 X185.391 Y124.127
G1 F1200 X178.868 Y117.604 E29.63634
G0 F1600 X178.33 Y117.604
G1 F1200 X185.392 Y124.665 E29.95189
G0 F1600 X185.392 Y125.203
G1 F1200 X177.794 Y117.605 E30.2914
G0 F1600 X177.256 Y117.605
G1 F1200 X185.392 Y125.741 E30.65496
G0 F1600 X185.392 Y126.278
G1 F1200 X176.719 Y117.605 E31.04252
G0 F1600 X176.182 Y117.605
G1 F1200 X185.393 Y126.816 E31.45411
G0 F1600 X185.393 Y127.354
G1 F1200 X175.644 Y117.605 E31.88974
G0 F1600 X175.107 Y117.605
G1 F1200 X185.394 Y127.892 E32.34942
G0 F1600 X185.394 Y128.429
G1 F1200 X174.569 Y117.605 E32.83311
G0 F1600 X174.033 Y117.605
G1 F1200 X185.394 Y128.967 E33.3408
G0 F1600 X185.394 Y129.505
G1 F1200 X173.495 Y117.605 E33.87253
G0 F1600 X172.958 Y117.605
G1 F1200 X185.394 Y130.042 E34.42826
G0 F1600 X185.395 Y130.58
G1 F1200 X172.42 Y117.605 E35.00805
G0 F1600 X171.883 Y117.605
G1 F1200 X185.395 Y131.118 E35.61186
G0 F1600 X185.396 Y131.656
G1 F1200 X171.346 Y117.605 E36.2397
G0 F1600 X170.808 Y117.605
G1 F1200 X185.396 Y132.193 E36.89157
G0 F1600 X185.059 Y132.394
G1 F1200 X170.602 Y117.936 E37.5376
G0 F1600 X170.602 Y118.474
G1 F1200 X184.522 Y132.394 E38.15962
G0 F1600 X183.984 Y132.394
G1 F1200 X170.602 Y119.011 E38.75762
G0 F1600 X170.602 Y119.549
G1 F1200 X183.447 Y132.394 E39.3316
G0 F1600 X182.91 Y132.394
G1 F1200 X170.602 Y120.086 E39.88158
G0 F1600 X170.602 Y120.623
G1 F1200 X182.372 Y132.394 E40.40755
G0 F1600 X181.835 Y132.394
G1 F1200 X170.602 Y121.161 E40.9095
G0 F1600 X170.602 Y121.699
G1 F1200 X181.298 Y132.395 E41.38745
G0 F1600 X180.761 Y132.395
G1 F1200 X170.602 Y122.236 E41.8414
G0 F1600 X170.602 Y122.774
G1 F1200 X180.223 Y132.395 E42.27132
G0 F1600 X179.686 Y132.395
G1 F1200 X170.602 Y123.311 E42.67724
G0 F1600 X170.602 Y123.849
G1 F1200 X179.149 Y132.395 E43.05914
G0 F1600 X178.611 Y132.395
G1 F1200 X170.602 Y124.386 E43.41702
G0 F1600 X170.602 Y124.923
G1 F1200 X178.074 Y132.395 E43.75091
G0 F1600 X177.537 Y132.395
G1 F1200 X170.603 Y125.461 E44.06076
G0 F1600 X170.603 Y125.999
G1 F1200 X177 Y132.395 E44.34658
G0 F1600 X176.462 Y132.395
G1 F1200 X170.603 Y126.536 E44.60839
G0 F1600 X170.603 Y127.074
G1 F1200 X175.925 Y132.395 E44.84619
G0 F1600 X175.387 Y132.395
G1 F1200 X170.603 Y127.611 E45.05996
G0 F1600 X170.603 Y128.148
G1 F1200 X174.85 Y132.395 E45.24974
G0 F1600 X174.313 Y132.395
G1 F1200 X170.603 Y128.686 E45.4155
G0 F1600 X170.604 Y129.224
G1 F1200 X173.776 Y132.396 E45.55724
G0 F1600 X173.239 Y132.396
G1 F1200 X170.604 Y129.761 E45.67498
G0 F1600 X170.604 Y130.299
G1 F1200 X172.701 Y132.396 E45.76869
G0 F1600 X172.164 Y132.396
G1 F1200 X170.604 Y130.836 E45.8384
G0 F1600 X170.604 Y131.374
G1 F1200 X171.626 Y132.396 E45.88406
G0 F1600 X171.089 Y132.396
G1 F1200 X170.604 Y131.911 E45.90574
G1 F4200 E37.90574
;MESH:ktBOX4c.stl(4)
G0 F1600 X185.929 Y118.21
G0 X192.081 Y118.528
G0 X207.644 Y118.197
G0 X207.686 Y118.107
;TYPE:WALL-INNER
G1 F4200 E45.90574
G1 F1200 X207.778 Y118.166 E45.90919
