;FLAVOR:Marlin
;TIME:637
;Filament used: 0.480808m, 0m
;Layer height: 0.2
;MINX:187.544
;MINY:134.711
;MINZ:0.2
;MAXX:212.456
;MAXY:159.623
;MAXZ:10
;Generated with Cura_SteamEngine 4.6.1
T0
M140 S50
M105
M190 S50
M104 S205
M105
M109 S205
M82 ;absolute extrusion mode
G28 ;Home
G1 Z15.0 F6000 ;Move the platform down 15mm
;Prime the extruder
G92 E0
G1 F200 E3
G92 E0
G92 E0
G92 E0
G1 F4200 E-8
;LAYER_COUNT:50
;LAYER:0
M107
G1 F600 Z0.6
G0 F1600 X208.128 Y135.535 Z0.6
;TYPE:SKIRT
G1 F600 Z0.2
G1 F4200 E0
G1 F1200 X208.623 Y135.635 E0.01596
G1 X209.12 Y135.814 E0.03265
G1 X209.575 Y136.032 E0.04859
G1 X210.024 Y136.335 E0.0657
G1 X210.411 Y136.659 E0.08165
G1 X210.782 Y137.079 E0.09936
G1 X211.074 Y137.491 E0.11532
G1 X211.311 Y137.95 E0.13164
G1 X211.496 Y138.419 E0.14757
G1 X211.621 Y138.972 E0.16548
G1 X211.688 Y139.7 E0.18858
G1 X211.696 Y153.969 E0.63944
G1 X211.687 Y154.694 E0.66235
G1 X211.634 Y155.29 E0.68126
G1 X211.534 Y155.785 E0.69721
G1 X211.351 Y156.292 E0.71425
G1 X211.007 Y156.939 E0.7374
G1 X210.864 Y157.146 E0.74535
G1 X210.545 Y157.537 E0.76129
G1 X210.112 Y157.929 E0.77975
G1 X209.704 Y158.226 E0.79569
G1 X209.174 Y158.497 E0.8145
G1 X208.702 Y158.676 E0.83045
G1 X208.174 Y158.792 E0.84753
G1 X207.437 Y158.856 E0.87091
G1 X193.159 Y158.863 E1.32205
G1 X192.47 Y158.854 E1.34382
G1 X191.856 Y158.797 E1.36331
G1 X191.362 Y158.695 E1.37925
G1 X190.852 Y158.509 E1.3964
G1 X190.399 Y158.286 E1.41235
G1 X189.985 Y158.005 E1.42816
G1 X189.597 Y157.681 E1.44414
G1 X189.217 Y157.253 E1.46222
G1 X188.924 Y156.842 E1.47817
G1 X188.674 Y156.349 E1.49563
G1 X188.494 Y155.877 E1.5116
G1 X188.375 Y155.338 E1.52904
G1 X188.318 Y154.828 E1.54525
G1 X188.307 Y154.243 E1.56374
G1 X188.304 Y140.479 E1.99864
G1 X188.314 Y139.735 E2.02215
G1 X188.34 Y139.281 E2.03652
G1 X188.469 Y138.564 E2.05954
G1 X188.54 Y138.329 E2.0673
G1 X188.724 Y137.859 E2.08324
G1 X189.024 Y137.345 E2.10205
G1 X189.325 Y136.94 E2.11799
G1 X189.689 Y136.574 E2.1343
G1 X190.08 Y136.255 E2.15025
G1 X190.519 Y135.988 E2.16648
G1 X190.974 Y135.77 E2.18243
G1 X191.552 Y135.597 E2.20149
G1 X192.048 Y135.507 E2.21742
G1 X192.931 Y135.481 E2.24533
G1 X206.802 Y135.471 E2.68361
G1 X207.536 Y135.481 E2.70681
G1 X208.128 Y135.535 E2.72559
G0 F1600 X208.174 Y135.158
G1 F1200 X208.698 Y135.262 E2.74247
G1 X209.258 Y135.459 E2.76123
G1 X209.74 Y135.689 E2.7781
G1 X210.244 Y136.025 E2.79724
G1 X210.655 Y136.366 E2.81412
G1 X211.074 Y136.836 E2.83401
G1 X211.385 Y137.27 E2.85088
G1 X211.652 Y137.783 E2.86916
G1 X211.85 Y138.279 E2.88603
G1 X211.994 Y138.899 E2.90614
G1 X212.057 Y139.428 E2.92298
G1 X212.071 Y139.836 E2.93587
G1 X212.076 Y153.969 E3.38244
G1 X212.067 Y154.699 E3.4055
G1 X212.011 Y155.335 E3.42568
G1 X211.908 Y155.859 E3.44255
G1 X211.705 Y156.43 E3.4617
G1 X211.473 Y156.912 E3.4786
G1 X211.176 Y157.362 E3.49564
G1 X210.841 Y157.778 E3.51251
G1 X210.359 Y158.217 E3.53311
G1 X209.929 Y158.533 E3.54998
G1 X209.337 Y158.84 E3.57105
G1 X208.839 Y159.032 E3.58791
G1 X208.245 Y159.165 E3.60714
G1 X207.722 Y159.225 E3.62378
G1 X207.308 Y159.239 E3.63687
G1 X193.159 Y159.243 E4.08393
G1 X192.465 Y159.234 E4.10587
G1 X191.809 Y159.174 E4.12668
G1 X191.286 Y159.069 E4.14353
G1 X190.712 Y158.862 E4.16281
G1 X190.232 Y158.628 E4.17969
G1 X189.765 Y158.315 E4.19745
G1 X189.354 Y157.974 E4.21433
G1 X188.926 Y157.497 E4.23457
G1 X188.614 Y157.064 E4.25144
G1 X188.33 Y156.512 E4.27105
G1 X188.138 Y156.014 E4.28792
G1 X188.002 Y155.41 E4.30748
G1 X187.939 Y154.839 E4.32563
G1 X187.927 Y154.246 E4.34437
G1 X187.924 Y140.479 E4.77937
G1 X187.934 Y139.73 E4.80304
G1 X187.96 Y139.257 E4.81801
G1 X188.035 Y138.728 E4.83489
G1 X188.177 Y138.219 E4.85158
G1 X188.369 Y137.721 E4.86845
G1 X188.702 Y137.143 E4.88953
G1 X189.019 Y136.713 E4.90641
G1 X189.426 Y136.3 E4.92473
G1 X189.838 Y135.96 E4.94161
G1 X190.328 Y135.659 E4.95978
G1 X190.809 Y135.427 E4.97665
G1 X191.454 Y135.23 E4.99796
G1 X191.979 Y135.132 E5.01483
G1 X192.925 Y135.101 E5.04474
G1 X206.802 Y135.091 E5.48322
G1 X207.541 Y135.101 E5.50657
G1 X208.174 Y135.158 E5.52665
G0 F1600 X208.22 Y134.781
G1 F1200 X208.771 Y134.888 E5.54438
G1 X209.395 Y135.105 E5.56526
G1 X209.903 Y135.344 E5.583
G1 X210.464 Y135.715 E5.60425
G1 X210.898 Y136.072 E5.62201
G1 X211.366 Y136.592 E5.64411
G1 X211.694 Y137.048 E5.66186
G1 X211.993 Y137.616 E5.68214
G1 X212.204 Y138.137 E5.6999
G1 X212.367 Y138.827 E5.72231
G1 X212.436 Y139.412 E5.74092
G1 X212.451 Y139.836 E5.75432
G1 X212.456 Y153.969 E6.20089
G1 X212.447 Y154.704 E6.22411
G1 X212.388 Y155.38 E6.24555
G1 X212.282 Y155.931 E6.26328
G1 X212.059 Y156.569 E6.28464
G1 X211.817 Y157.076 E6.30239
G1 X211.489 Y157.578 E6.32133
G1 X211.138 Y158.016 E6.33907
G1 X210.606 Y158.506 E6.36192
G1 X210.154 Y158.84 E6.37968
G1 X209.5 Y159.183 E6.40302
G1 X208.976 Y159.387 E6.42078
G1 X208.316 Y159.538 E6.44218
G1 X207.738 Y159.605 E6.46056
G1 X207.308 Y159.619 E6.47415
G1 X193.159 Y159.623 E6.92122
G1 X192.46 Y159.614 E6.94331
G1 X191.763 Y159.551 E6.96542
G1 X191.212 Y159.442 E6.98317
G1 X190.572 Y159.215 E7.00463
G1 X190.066 Y158.971 E7.02238
G1 X189.546 Y158.625 E7.04211
G1 X189.111 Y158.269 E7.05987
G1 X188.635 Y157.742 E7.08231
G1 X188.306 Y157.287 E7.10005
G1 X187.987 Y156.675 E7.12186
G1 X187.783 Y156.152 E7.1396
G1 X187.629 Y155.483 E7.16129
G1 X187.559 Y154.851 E7.18138
G1 X187.547 Y154.249 E7.20041
G1 X187.544 Y140.479 E7.6355
G1 X187.554 Y139.724 E7.65936
G1 X187.581 Y139.232 E7.67493
G1 X187.657 Y138.676 E7.69266
G1 X187.813 Y138.11 E7.71121
G1 X188.013 Y137.585 E7.72896
G1 X188.38 Y136.942 E7.75235
G1 X188.711 Y136.488 E7.77011
G1 X189.163 Y136.025 E7.79055
G1 X189.595 Y135.666 E7.8083
G1 X190.137 Y135.331 E7.82843
G1 X190.642 Y135.084 E7.84619
G1 X191.357 Y134.863 E7.86984
G1 X191.909 Y134.758 E7.8876
G1 X192.918 Y134.721 E7.9195
G1 X206.801 Y134.711 E8.35816
G1 X207.547 Y134.721 E8.38174
G1 X208.22 Y134.781 E8.40308
G1 F4200 E0.40308
;MESH:ktBOX4c.stl
G0 F1600 X207.606 Y139.268
G0 X207.708 Y139.288
;TYPE:WALL-INNER
G1 F4200 E8.40308
G1 F1200 X207.794 Y139.351 E8.40645
G1 X207.863 Y139.435 E8.40989
G1 X207.912 Y139.537 E8.41346
G1 X207.933 Y139.649 E8.41706
G1 X207.936 Y154.637 E8.89064
G1 X207.918 Y154.774 E8.89501
G1 X207.877 Y154.877 E8.89851
G1 X207.813 Y154.965 E8.90195
G1 X207.734 Y155.03 E8.90518
G1 X207.634 Y155.078 E8.90869
G1 X207.518 Y155.1 E8.91242
G1 X192.532 Y155.103 E9.38593
G1 X192.39 Y155.084 E9.39046
G1 X192.292 Y155.045 E9.39379
G1 X192.206 Y154.983 E9.39714
G1 X192.137 Y154.898 E9.4006
G1 X192.089 Y154.798 E9.4041
G1 X192.067 Y154.681 E9.40787
G1 X192.064 Y139.834 E9.87699
G1 X192.078 Y139.577 E9.88512
G1 X192.109 Y139.482 E9.88828
G1 X192.166 Y139.392 E9.89164
G1 X192.247 Y139.317 E9.89513
G1 X192.337 Y139.267 E9.89839
G1 X192.445 Y139.24 E9.9019
G1 X207.471 Y139.231 E10.37668
G1 X207.611 Y139.249 E10.38114
G1 X207.708 Y139.288 E10.38445
G0 F1600 X207.888 Y138.961
;TYPE:WALL-OUTER
G1 F1200 X208.051 Y139.08 E10.39082
G1 X208.179 Y139.236 E10.3972
G1 X208.265 Y139.418 E10.40356
G1 X208.303 Y139.617 E10.40996
G1 X208.306 Y154.662 E10.88534
G1 X208.279 Y154.867 E10.89187
G1 X208.204 Y155.057 E10.89833
G1 X208.087 Y155.219 E10.90464
G1 X207.933 Y155.345 E10.91093
G1 X207.749 Y155.432 E10.91736
G1 X207.55 Y155.47 E10.92376
G1 X192.505 Y155.473 E11.39914
G1 X192.297 Y155.445 E11.40577
G1 X192.112 Y155.372 E11.41205
G1 X191.95 Y155.254 E11.41839
G1 X191.822 Y155.098 E11.42476
G1 X191.734 Y154.914 E11.43121
G1 X191.697 Y154.717 E11.43754
G1 X191.694 Y139.834 E11.9078
G1 X191.712 Y139.509 E11.91809
G1 X191.772 Y139.322 E11.92429
G1 X191.879 Y139.154 E11.93059
G1 X192.028 Y139.015 E11.93702
G1 X192.2 Y138.92 E11.94323
G1 X192.397 Y138.87 E11.94965
G1 X207.496 Y138.861 E12.42674
G1 X207.703 Y138.888 E12.43334
G1 X207.888 Y138.961 E12.43962
G0 F1600 X208.05 Y139.079
G0 X207.764 Y139.383
G0 X207.55 Y139.637
;TYPE:SKIN
G1 F1200 X207.557 Y139.652 E12.44014
G1 X207.563 Y139.685 E12.4412
G1 X207.566 Y154.618 E12.91304
G1 X207.558 Y154.674 E12.91483
G1 X207.531 Y154.717 E12.91643
G1 X207.52 Y154.722 E12.91682
G1 X207.48 Y154.73 E12.9181
G1 X192.553 Y154.733 E13.38975
G1 X192.47 Y154.717 E13.39243
G1 X192.45 Y154.696 E13.39334
G1 X192.445 Y154.683 E13.39378
G1 X192.437 Y154.644 E13.39504
G1 X192.434 Y139.854 E13.86236
G1 X192.446 Y139.644 E13.86901
G1 X192.478 Y139.612 E13.87044
G1 X207.455 Y139.601 E14.34367
G1 X207.514 Y139.609 E14.34555
G1 X207.55 Y139.637 E14.34699
G0 F1600 X206.948 Y139.773
G1 F1200 X207.392 Y140.217 E14.36683
G0 F1600 X207.392 Y140.754
G1 F1200 X206.41 Y139.773 E14.41069
G0 F1600 X205.874 Y139.773
G1 F1200 X207.392 Y141.291 E14.47852
G0 F1600 X207.392 Y141.829
G1 F1200 X205.337 Y139.774 E14.57035
G0 F1600 X204.8 Y139.774
G1 F1200 X207.392 Y142.366 E14.68617
G0 F1600 X207.392 Y142.904
G1 F1200 X204.263 Y139.775 E14.82599
G0 F1600 X203.725 Y139.775
G1 F1200 X207.392 Y143.441 E14.98983
G0 F1600 X207.393 Y143.979
G1 F1200 X203.189 Y139.775 E15.17769
G0 F1600 X202.651 Y139.775
G1 F1200 X207.393 Y144.517 E15.38958
G0 F1600 X207.393 Y145.054
G1 F1200 X202.115 Y139.776 E15.62543
G0 F1600 X201.577 Y139.776
G1 F1200 X207.393 Y145.591 E15.8853
G0 F1600 X207.393 Y146.129
G1 F1200 X201.041 Y139.777 E16.16914
G0 F1600 X200.503 Y139.777
G1 F1200 X207.393 Y146.666 E16.47699
G0 F1600 X207.393 Y147.204
G1 F1200 X199.966 Y139.778 E16.80885
G0 F1600 X199.43 Y139.778
G1 F1200 X207.393 Y147.742 E17.1647
G0 F1600 X207.393 Y148.279
G1 F1200 X198.892 Y139.778 E17.54457
G0 F1600 X198.356 Y139.779
G1 F1200 X207.393 Y148.816 E17.94839
G0 F1600 X207.393 Y149.354
G1 F1200 X197.818 Y139.779 E18.37624
G0 F1600 X197.282 Y139.78
G1 F1200 X207.393 Y149.891 E18.82806
G0 F1600 X207.393 Y150.429
G1 F1200 X196.744 Y139.78 E19.30391
G0 F1600 X196.207 Y139.78
G1 F1200 X207.394 Y150.967 E19.8038
G0 F1600 X207.394 Y151.504
G1 F1200 X195.67 Y139.78 E20.32769
G0 F1600 X195.133 Y139.781
G1 F1200 X207.394 Y152.042 E20.87557
G0 F1600 X207.394 Y152.579
G1 F1200 X194.596 Y139.781 E21.44745
G0 F1600 X194.059 Y139.782
G1 F1200 X207.394 Y153.116 E22.0433
G0 F1600 X207.394 Y153.654
G1 F1200 X193.523 Y139.782 E22.66315
G0 F1600 X192.985 Y139.782
G1 F1200 X207.394 Y154.191 E23.30702
G0 F1600 X207.224 Y154.559
G1 F1200 X192.604 Y139.939 E23.96032
G0 F1600 X192.604 Y140.476
G1 F1200 X206.687 Y154.559 E24.58962
G0 F1600 X206.149 Y154.559
G1 F1200 X192.604 Y141.014 E25.19488
G0 F1600 X192.604 Y141.551
G1 F1200 X205.612 Y154.559 E25.77614
G0 F1600 X205.075 Y154.559
G1 F1200 X192.604 Y142.088 E26.33341
G0 F1600 X192.604 Y142.626
G1 F1200 X204.537 Y154.559 E26.86663
G0 F1600 X204 Y154.559
G1 F1200 X192.604 Y143.163 E27.37587
G0 F1600 X192.605 Y143.701
G1 F1200 X203.463 Y154.56 E27.86108
G0 F1600 X202.926 Y154.56
G1 F1200 X192.605 Y144.239 E28.32227
G0 F1600 X192.605 Y144.776
G1 F1200 X202.388 Y154.56 E28.75945
G0 F1600 X201.851 Y154.56
G1 F1200 X192.605 Y145.313 E29.17263
G0 F1600 X192.605 Y145.851
G1 F1200 X201.314 Y154.56 E29.56179
G0 F1600 X200.776 Y154.56
G1 F1200 X192.605 Y146.388 E29.92694
G0 F1600 X192.605 Y146.926
G1 F1200 X200.239 Y154.56 E30.26806
G0 F1600 X199.702 Y154.56
G1 F1200 X192.605 Y147.464 E30.58517
G0 F1600 X192.605 Y148.001
G1 F1200 X199.165 Y154.56 E30.87828
G0 F1600 X198.627 Y154.56
G1 F1200 X192.605 Y148.539 E31.14735
G0 F1600 X192.605 Y149.076
G1 F1200 X198.09 Y154.56 E31.39243
G0 F1600 X197.552 Y154.56
G1 F1200 X192.605 Y149.613 E31.61349
G0 F1600 X192.605 Y150.151
G1 F1200 X197.015 Y154.56 E31.81053
G0 F1600 X196.478 Y154.56
G1 F1200 X192.605 Y150.688 E31.98357
G0 F1600 X192.606 Y151.226
G1 F1200 X195.941 Y154.561 E32.13259
G0 F1600 X195.404 Y154.561
G1 F1200 X192.606 Y151.764 E32.2576
G0 F1600 X192.606 Y152.301
G1 F1200 X194.866 Y154.561 E32.35859
G0 F1600 X194.329 Y154.561
G1 F1200 X192.606 Y152.839 E32.43556
G0 F1600 X192.606 Y153.376
G1 F1200 X193.791 Y154.561 E32.48851
G0 F1600 X193.254 Y154.561
G1 F1200 X192.606 Y153.913 E32.51747
G0 F1600 X192.606 Y154.451
G1 F1200 X192.717 Y154.561 E32.5224
;MESH:NONMESH
G0 F600 X192.717 Y154.561 Z0.4
G0 F1600 X207.65 Y139.369
G0 X207.718 Y139.277
;TIME_ELAPSED:64.680578
;LAYER:1
M140 S50
M106 S255
;TYPE:WALL-INNER
;MESH:ktBOX4c.stl
G1 F2400 X207.805 Y139.342 E32.52584
G1 X207.874 Y139.426 E32.52927
G1 X207.919 Y139.52 E32.53256
G1 X207.943 Y139.65 E32.53674
G1 X207.945 Y140.133 E32.552
G1 X207.946 Y154.647 E33.0106
G1 X207.928 Y154.784 E33.01497
G1 X207.887 Y154.887 E33.01847
G1 X207.823 Y154.975 E33.02191
G1 X207.746 Y155.039 E33.02507
G1 X207.647 Y155.086 E33.02854
G1 X207.517 Y155.11 E33.03271
G1 X207.033 Y155.112 E33.04801
G1 X192.522 Y155.113 E33.50651
G1 X192.38 Y155.094 E33.51104
G1 X192.282 Y155.055 E33.51437
G1 X192.196 Y154.992 E33.51774
G1 X192.126 Y154.907 E33.52122
G1 X192.08 Y154.811 E33.52458
G1 X192.057 Y154.687 E33.52857
G1 X192.056 Y139.642 E34.00395
G1 X192.079 Y139.525 E34.00771
G1 X192.127 Y139.424 E34.01125
G1 X192.195 Y139.342 E34.01461
G1 X192.282 Y139.278 E34.01803
G1 X192.382 Y139.239 E34.02142
G1 X192.52 Y139.221 E34.02581
G1 X207.48 Y139.221 E34.49851
G1 X207.621 Y139.239 E34.503
G1 X207.718 Y139.277 E34.50629
G0 F3200 X207.898 Y138.951
;TYPE:WALL-OUTER
G1 F1500 X208.062 Y139.071 E34.51271
G1 X208.19 Y139.227 E34.51909
G1 X208.274 Y139.405 E34.52531
G1 X208.313 Y139.612 E34.53196
G1 X208.315 Y140.133 E34.54843
G1 X208.316 Y154.672 E35.00782
G1 X208.289 Y154.877 E35.01435
G1 X208.214 Y155.067 E35.0208
G1 X208.097 Y155.229 E35.02712
G1 X207.942 Y155.356 E35.03345
G1 X207.762 Y155.441 E35.03974
G1 X207.555 Y155.48 E35.04639
G1 X207.034 Y155.482 E35.06286
G1 X192.495 Y155.483 E35.52225
G1 X192.287 Y155.455 E35.52888
G1 X192.102 Y155.382 E35.53516
G1 X191.939 Y155.263 E35.54154
G1 X191.811 Y155.107 E35.54792
G1 X191.725 Y154.927 E35.55422
G1 X191.687 Y154.721 E35.56084
G1 X191.686 Y139.607 E36.0384
G1 X191.725 Y139.407 E36.04484
G1 X191.811 Y139.225 E36.0512
G1 X191.94 Y139.07 E36.05757
G1 X192.104 Y138.95 E36.06399
G1 X192.288 Y138.878 E36.07023
G1 X192.495 Y138.851 E36.07683
G1 X207.505 Y138.851 E36.5511
G1 X207.713 Y138.878 E36.55773
G1 X207.898 Y138.951 E36.56401
G0 F3200 X208.059 Y139.069
G0 X207.811 Y139.405
G0 X207.562 Y139.63
;TYPE:SKIN
G1 F1500 X207.573 Y139.685 E36.56578
G1 X207.575 Y140.135 E36.58
G1 X207.576 Y154.628 E37.03794
G1 X207.568 Y154.684 E37.03973
G1 X207.548 Y154.723 E37.04111
G1 X207.531 Y154.731 E37.04171
G1 X207.483 Y154.74 E37.04325
G1 X207.031 Y154.742 E37.05753
G1 X192.543 Y154.743 E37.51531
G1 X192.46 Y154.727 E37.51798
G1 X192.438 Y154.702 E37.51903
G1 X192.427 Y154.651 E37.52068
G1 X192.426 Y139.679 E37.99375
G1 X192.441 Y139.624 E37.99556
G1 X192.462 Y139.606 E37.99643
G1 X192.48 Y139.599 E37.99704
G1 X192.538 Y139.591 E37.99889
G1 X207.464 Y139.591 E38.47051
G1 X207.527 Y139.599 E38.47252
G1 X207.562 Y139.63 E38.47399
G0 F3200 X207.403 Y154.267
G1 F1500 X207.1 Y154.57 E38.48753
G0 F3200 X206.562 Y154.571
G1 F1500 X207.403 Y153.729 E38.52513
G0 F3200 X207.403 Y153.192
G1 F1500 X206.024 Y154.571 E38.58676
G0 F3200 X205.487 Y154.571
G1 F1500 X207.403 Y152.655 E38.67237
G0 F3200 X207.403 Y152.117
G1 F1500 X204.949 Y154.571 E38.78203
G0 F3200 X204.412 Y154.571
G1 F1500 X207.403 Y151.58 E38.91568
G0 F3200 X207.403 Y151.042
G1 F1500 X203.875 Y154.571 E39.07335
G0 F3200 X203.337 Y154.571
G1 F1500 X207.403 Y150.505 E39.25504
G0 F3200 X207.403 Y149.968
G1 F1500 X202.8 Y154.571 E39.46073
G0 F3200 X202.262 Y154.571
G1 F1500 X207.403 Y149.43 E39.69045
G0 F3200 X207.403 Y148.893
G1 F1500 X201.725 Y154.571 E39.94418
G0 F3200 X201.188 Y154.571
G1 F1500 X207.403 Y148.355 E40.22192
G0 F3200 X207.403 Y147.818
G1 F1500 X200.65 Y154.571 E40.52368
G0 F3200 X200.113 Y154.571
G1 F1500 X207.402 Y147.281 E40.84941
G0 F3200 X207.402 Y146.744
G1 F1500 X199.575 Y154.572 E41.19918
G0 F3200 X199.037 Y154.572
G1 F1500 X207.402 Y146.207 E41.57297
G0 F3200 X207.402 Y145.669
G1 F1500 X198.5 Y154.572 E41.97078
G0 F3200 X197.963 Y154.572
G1 F1500 X207.402 Y145.132 E42.39258
G0 F3200 X207.402 Y144.594
G1 F1500 X197.425 Y154.572 E42.83843
G0 F3200 X196.888 Y154.572
G1 F1500 X207.402 Y144.057 E43.30827
G0 F3200 X207.402 Y143.52
G1 F1500 X196.35 Y154.572 E43.80213
G0 F3200 X195.813 Y154.572
