;FLAVOR:Marlin
;TIME:9041
;Filament used: 8.33693m, 0m
;Layer height: 0.2
;MINX:164.05
;MINY:68.55
;MINZ:0.2
;MAXX:235.95
;MAXY:202.458
;MAXZ:22
;Generated with Cura_SteamEngine 4.6.1
T0
M140 S50
M105
M190 S50
M104 S205
M105
M109 S205
M82 ;absolute extrusion mode
G28 ;Home
G1 Z15.0 F6000 ;Move the platform down 15mm
;Prime the extruder
G92 E0
G1 F200 E3
G92 E0
G92 E0
G92 E0
G1 F4200 E-8
;LAYER_COUNT:110
;LAYER:0
M107
G1 F600 Z0.6
G0 F1600 X189.711 Y69.402 Z0.6
;TYPE:SKIRT
G1 F600 Z0.2
G1 F4200 E0
G1 F1200 X192.891 Y70.139 E0.10314
G1 X195.589 Y70.683 E0.19011
G1 X198.239 Y71.135 E0.27505
G1 X200.944 Y71.521 E0.36138
G1 X203.716 Y71.836 E0.44954
G1 X206.396 Y72.066 E0.53453
G1 X209.141 Y72.221 E0.6214
G1 X211.906 Y72.3 E0.7088
G1 X213.295 Y72.31 E0.75269
G1 X227.838 Y72.31 E1.21221
G1 X228.434 Y72.32 E1.23104
G1 X228.996 Y72.346 E1.24882
G1 X229.397 Y72.39 E1.26157
G1 X229.856 Y72.47 E1.27629
G1 X230.631 Y72.68 E1.30166
G1 X231.01 Y72.822 E1.31445
G1 X231.433 Y73.011 E1.32909
G1 X231.793 Y73.199 E1.34192
G1 X232.226 Y73.463 E1.35794
G1 X232.596 Y73.727 E1.3723
G1 X233.111 Y74.175 E1.39387
G1 X233.454 Y74.526 E1.40938
G1 X233.727 Y74.846 E1.42267
G1 X234.155 Y75.457 E1.44624
G1 X234.384 Y75.856 E1.46078
G1 X234.557 Y76.206 E1.47311
G1 X234.763 Y76.695 E1.48988
G1 X234.912 Y77.136 E1.50459
G1 X235.058 Y77.775 E1.5253
G1 X235.126 Y78.233 E1.53993
G1 X235.16 Y78.637 E1.55274
G1 X235.182 Y79.736 E1.58747
G1 X235.19 Y113.335 E2.6491
G1 X235.184 Y113.837 E2.66496
G1 X235.016 Y117.501 E2.78086
G1 X234.962 Y120.182 E2.86559
G1 X234.985 Y122.952 E2.95311
G1 X235.12 Y126.358 E3.06082
G1 X235.175 Y127.317 E3.09117
G1 X235.19 Y127.829 E3.10736
G1 X235.183 Y168.523 E4.39317
G1 X235.175 Y169.143 E4.41276
G1 X235.107 Y169.919 E4.43737
G1 X235.039 Y170.318 E4.45016
G1 X234.921 Y170.819 E4.46643
G1 X234.786 Y171.252 E4.48076
G1 X234.524 Y171.868 E4.50191
G1 X234.299 Y172.296 E4.51719
G1 X234.096 Y172.63 E4.52954
G1 X233.811 Y173.041 E4.54534
G1 X233.524 Y173.398 E4.55981
G1 X233.042 Y173.887 E4.58151
G1 X230.6 Y175.996 E4.68346
G1 X228.589 Y177.819 E4.76923
G1 X226.605 Y179.722 E4.85609
G1 X224.685 Y181.67 E4.94251
G1 X222.806 Y183.69 E5.02968
G1 X221.002 Y185.743 E5.11604
G1 X219.252 Y187.849 E5.20256
G1 X217.595 Y189.961 E5.28738
G1 X215.915 Y192.235 E5.37671
G1 X214.388 Y194.43 E5.4612
G1 X212.881 Y196.73 E5.54808
G1 X210.975 Y199.83 E5.66307
G1 X210.834 Y200.027 E5.67072
G1 X210.509 Y200.413 E5.68667
G1 X210.113 Y200.766 E5.70343
G1 X209.705 Y201.062 E5.71935
G1 X209.196 Y201.324 E5.73744
G1 X208.724 Y201.505 E5.75342
G1 X208.194 Y201.623 E5.77057
G1 X207.708 Y201.68 E5.78603
G1 X207.31 Y201.694 E5.79862
G1 X193.387 Y201.698 E6.23854
G1 X192.555 Y201.687 E6.26484
G1 X192.159 Y201.666 E6.27737
G1 X191.418 Y201.533 E6.30115
G1 X191.123 Y201.443 E6.3109
G1 X190.653 Y201.258 E6.32686
G1 X190.173 Y200.977 E6.34443
G1 X189.768 Y200.675 E6.3604
G1 X189.392 Y200.299 E6.3772
G1 X188.967 Y199.744 E6.39928
G1 X188.308 Y198.654 E6.43953
G1 X186.872 Y196.346 E6.52542
G1 X185.346 Y194.04 E6.61279
G1 X183.775 Y191.809 E6.69901
G1 X182.139 Y189.619 E6.78538
G1 X180.42 Y187.448 E6.87288
G1 X178.667 Y185.358 E6.95907
G1 X176.876 Y183.341 E7.0443
G1 X174.977 Y181.321 E7.1319
G1 X173.017 Y179.352 E7.21969
G1 X171.084 Y177.516 E7.30393
G1 X169.027 Y175.67 E7.39126
G1 X168.128 Y174.91 E7.42845
G1 X167.102 Y174.024 E7.47129
G1 X166.524 Y173.448 E7.49707
G1 X166.233 Y173.105 E7.51128
G1 X165.844 Y172.541 E7.53293
G1 X165.615 Y172.142 E7.54747
G1 X165.442 Y171.792 E7.5598
G1 X165.236 Y171.303 E7.57657
G1 X165.086 Y170.858 E7.59141
G1 X164.942 Y170.225 E7.61192
G1 X164.874 Y169.767 E7.62655
G1 X164.84 Y169.363 E7.63936
G1 X164.818 Y168.264 E7.67409
G1 X164.81 Y134.823 E8.73073
G1 X164.821 Y133.962 E8.75794
G1 X164.855 Y133.346 E8.77743
G1 X164.927 Y132.509 E8.80398
G1 X165.127 Y129.8 E8.88981
G1 X165.252 Y127.051 E8.97676
G1 X165.299 Y124.295 E9.06385
G1 X165.268 Y121.543 E9.15081
G1 X165.163 Y118.877 E9.23511
G1 X164.974 Y116.096 E9.32319
G1 X164.852 Y114.666 E9.36854
G1 X164.818 Y113.265 E9.41282
G1 X164.81 Y73.199 E10.67879
G1 X164.82 Y72.463 E10.70205
G1 X164.868 Y71.96 E10.71801
G1 X164.993 Y71.471 E10.73396
G1 X165.195 Y71.008 E10.74992
G1 X165.467 Y70.583 E10.76586
G1 X165.802 Y70.206 E10.7818
G1 X166.193 Y69.887 E10.79774
G1 X166.63 Y69.633 E10.81371
G1 X167.101 Y69.451 E10.82967
G1 X167.594 Y69.346 E10.8456
G1 X168.24 Y69.311 E10.86604
G1 X188.339 Y69.31 E11.50111
G1 X189.037 Y69.32 E11.52317
G1 X189.711 Y69.402 E11.54462
G0 F1600 X189.797 Y69.032
G1 F1200 X192.952 Y69.763 E11.64695
G1 X195.66 Y70.309 E11.73424
G1 X198.318 Y70.763 E11.81944
G1 X201.007 Y71.146 E11.90526
G1 X203.722 Y71.455 E11.9916
G1 X206.45 Y71.688 E12.07811
G1 X209.137 Y71.841 E12.16315
G1 X211.92 Y71.92 E12.25112
G1 X213.298 Y71.93 E12.29466
G1 X227.844 Y71.93 E12.75427
G1 X228.452 Y71.941 E12.77349
G1 X229.014 Y71.967 E12.79126
G1 X229.462 Y72.016 E12.8055
G1 X229.921 Y72.096 E12.82023
G1 X230.339 Y72.195 E12.8338
G1 X230.74 Y72.316 E12.84703
G1 X231.165 Y72.475 E12.86137
G1 X231.588 Y72.664 E12.87601
G1 X231.99 Y72.875 E12.89036
G1 X232.423 Y73.139 E12.90638
G1 X232.838 Y73.434 E12.92247
G1 X233.382 Y73.91 E12.94531
G1 X233.725 Y74.261 E12.96081
G1 X234.032 Y74.619 E12.97572
G1 X234.484 Y75.268 E13.00071
G1 X234.713 Y75.667 E13.01524
G1 X234.907 Y76.058 E13.02903
G1 X235.113 Y76.547 E13.0458
G1 X235.28 Y77.041 E13.06228
G1 X235.434 Y77.719 E13.08424
G1 X235.502 Y78.177 E13.09887
G1 X235.54 Y78.63 E13.11324
G1 X235.562 Y79.729 E13.14797
G1 X235.57 Y113.335 E14.20982
G1 X235.564 Y113.842 E14.22584
G1 X235.397 Y117.475 E14.34076
G1 X235.342 Y120.182 E14.42631
G1 X235.365 Y122.934 E14.51327
G1 X235.501 Y126.365 E14.62176
G1 X235.554 Y127.296 E14.65123
G1 X235.57 Y127.829 E14.66808
G1 X235.563 Y168.523 E15.95389
G1 X235.555 Y169.148 E15.97364
G1 X235.485 Y169.958 E15.99933
G1 X235.409 Y170.405 E16.01365
G1 X235.291 Y170.906 E16.02992
G1 X235.14 Y171.391 E16.04597
G1 X234.86 Y172.045 E16.06845
G1 X234.635 Y172.473 E16.08373
G1 X234.409 Y172.846 E16.09751
G1 X234.124 Y173.257 E16.11331
G1 X233.802 Y173.657 E16.12953
G1 X233.291 Y174.175 E16.15253
G1 X230.857 Y176.278 E16.25416
G1 X228.821 Y178.123 E16.34098
G1 X226.888 Y179.977 E16.42561
G1 X224.932 Y181.962 E16.51366
G1 X223.1 Y183.932 E16.59867
G1 X221.294 Y185.986 E16.68509
G1 X219.556 Y188.076 E16.77097
G1 X217.863 Y190.237 E16.85771
G1 X216.253 Y192.415 E16.94329
G1 X214.702 Y194.644 E17.0291
G1 X213.19 Y196.95 E17.11623
G1 X211.284 Y200.051 E17.23124
G1 X210.801 Y200.658 E17.25575
G1 X210.36 Y201.054 E17.27447
G1 X209.929 Y201.37 E17.29136
G1 X209.359 Y201.667 E17.31167
G1 X208.861 Y201.86 E17.32855
G1 X208.267 Y201.996 E17.3478
G1 X207.724 Y202.06 E17.36508
G1 X207.31 Y202.074 E17.37816
G1 X193.387 Y202.078 E17.81809
G1 X192.55 Y202.067 E17.84454
G1 X192.136 Y202.046 E17.85764
G1 X191.607 Y201.974 E17.87451
G1 X191.012 Y201.807 E17.89403
G1 X190.515 Y201.613 E17.91089
G1 X189.97 Y201.299 E17.93077
G1 X189.541 Y200.981 E17.94764
G1 X189.117 Y200.562 E17.96647
G1 X188.642 Y199.941 E17.99118
G1 X187.983 Y198.851 E18.03142
G1 X186.538 Y196.529 E18.11784
G1 X185.034 Y194.257 E18.20393
G1 X183.476 Y192.044 E18.28945
G1 X181.836 Y189.849 E18.37602
G1 X180.131 Y187.696 E18.4628
G1 X178.379 Y185.608 E18.54892
G1 X176.565 Y183.565 E18.63525
G1 X174.717 Y181.598 E18.72053
G1 X172.776 Y179.648 E18.80746
G1 X170.819 Y177.789 E18.89275
G1 X168.761 Y175.943 E18.9801
G1 X167.883 Y175.2 E19.01645
G1 X166.854 Y174.311 E19.05941
G1 X166.252 Y173.714 E19.0862
G1 X165.927 Y173.33 E19.1021
G1 X165.515 Y172.73 E19.1251
G1 X165.286 Y172.331 E19.13963
G1 X165.092 Y171.94 E19.15342
G1 X164.886 Y171.451 E19.17019
G1 X164.718 Y170.952 E19.18683
G1 X164.566 Y170.281 E19.20857
G1 X164.498 Y169.823 E19.2232
G1 X164.46 Y169.37 E19.23756
G1 X164.438 Y168.271 E19.27229
G1 X164.43 Y134.823 E20.32915
G1 X164.441 Y133.957 E20.35652
G1 X164.475 Y133.324 E20.37655
G1 X164.549 Y132.475 E20.40348
G1 X164.749 Y129.756 E20.48962
G1 X164.873 Y127.026 E20.57597
G1 X164.92 Y124.314 E20.66167
G1 X164.888 Y121.562 E20.74863
G1 X164.782 Y118.867 E20.83385
G1 X164.595 Y116.123 E20.92076
G1 X164.473 Y114.698 E20.96595
G1 X164.438 Y113.272 E21.01102
G1 X164.43 Y73.199 E22.27721
G1 X164.44 Y72.457 E22.30066
G1 X164.488 Y71.925 E22.31754
G1 X164.615 Y71.406 E22.33442
G1 X164.817 Y70.912 E22.35128
G1 X165.091 Y70.454 E22.36815
G1 X165.43 Y70.041 E22.38503
G1 X165.827 Y69.684 E22.4019
G1 X166.273 Y69.39 E22.41878
G1 X166.758 Y69.166 E22.43566
G1 X167.27 Y69.016 E22.45252
G1 X167.91 Y68.94 E22.47288
G1 X188.344 Y68.93 E23.11854
G1 X189.042 Y68.94 E23.14059
G1 X189.797 Y69.032 E23.16463
G0 F1600 X189.883 Y68.662
G1 F1200 X193.045 Y69.395 E23.26718
G1 X195.698 Y69.929 E23.35269
G1 X198.402 Y70.391 E23.43937
G1 X201.03 Y70.766 E23.52325
G1 X203.763 Y71.077 E23.61016
G1 X206.467 Y71.308 E23.69591
G1 X209.206 Y71.463 E23.78259
G1 X211.887 Y71.54 E23.86734
G1 X213.301 Y71.55 E23.91202
G1 X227.849 Y71.55 E24.37169
G1 X228.47 Y71.561 E24.39132
G1 X229.032 Y71.587 E24.4091
G1 X229.527 Y71.642 E24.42483
G1 X229.986 Y71.722 E24.43955
G1 X230.449 Y71.831 E24.45458
G1 X230.85 Y71.952 E24.46782
G1 X231.32 Y72.128 E24.48368
G1 X231.743 Y72.317 E24.49832
G1 X232.188 Y72.55 E24.51419
G1 X232.621 Y72.814 E24.53021
G1 X233.08 Y73.141 E24.54802
G1 X233.654 Y73.644 E24.57213
G1 X233.997 Y73.995 E24.58764
G1 X234.336 Y74.391 E24.60411
G1 X234.814 Y75.079 E24.63058
G1 X235.043 Y75.478 E24.64512
G1 X235.257 Y75.911 E24.66038
G1 X235.463 Y76.4 E24.67715
G1 X235.648 Y76.946 E24.69536
G1 X235.81 Y77.663 E24.71859
G1 X235.878 Y78.121 E24.73322
G1 X235.92 Y78.622 E24.7491
G1 X235.942 Y79.721 E24.78383
G1 X235.95 Y113.335 E25.84594
G1 X235.944 Y113.847 E25.86212
G1 X235.777 Y117.501 E25.9777
G1 X235.722 Y120.194 E26.0628
G1 X235.745 Y122.916 E26.14882
G1 X235.879 Y126.315 E26.2563
G1 X235.934 Y127.274 E26.28665
G1 X235.95 Y127.829 E26.30419
G1 X235.943 Y168.523 E27.59001
G1 X235.935 Y169.154 E27.60995
G1 X235.863 Y169.998 E27.63671
G1 X235.779 Y170.493 E27.65257
G1 X235.661 Y170.994 E27.66884
G1 X235.494 Y171.529 E27.68655
G1 X235.196 Y172.222 E27.71038
G1 X234.971 Y172.65 E27.72566
G1 X234.721 Y173.063 E27.74091
G1 X234.436 Y173.474 E27.75672
G1 X234.08 Y173.916 E27.77465
G1 X233.539 Y174.462 E27.79894
G1 X231.136 Y176.537 E27.89926
G1 X229.088 Y178.394 E27.98661
G1 X227.136 Y180.267 E28.07209
G1 X225.212 Y182.219 E28.15869
G1 X223.395 Y184.172 E28.24297
G1 X221.586 Y186.23 E28.32955
G1 X219.848 Y188.32 E28.41544
G1 X218.164 Y190.469 E28.50171
G1 X216.555 Y192.647 E28.58727
G1 X215.015 Y194.859 E28.67243
G1 X213.516 Y197.147 E28.75886
G1 X211.593 Y200.272 E28.8748
G1 X211.093 Y200.901 E28.90019
G1 X210.607 Y201.343 E28.92094
G1 X210.155 Y201.677 E28.9387
G1 X209.523 Y202.01 E28.96127
G1 X209 Y202.215 E28.97902
G1 X208.34 Y202.369 E29.00044
G1 X207.739 Y202.44 E29.01956
G1 X207.31 Y202.454 E29.03312
G1 X193.387 Y202.458 E29.47305
G1 X192.545 Y202.447 E29.49965
G1 X192.113 Y202.425 E29.51332
G1 X191.556 Y202.352 E29.53107
G1 X190.901 Y202.17 E29.55255
G1 X190.377 Y201.968 E29.5703
G1 X189.768 Y201.62 E29.59246
G1 X189.315 Y201.288 E29.61021
G1 X188.843 Y200.824 E29.63112
G1 X188.484 Y200.392 E29.64887
G1 X187.684 Y199.091 E29.69713
G1 X186.214 Y196.729 E29.78503
G1 X184.722 Y194.475 E29.87044
G1 X183.148 Y192.239 E29.95684
G1 X181.535 Y190.078 E30.04205
G1 X179.846 Y187.947 E30.12796
G1 X178.105 Y185.872 E30.21355
G1 X176.274 Y183.81 E30.30068
G1 X174.439 Y181.857 E30.38536
G1 X172.514 Y179.923 E30.47158
G1 X170.556 Y178.062 E30.55693
G1 X168.529 Y176.245 E30.64294
G1 X167.637 Y175.49 E30.67987
G1 X166.606 Y174.599 E30.72292
G1 X165.981 Y173.979 E30.75074
G1 X165.62 Y173.554 E30.76836
G1 X165.185 Y172.919 E30.79268
G1 X164.956 Y172.52 E30.80722
G1 X164.742 Y172.087 E30.82248
G1 X164.536 Y171.598 E30.83924
G1 X164.35 Y171.046 E30.85765
G1 X164.19 Y170.337 E30.88061
G1 X164.122 Y169.879 E30.89524
G1 X164.08 Y169.378 E30.91113
G1 X164.058 Y168.279 E30.94586
G1 X164.05 Y134.823 E32.00298
G1 X164.061 Y133.952 E32.0305
G1 X164.096 Y133.301 E32.0511
G1 X164.17 Y132.442 E32.07834
G1 X164.369 Y129.746 E32.16376
G1 X164.493 Y127.003 E32.25052
G1 X164.54 Y124.326 E32.33512
G1 X164.509 Y121.581 E32.42186
G1 X164.401 Y118.873 E32.50749
G1 X164.216 Y116.147 E32.59382
G1 X164.095 Y114.73 E32.63876
G1 X164.058 Y113.28 E32.68459
G1 X164.05 Y73.199 E33.95103
G1 X164.06 Y72.452 E33.97464
G1 X164.108 Y71.892 E33.9924
G1 X164.235 Y71.345 E34.01014
G1 X164.439 Y70.821 E34.02791
G1 X164.714 Y70.331 E34.04566
G1 X165.057 Y69.886 E34.06342
G1 X165.459 Y69.494 E34.08116
G1 X165.912 Y69.162 E34.0989
G1 X166.408 Y68.898 E34.11666
G1 X166.937 Y68.708 E34.13442
G1 X167.487 Y68.594 E34.15216
G1 X168.219 Y68.552 E34.17533
G1 X188.35 Y68.55 E34.81141
G1 X189.048 Y68.56 E34.83347
G1 X189.883 Y68.662 E34.86005
G1 F4200 E26.86005
G0 F1600 X198.504 Y142.005
;TYPE:SUPPORT
G1 F4200 E34.86005
G1 F1200 X214.201 Y142.004 E35.35603
G1 X214.58 Y141.625 E35.37297
G1 X214.58 Y141.424 E35.37932
G1 X217.496 Y141.424 E35.47145
G1 X217.496 Y160.997 E36.0899
G1 X198.503 Y160.997 E36.69003
G1 X198.504 Y142.005 E37.29012
G1 F4200 E29.29012
G0 F1600 X200.542 Y143.663
G1 F4200 E37.29012
G1 F1200 X200.163 Y144.042 E37.30706
G1 X200.162 Y158.713 E37.77062
G1 X200.353 Y159.176 E37.78644
G1 X200.824 Y159.338 E37.80218
G1 X215.459 Y159.337 E38.26461
G1 X215.665 Y159.131 E38.27381
G1 X215.838 Y158.712 E38.28813
G1 X215.837 Y144.041 E38.7517
G1 X215.458 Y143.662 E38.76863
G1 X200.542 Y143.663 E39.23993
G1 F4200 E31.23993
G0 F1600 X214.922 Y141.767
G1 F4200 E39.23993
G1 F1200 X214.343 Y142.346 E39.26581
G1 X209.449 Y142.345 E39.42044
G1 X207.761 Y143.32 E39.48204
G1 X205.2 Y143.321 E39.56296
G1 X205.2 Y142.346 E39.59376
G1 X200.952 Y142.346 E39.72799
G1 X202.636 Y143.319 E39.78944
G1 X200.4 Y143.321 E39.86009
G1 X199.821 Y143.9 E39.88597
G1 X199.819 Y147.905 E40.01251
G1 X198.845 Y148.468 E40.04806
G1 X198.845 Y154.294 E40.23214
G1 X199.82 Y154.857 E40.26772
G1 X199.82 Y158.781 E40.39171
G1 X200.096 Y159.449 E40.41454
G1 X200.767 Y159.68 E40.43697
G1 X202.227 Y159.679 E40.4831
G1 X200.537 Y160.654 E40.54475
G1 X205.2 Y160.655 E40.69208
G1 X205.2 Y159.679 E40.72292
G1 X215.601 Y159.679 E41.05156
G1 X215.955 Y159.325 E41.06738
G1 X216.18 Y158.78 E41.08601
G1 X216.179 Y151.623 E41.31215
G1 X217.152 Y151.061 E41.34766
G1 X217.154 Y151.701 E41.36788
G1 X216.179 Y151.138 E41.40345
G1 X216.179 Y143.899 E41.63219
G1 X215.6 Y143.32 E41.65806
G1 F4200 E33.65806
G0 F1600 X214.922 Y141.766
G1 F4200 E41.65806
G1 F1200 X216.6 Y141.766 E41.71108
G1 X216.6 Y160.655 E42.30792
G1 X209.861 Y160.654 E42.52085
G1 X208.172 Y159.679 E42.58247
G1 F4200 E34.58247
;MESH:ktBOX4b.stl
G0 F1600 X208.172 Y116.91
G0 X223.161 Y97.68
G0 X223.211 Y97.594
;TYPE:WALL-INNER
G1 F4200 E42.58247
G1 F1200 X223.896 Y97.898 E42.60615
G1 X224.626 Y98.054 E42.62974
G1 X225.374 Y98.054 E42.65337
G1 X226.104 Y97.898 E42.67696
G1 X226.787 Y97.594 E42.70058
G1 X227.391 Y97.154 E42.72419
G1 X227.871 Y96.622 E42.74683
G1 X228.249 Y95.98 E42.77037
G1 X228.484 Y95.272 E42.79394
G1 X228.569 Y94.532 E42.81748
G1 X228.5 Y93.788 E42.84109
G1 X228.275 Y93.077 E42.86465
G1 X227.908 Y92.427 E42.88824
G1 X227.412 Y91.869 E42.91183
G1 X226.789 Y91.406 E42.93635
G1 X226.104 Y91.102 E42.96003
G1 X225.374 Y90.946 E42.98362
G1 X224.626 Y90.946 E43.00726
G1 X223.896 Y91.102 E43.03084
G1 X223.213 Y91.406 E43.05446
G1 X222.609 Y91.846 E43.07808
G1 X222.129 Y92.378 E43.10072
G1 X221.751 Y93.02 E43.12426
G1 X221.516 Y93.728 E43.14783
G1 X221.431 Y94.468 E43.17136
G1 X221.5 Y95.212 E43.19497
G1 X221.725 Y95.923 E43.21854
G1 X222.092 Y96.573 E43.24212
G1 X222.588 Y97.131 E43.26571
G1 X223.211 Y97.594 E43.29024
G0 F1600 X223.399 Y97.272
;TYPE:WALL-OUTER
G1 F1200 X224.011 Y97.544 E43.3114
G1 X224.665 Y97.684 E43.33253
G1 X225.335 Y97.684 E43.3537
G1 X225.989 Y97.544 E43.37483
G1 X226.601 Y97.272 E43.396
G1 X227.142 Y96.878 E43.41714
G1 X227.571 Y96.402 E43.43739
G1 X227.91 Y95.826 E43.45851
G1 X228.121 Y95.192 E43.47962
G1 X228.197 Y94.528 E43.50074
G1 X228.135 Y93.862 E43.52187
G1 X227.934 Y93.225 E43.54298
