;FLAVOR:Marlin
;TIME:8737
;Filament used: 8.23652m, 0m
;Layer height: 0.2
;MINX:164.05
;MINY:75.05
;MINZ:0.2
;MAXX:235.95
;MAXY:197.458
;MAXZ:22
;Generated with Cura_SteamEngine 4.6.1
T0
M140 S50
M105
M190 S50
M104 S205
M105
M109 S205
M82 ;absolute extrusion mode
G28 ;Home
G1 Z15.0 F6000 ;Move the platform down 15mm
;Prime the extruder
G92 E0
G1 F200 E3
G92 E0
G92 E0
G92 E0
G1 F4200 E-8
;LAYER_COUNT:110
;LAYER:0
M107
G1 F600 Z0.6
G0 F1600 X228.996 Y75.846 Z0.6
;TYPE:SKIRT
G1 F600 Z0.2
G1 F4200 E0
G1 F1200 X229.397 Y75.89 E0.01275
G1 X229.856 Y75.97 E0.02747
G1 X230.631 Y76.18 E0.05284
G1 X231.01 Y76.322 E0.06563
G1 X231.433 Y76.511 E0.08027
G1 X231.793 Y76.699 E0.0931
G1 X232.226 Y76.963 E0.10912
G1 X232.596 Y77.227 E0.12348
G1 X233.111 Y77.675 E0.14505
G1 X233.454 Y78.026 E0.16056
G1 X233.94 Y78.631 E0.18508
G1 X234.15 Y78.949 E0.19712
G1 X234.382 Y79.352 E0.21181
G1 X234.557 Y79.706 E0.22429
G1 X234.763 Y80.195 E0.24106
G1 X234.912 Y80.636 E0.25577
G1 X235.058 Y81.275 E0.27648
G1 X235.126 Y81.733 E0.29111
G1 X235.16 Y82.137 E0.30392
G1 X235.182 Y83.236 E0.33865
G1 X235.19 Y116.835 E1.40028
G1 X235.184 Y117.337 E1.41614
G1 X235.128 Y118.59 E1.45577
G1 X235.026 Y120.205 E1.50691
G1 X234.931 Y122.92 E1.59274
G1 X234.912 Y125.674 E1.67976
G1 X234.971 Y128.394 E1.76573
G1 X235.107 Y131.145 E1.85276
G1 X235.164 Y132.041 E1.88113
G1 X235.189 Y133.149 E1.91615
G1 X235.19 Y166.736 E2.9774
G1 X235.178 Y167.589 E3.00435
G1 X235.149 Y168.111 E3.02087
G1 X235.041 Y168.827 E3.04375
G1 X234.819 Y169.636 E3.07026
G1 X234.676 Y170.022 E3.08327
G1 X234.501 Y170.413 E3.0968
G1 X234.316 Y170.766 E3.10939
G1 X234.044 Y171.214 E3.12595
G1 X233.784 Y171.581 E3.14017
G1 X233.334 Y172.099 E3.16185
G1 X232.96 Y172.465 E3.17838
G1 X232.678 Y172.711 E3.19021
G1 X231.759 Y173.42 E3.22688
G1 X230.473 Y174.394 E3.27785
G1 X228.309 Y176.133 E3.36557
G1 X226.252 Y177.884 E3.45093
G1 X224.214 Y179.72 E3.5376
G1 X222.225 Y181.619 E3.62449
G1 X220.307 Y183.553 E3.71055
G1 X218.434 Y185.554 E3.79716
G1 X216.608 Y187.62 E3.88428
G1 X214.865 Y189.707 E3.9702
G1 X213.178 Y191.847 E4.0563
G1 X210.808 Y195.063 E4.18253
G1 X210.313 Y195.595 E4.20549
G1 X210.113 Y195.766 E4.2138
G1 X209.705 Y196.062 E4.22973
G1 X209.196 Y196.324 E4.24782
G1 X208.724 Y196.505 E4.26379
G1 X208.194 Y196.623 E4.28095
G1 X207.708 Y196.68 E4.29641
G1 X207.31 Y196.694 E4.30899
G1 X193.387 Y196.698 E4.74892
G1 X192.555 Y196.687 E4.77521
G1 X192.159 Y196.666 E4.78774
G1 X191.418 Y196.533 E4.81153
G1 X191.123 Y196.443 E4.82127
G1 X190.653 Y196.258 E4.83723
G1 X190.173 Y195.977 E4.85481
G1 X189.768 Y195.675 E4.87077
G1 X189.386 Y195.292 E4.88786
G1 X189.117 Y194.969 E4.90114
G1 X188.291 Y193.833 E4.94552
G1 X186.643 Y191.629 E5.03248
G1 X184.951 Y189.493 E5.11858
G1 X183.182 Y187.387 E5.20548
G1 X181.374 Y185.352 E5.29149
G1 X179.492 Y183.352 E5.37827
G1 X177.569 Y181.421 E5.46438
G1 X175.58 Y179.532 E5.55105
G1 X173.528 Y177.694 E5.63809
G1 X171.45 Y175.933 E5.72416
G1 X169.315 Y174.226 E5.81053
G1 X168.039 Y173.261 E5.86108
G1 X167.171 Y172.573 E5.89608
G1 X166.876 Y172.307 E5.90863
G1 X166.528 Y171.952 E5.92433
G1 X166.233 Y171.605 E5.93873
G1 X165.844 Y171.041 E5.96037
G1 X165.615 Y170.642 E5.97491
G1 X165.442 Y170.292 E5.98725
G1 X165.236 Y169.803 E6.00401
G1 X165.086 Y169.358 E6.01885
G1 X164.942 Y168.725 E6.03936
G1 X164.874 Y168.267 E6.05399
G1 X164.84 Y167.862 E6.06683
G1 X164.818 Y166.754 E6.10185
G1 X164.81 Y133.323 E7.15817
G1 X164.822 Y132.439 E7.18611
G1 X164.915 Y130.822 E7.23729
G1 X165.041 Y128.049 E7.32499
G1 X165.088 Y125.293 E7.41209
G1 X165.057 Y122.54 E7.49908
G1 X164.95 Y119.834 E7.58465
G1 X164.894 Y119.022 E7.61037
G1 X164.849 Y118.196 E7.63651
G1 X164.818 Y116.766 E7.6817
G1 X164.81 Y83.165 E8.7434
G1 X164.816 Y82.662 E8.75929
G1 X164.846 Y82.004 E8.7801
G1 X164.959 Y81.192 E8.80601
G1 X165.051 Y80.801 E8.8187
G1 X165.186 Y80.353 E8.83348
G1 X165.327 Y79.972 E8.84632
G1 X165.498 Y79.589 E8.85957
G1 X165.684 Y79.234 E8.87224
G1 X165.956 Y78.786 E8.8888
G1 X166.215 Y78.42 E8.90296
G1 X166.657 Y77.912 E8.92424
G1 X167.054 Y77.524 E8.94178
G1 X167.405 Y77.227 E8.95631
G1 X167.967 Y76.84 E8.97787
G1 X168.374 Y76.606 E8.9927
G1 X168.728 Y76.431 E9.00518
G1 X169.185 Y76.239 E9.02084
G1 X169.617 Y76.093 E9.03525
G1 X170.287 Y75.94 E9.05697
G1 X170.822 Y75.864 E9.07404
G1 X171.2 Y75.833 E9.08602
G1 X172.052 Y75.814 E9.11295
G1 X173.15 Y75.81 E9.14765
G1 X227.838 Y75.81 E10.87563
G1 X228.996 Y75.846 E10.91224
G0 F1600 X229.014 Y75.467
G1 F1200 X229.462 Y75.516 E10.92648
G1 X229.921 Y75.596 E10.9412
G1 X230.339 Y75.695 E10.95477
G1 X230.74 Y75.816 E10.96801
G1 X231.165 Y75.975 E10.98234
G1 X231.588 Y76.164 E10.99698
G1 X231.99 Y76.375 E11.01133
G1 X232.423 Y76.639 E11.02735
G1 X232.838 Y76.934 E11.04344
G1 X233.382 Y77.41 E11.06628
G1 X233.725 Y77.761 E11.08179
G1 X234.032 Y78.119 E11.09669
G1 X234.479 Y78.76 E11.12138
G1 X234.711 Y79.163 E11.13607
G1 X234.907 Y79.558 E11.15001
G1 X235.113 Y80.047 E11.16677
G1 X235.28 Y80.541 E11.18325
G1 X235.434 Y81.219 E11.20522
G1 X235.502 Y81.677 E11.21985
G1 X235.54 Y82.13 E11.23421
G1 X235.562 Y83.229 E11.26894
G1 X235.57 Y116.835 E12.3308
G1 X235.564 Y117.342 E12.34682
G1 X235.507 Y118.608 E12.38686
G1 X235.406 Y120.207 E12.43748
G1 X235.311 Y122.935 E12.52373
G1 X235.292 Y125.668 E12.61009
G1 X235.35 Y128.366 E12.69536
G1 X235.488 Y131.139 E12.78309
G1 X235.544 Y132.021 E12.81101
G1 X235.569 Y133.141 E12.84641
G1 X235.57 Y166.741 E13.90807
G1 X235.558 Y167.594 E13.93503
G1 X235.528 Y168.134 E13.95212
G1 X235.415 Y168.895 E13.97643
G1 X235.183 Y169.745 E14.00427
G1 X235.023 Y170.177 E14.01882
G1 X234.848 Y170.568 E14.03236
G1 X234.641 Y170.963 E14.04645
G1 X234.369 Y171.411 E14.06301
G1 X234.078 Y171.822 E14.07892
G1 X233.6 Y172.371 E14.10192
G1 X233.226 Y172.737 E14.11846
G1 X232.91 Y173.012 E14.13169
G1 X231.991 Y173.721 E14.16837
G1 X230.707 Y174.693 E14.21925
G1 X228.582 Y176.401 E14.3054
G1 X226.485 Y178.186 E14.39241
G1 X224.461 Y180.01 E14.4785
G1 X222.506 Y181.875 E14.56387
G1 X220.57 Y183.829 E14.65078
G1 X218.709 Y185.816 E14.7368
G1 X216.901 Y187.862 E14.82308
G1 X215.17 Y189.935 E14.90841
G1 X213.472 Y192.089 E14.99508
G1 X211.114 Y195.288 E15.12065
G1 X210.766 Y195.693 E15.13752
G1 X210.36 Y196.054 E15.15468
G1 X209.929 Y196.37 E15.17157
G1 X209.359 Y196.667 E15.19188
G1 X208.861 Y196.86 E15.20876
G1 X208.267 Y196.996 E15.22801
G1 X207.724 Y197.06 E15.24529
G1 X207.31 Y197.074 E15.25837
G1 X193.387 Y197.078 E15.6983
G1 X192.55 Y197.067 E15.72475
G1 X192.136 Y197.046 E15.73785
G1 X191.607 Y196.974 E15.75472
G1 X191.012 Y196.807 E15.77424
G1 X190.515 Y196.613 E15.7911
G1 X189.97 Y196.299 E15.81098
G1 X189.541 Y195.981 E15.82785
G1 X189.11 Y195.554 E15.84702
G1 X188.81 Y195.192 E15.86187
G1 X188.012 Y194.095 E15.90474
G1 X186.345 Y191.865 E15.99271
G1 X184.648 Y189.723 E16.07906
G1 X182.908 Y187.651 E16.16455
G1 X181.083 Y185.597 E16.25137
G1 X179.214 Y183.611 E16.33754
G1 X177.33 Y181.719 E16.4219
G1 X175.298 Y179.789 E16.51045
G1 X173.28 Y177.981 E16.59607
G1 X171.218 Y176.234 E16.68146
G1 X169.077 Y174.522 E16.76808
G1 X167.81 Y173.564 E16.81827
G1 X166.935 Y172.87 E16.85355
G1 X166.605 Y172.573 E16.86758
G1 X166.257 Y172.218 E16.88329
G1 X165.927 Y171.83 E16.89938
G1 X165.515 Y171.23 E16.92238
G1 X165.286 Y170.831 E16.93692
G1 X165.092 Y170.44 E16.95071
G1 X164.886 Y169.951 E16.96747
G1 X164.718 Y169.452 E16.98411
G1 X164.566 Y168.781 E17.00585
G1 X164.498 Y168.323 E17.02048
G1 X164.46 Y167.87 E17.03484
G1 X164.438 Y166.762 E17.06986
G1 X164.43 Y133.323 E18.12644
G1 X164.442 Y132.434 E18.15453
G1 X164.538 Y130.755 E18.20767
G1 X164.662 Y128.024 E18.29405
G1 X164.709 Y125.312 E18.37975
G1 X164.677 Y122.559 E18.46675
G1 X164.571 Y119.874 E18.55165
G1 X164.514 Y119.048 E18.57781
G1 X164.469 Y118.216 E18.60414
G1 X164.438 Y116.774 E18.64971
G1 X164.43 Y83.165 E19.71166
G1 X164.436 Y82.657 E19.72771
G1 X164.466 Y81.986 E19.74894
G1 X164.511 Y81.563 E19.76238
G1 X164.584 Y81.129 E19.77628
G1 X164.687 Y80.691 E19.7905
G1 X164.822 Y80.243 E19.80528
G1 X164.98 Y79.818 E19.81961
G1 X165.151 Y79.435 E19.83286
G1 X165.359 Y79.037 E19.84705
G1 X165.631 Y78.589 E19.86361
G1 X165.921 Y78.18 E19.87945
G1 X166.392 Y77.64 E19.9021
G1 X166.789 Y77.252 E19.91964
G1 X167.181 Y76.92 E19.93587
G1 X167.778 Y76.511 E19.95873
G1 X168.185 Y76.277 E19.97357
G1 X168.581 Y76.081 E19.98753
G1 X169.038 Y75.889 E20.00319
G1 X169.522 Y75.725 E20.01934
G1 X170.234 Y75.563 E20.04241
G1 X170.769 Y75.487 E20.05948
G1 X171.191 Y75.453 E20.07286
G1 X172.043 Y75.434 E20.09979
G1 X173.149 Y75.43 E20.13474
G1 X227.844 Y75.43 E21.86294
G1 X229.014 Y75.467 E21.89993
G0 F1600 X229.032 Y75.087
G1 F1200 X229.527 Y75.142 E21.91566
G1 X229.986 Y75.222 E21.93039
G1 X230.449 Y75.331 E21.94542
G1 X230.85 Y75.452 E21.95865
G1 X231.32 Y75.628 E21.97451
G1 X231.743 Y75.817 E21.98915
G1 X232.188 Y76.05 E22.00502
G1 X232.621 Y76.314 E22.02104
G1 X233.08 Y76.641 E22.03885
G1 X233.654 Y77.144 E22.06296
G1 X233.997 Y77.495 E22.07847
G1 X234.336 Y77.891 E22.09494
G1 X234.808 Y78.57 E22.12107
G1 X235.04 Y78.973 E22.13576
G1 X235.257 Y79.411 E22.15121
G1 X235.463 Y79.9 E22.16798
G1 X235.648 Y80.446 E22.18619
G1 X235.81 Y81.163 E22.20942
G1 X235.878 Y81.621 E22.22405
G1 X235.92 Y82.122 E22.23993
G1 X235.942 Y83.221 E22.27466
G1 X235.95 Y116.835 E23.33677
G1 X235.944 Y117.347 E23.35295
G1 X235.887 Y118.625 E23.39337
G1 X235.787 Y120.21 E23.44355
G1 X235.691 Y122.951 E23.53021
G1 X235.672 Y125.663 E23.61591
G1 X235.731 Y128.374 E23.70159
G1 X235.866 Y131.093 E23.7876
G1 X235.923 Y132 E23.81632
G1 X235.949 Y133.133 E23.85213
G1 X235.95 Y166.747 E24.91423
G1 X235.938 Y167.6 E24.94119
G1 X235.907 Y168.158 E24.95885
G1 X235.789 Y168.963 E24.98456
G1 X235.685 Y169.394 E24.99856
G1 X235.547 Y169.854 E25.01374
G1 X235.369 Y170.333 E25.02989
G1 X235.194 Y170.724 E25.04342
G1 X234.965 Y171.16 E25.05898
G1 X234.693 Y171.608 E25.07554
G1 X234.372 Y172.062 E25.09311
G1 X233.866 Y172.642 E25.11743
G1 X233.492 Y173.008 E25.13397
G1 X233.142 Y173.312 E25.14861
G1 X232.223 Y174.021 E25.18529
G1 X230.925 Y175.006 E25.23677
G1 X228.816 Y176.7 E25.32225
G1 X226.753 Y178.456 E25.40785
G1 X224.728 Y180.281 E25.49398
G1 X222.752 Y182.166 E25.58027
G1 X220.848 Y184.088 E25.66576
G1 X218.987 Y186.075 E25.75178
G1 X217.207 Y188.089 E25.8367
G1 X215.456 Y190.186 E25.92303
G1 X213.779 Y192.313 E26.00861
G1 X211.42 Y195.514 E26.13425
G1 X211.055 Y195.941 E26.152
G1 X210.607 Y196.343 E26.17102
G1 X210.155 Y196.677 E26.18878
G1 X209.523 Y197.01 E26.21135
G1 X209 Y197.215 E26.2291
G1 X208.34 Y197.369 E26.25051
G1 X207.739 Y197.44 E26.26963
G1 X207.31 Y197.454 E26.2832
G1 X193.387 Y197.458 E26.72312
G1 X192.545 Y197.447 E26.74973
G1 X192.113 Y197.425 E26.7634
G1 X191.556 Y197.352 E26.78115
G1 X190.901 Y197.17 E26.80263
G1 X190.377 Y196.968 E26.82037
G1 X189.768 Y196.62 E26.84254
G1 X189.315 Y196.288 E26.86028
G1 X188.835 Y195.816 E26.88155
G1 X188.502 Y195.416 E26.898
G1 X187.676 Y194.28 E26.94238
G1 X186.042 Y192.095 E27.02859
G1 X184.359 Y189.971 E27.11421
G1 X182.604 Y187.881 E27.20045
G1 X180.824 Y185.877 E27.28514
G1 X178.937 Y183.871 E27.37216
G1 X177.026 Y181.953 E27.45771
G1 X175.069 Y180.094 E27.543
G1 X173.031 Y178.268 E27.62946
G1 X170.968 Y176.521 E27.71487
G1 X168.839 Y174.818 E27.80102
G1 X167.581 Y173.867 E27.85085
G1 X166.699 Y173.168 E27.88641
G1 X166.333 Y172.839 E27.90196
G1 X165.985 Y172.484 E27.91766
G1 X165.62 Y172.054 E27.93549
G1 X165.185 Y171.419 E27.95981
G1 X164.956 Y171.02 E27.97434
G1 X164.742 Y170.587 E27.9896
G1 X164.536 Y170.098 E28.00637
G1 X164.35 Y169.546 E28.02478
G1 X164.19 Y168.837 E28.04774
G1 X164.122 Y168.379 E28.06237
G1 X164.08 Y167.877 E28.07829
G1 X164.058 Y166.769 E28.11331
G1 X164.05 Y133.323 E29.1701
G1 X164.062 Y132.428 E29.19838
G1 X164.157 Y130.768 E29.25092
G1 X164.282 Y128 E29.33847
G1 X164.329 Y125.324 E29.42304
G1 X164.298 Y122.578 E29.50981
G1 X164.191 Y119.881 E29.59509
G1 X164.135 Y119.074 E29.62065
G1 X164.09 Y118.237 E29.64714
G1 X164.058 Y116.782 E29.69312
G1 X164.05 Y83.165 E30.75533
G1 X164.056 Y82.652 E30.77154
G1 X164.086 Y81.968 E30.79317
G1 X164.137 Y81.5 E30.80804
G1 X164.21 Y81.066 E30.82195
G1 X164.323 Y80.581 E30.83768
G1 X164.458 Y80.133 E30.85247
G1 X164.633 Y79.663 E30.86832
G1 X164.804 Y79.28 E30.88157
G1 X165.035 Y78.84 E30.89727
G1 X165.307 Y78.392 E30.91383
G1 X165.628 Y77.939 E30.93137
G1 X166.126 Y77.368 E30.95531
G1 X166.523 Y76.98 E30.97285
G1 X166.957 Y76.613 E30.99081
G1 X167.588 Y76.182 E31.01496
G1 X167.995 Y75.948 E31.02979
G1 X168.434 Y75.73 E31.04528
G1 X168.891 Y75.538 E31.06094
G1 X169.426 Y75.357 E31.07879
G1 X170.18 Y75.187 E31.10321
G1 X170.715 Y75.111 E31.12028
G1 X171.183 Y75.073 E31.13512
G1 X172.035 Y75.054 E31.16205
G1 X173.148 Y75.05 E31.19721
G1 X227.849 Y75.05 E32.92561
G1 X229.032 Y75.087 E32.96301
G1 F4200 E24.96301
G0 F1600 X218.076 Y140.504
;TYPE:SUPPORT
G1 F4200 E32.96301
G1 F1200 X218.076 Y147.42 E33.18153
G1 X217.874 Y147.42 E33.18792
G1 X217.495 Y147.799 E33.20485
G1 X217.496 Y159.497 E33.57447
G1 X198.503 Y159.497 E34.1746
G1 X198.504 Y140.505 E34.77469
G1 X218.076 Y140.504 E35.39311
G1 F4200 E27.39311
G0 F1600 X215.458 Y142.162
G1 F4200 E35.39311
G1 F1200 X200.542 Y142.163 E35.86441
G1 X200.163 Y142.542 E35.88135
G1 X200.162 Y157.213 E36.34491
G1 X200.353 Y157.676 E36.36074
G1 X200.824 Y157.838 E36.37647
G1 X215.459 Y157.837 E36.8389
G1 X215.665 Y157.631 E36.8481
G1 X215.838 Y157.212 E36.86243
G1 X215.837 Y142.541 E37.32599
G1 X215.458 Y142.162 E37.34292
G0 F1600 X215.6 Y141.82
G1 F1200 X216.179 Y142.399 E37.3688
G1 X216.179 Y151.138 E37.64492
G1 X217.153 Y151.7 E37.68045
G1 X217.152 Y151.062 E37.70061
G1 X216.179 Y151.623 E37.7361
G1 X216.18 Y157.28 E37.91485
G1 X215.955 Y157.825 E37.93348
G1 X215.601 Y158.179 E37.9493
G1 X205.2 Y158.179 E38.27794
G1 X205.2 Y159.155 E38.30878
G1 X203.135 Y159.154 E38.37402
G1 X204.825 Y158.179 E38.43567
G1 X200.767 Y158.18 E38.56389
G1 X200.096 Y157.949 E38.58632
G1 X199.82 Y157.281 E38.60915
G1 X199.82 Y154.857 E38.68575
G1 X198.845 Y154.294 E38.72132
G1 X198.845 Y148.468 E38.9054
G1 X199.819 Y147.905 E38.94095
G1 X199.821 Y142.4 E39.11489
G1 X200.267 Y141.951 E39.13489
G1 X198.845 Y141.13 E39.18677
G1 X198.846 Y140.847 E39.19571
G1 X205.2 Y140.846 E39.39648
G1 X205.2 Y141.821 E39.42729
G1 X210.36 Y141.82 E39.59033
G1 X212.047 Y140.845 E39.6519
G1 X216.6 Y140.846 E39.79576
G1 X216.6 Y159.155 E40.37427
G1 X207.262 Y159.154 E40.66933
G1 X205.575 Y158.179 E40.73089
G1 F4200 E32.73089
;MESH:ktBOX4b.stl
G0 F1600 X205.575 Y120.41
G0 X184.36 Y115.14
G0 X184.43 Y115.07
;TYPE:WALL-INNER
G1 F4200 E40.73089
G1 F1200 X200.57 Y115.07 E41.24087
G1 X200.57 Y103.93 E41.59286
G1 X184.43 Y103.93 E42.10284
G1 X184.43 Y115.07 E42.45483
G0 F1600 X184.8 Y114.7
;TYPE:WALL-OUTER
G1 F1200 X200.2 Y114.7 E42.94143
G1 X200.2 Y104.3 E43.27004
G1 X184.8 Y104.3 E43.75663
G1 X184.8 Y114.7 E44.08524
G0 F1600 X185 Y114.7
G0 X185 Y115.118
G0 X185 Y115.17
G0 X184.402 Y103.902
G0 X189.839 Y97.969
G0 X189.898 Y97.889
;TYPE:WALL-INNER
G1 F1200 X190.547 Y98.265 E44.10894
G1 X191.257 Y98.495 E44.13252
G1 X192 Y98.573 E44.15613
G1 X192.743 Y98.495 E44.17974
G1 X193.453 Y98.265 E44.20332
G1 X194.1 Y97.891 E44.22693
G1 X194.655 Y97.391 E44.25053
G1 X195.077 Y96.809 E44.27325
G1 X195.386 Y96.133 E44.29673
G1 X195.548 Y95.405 E44.3203
G1 X195.554 Y94.657 E44.34393
G1 X195.406 Y93.926 E44.3675
G1 X195.108 Y93.242 E44.39108
G1 X194.675 Y92.634 E44.41466
G1 X194.102 Y92.111 E44.43917
G1 X193.453 Y91.735 E44.46287
G1 X192.743 Y91.505 E44.48645
G1 X192 Y91.427 E44.51006
G1 X191.257 Y91.505 E44.53367
G1 X190.547 Y91.735 E44.55725
G1 X189.9 Y92.109 E44.58086
G1 X189.345 Y92.609 E44.60446
G1 X188.923 Y93.191 E44.62718
G1 X188.614 Y93.867 E44.65066
G1 X188.452 Y94.595 E44.67423
G1 X188.446 Y95.343 E44.69787
G1 X188.594 Y96.074 E44.72143
G1 X188.892 Y96.758 E44.74501
G1 X189.325 Y97.366 E44.76859
G1 X189.898 Y97.889 E44.7931
G0 F1600 X190.118 Y97.589
;TYPE:WALL-OUTER
G1 F1200 X190.698 Y97.925 E44.81428
G1 X191.334 Y98.131 E44.83541
G1 X192 Y98.201 E44.85657
G1 X192.666 Y98.131 E44.87773
