;FLAVOR:Marlin
;TIME:640
;Filament used: 0.4825m, 0m
;Layer height: 0.2
;MINX:187.544
;MINY:137.544
;MINZ:0.2
;MAXX:212.456
;MAXY:162.456
;MAXZ:10
;Generated with Cura_SteamEngine 4.6.1
T0
M140 S50
M105
M190 S50
M104 S205
M105
M109 S205
M82 ;absolute extrusion mode
G28 ;Home
G1 Z15.0 F6000 ;Move the platform down 15mm
;Prime the extruder
G92 E0
G1 F200 E3
G92 E0
G92 E0
G92 E0
G1 F4200 E-8
;LAYER_COUNT:50
;LAYER:0
M107
G1 F600 Z0.6
G0 F1600 X208.13 Y138.368 Z0.6
;TYPE:SKIRT
G1 F600 Z0.2
G1 F4200 E0
G1 F1200 X208.625 Y138.469 E0.01596
G1 X209.109 Y138.642 E0.0322
G1 X209.564 Y138.861 E0.04816
G1 X209.987 Y139.142 E0.0642
G1 X210.378 Y139.462 E0.08017
G1 X210.764 Y139.89 E0.09838
G1 X211.06 Y140.299 E0.11433
G1 X211.313 Y140.789 E0.13176
G1 X211.498 Y141.259 E0.14772
G1 X211.62 Y141.799 E0.16521
G1 X211.677 Y142.28 E0.18051
G1 X211.691 Y142.675 E0.193
G1 X211.696 Y156.804 E0.63944
G1 X211.687 Y157.527 E0.66229
G1 X211.631 Y158.135 E0.68158
G1 X211.53 Y158.629 E0.69751
G1 X211.358 Y159.109 E0.71362
G1 X211.005 Y159.776 E0.73747
G1 X210.861 Y159.984 E0.74546
G1 X210.542 Y160.375 E0.7614
G1 X210.097 Y160.774 E0.78029
G1 X209.687 Y161.069 E0.79625
G1 X209.17 Y161.332 E0.81458
G1 X208.697 Y161.51 E0.83054
G1 X208.182 Y161.623 E0.8472
G1 X207.707 Y161.678 E0.86231
G1 X207.308 Y161.692 E0.87493
G1 X193.159 Y161.696 E1.322
G1 X192.471 Y161.687 E1.34374
G1 X191.867 Y161.631 E1.3629
G1 X191.373 Y161.531 E1.37883
G1 X190.882 Y161.354 E1.39532
G1 X190.427 Y161.134 E1.41129
G1 X189.995 Y160.845 E1.42771
G1 X189.606 Y160.523 E1.44367
G1 X189.222 Y160.092 E1.46191
G1 X188.928 Y159.681 E1.47787
G1 X188.667 Y159.168 E1.49606
G1 X188.489 Y158.696 E1.512
G1 X188.375 Y158.17 E1.52901
G1 X188.322 Y157.703 E1.54386
G1 X188.308 Y157.3 E1.5566
G1 X188.304 Y143.309 E1.99867
G1 X188.314 Y142.592 E2.02133
G1 X188.336 Y142.158 E2.03506
G1 X188.464 Y141.427 E2.05851
G1 X188.542 Y141.165 E2.06715
G1 X188.723 Y140.694 E2.08309
G1 X189.01 Y140.198 E2.1012
G1 X189.31 Y139.791 E2.11717
G1 X189.687 Y139.41 E2.13411
G1 X190.076 Y139.088 E2.15007
G1 X190.549 Y138.804 E2.1675
G1 X191.006 Y138.59 E2.18344
G1 X191.557 Y138.429 E2.20158
G1 X192.054 Y138.34 E2.21753
G1 X192.931 Y138.314 E2.24526
G1 X206.802 Y138.304 E2.68354
G1 X207.536 Y138.314 E2.70674
G1 X208.13 Y138.368 E2.72558
G0 F1600 X208.176 Y137.991
G1 F1200 X208.7 Y138.095 E2.74246
G1 X209.246 Y138.288 E2.76076
G1 X209.728 Y138.517 E2.77762
G1 X210.204 Y138.83 E2.79562
G1 X210.619 Y139.166 E2.81249
G1 X211.053 Y139.644 E2.83289
G1 X211.368 Y140.076 E2.84979
G1 X211.655 Y140.622 E2.86928
G1 X211.852 Y141.119 E2.88617
G1 X211.993 Y141.726 E2.90586
G1 X212.057 Y142.264 E2.92298
G1 X212.071 Y142.675 E2.93597
G1 X212.076 Y156.804 E3.38241
G1 X212.067 Y157.532 E3.40541
G1 X212.008 Y158.181 E3.426
G1 X211.904 Y158.705 E3.44288
G1 X211.712 Y159.246 E3.46102
G1 X211.483 Y159.728 E3.47788
G1 X211.173 Y160.2 E3.49573
G1 X210.837 Y160.615 E3.5126
G1 X210.343 Y161.064 E3.53369
G1 X209.911 Y161.378 E3.55057
G1 X209.331 Y161.676 E3.57117
G1 X208.833 Y161.866 E3.58801
G1 X208.254 Y161.996 E3.60676
G1 X207.722 Y162.058 E3.62369
G1 X207.308 Y162.072 E3.63677
G1 X193.159 Y162.076 E4.08384
G1 X192.466 Y162.067 E4.10574
G1 X191.821 Y162.009 E4.1262
G1 X191.297 Y161.904 E4.14309
G1 X190.744 Y161.708 E4.16163
G1 X190.262 Y161.478 E4.1785
G1 X189.777 Y161.156 E4.1969
G1 X189.364 Y160.817 E4.21378
G1 X188.931 Y160.337 E4.23421
G1 X188.618 Y159.904 E4.25109
G1 X188.324 Y159.33 E4.27146
G1 X188.133 Y158.831 E4.28835
G1 X188.002 Y158.241 E4.30744
G1 X187.942 Y157.718 E4.32408
G1 X187.928 Y157.3 E4.33729
G1 X187.924 Y143.309 E4.77937
G1 X187.934 Y142.587 E4.80218
G1 X187.957 Y142.137 E4.81642
G1 X188.026 Y141.608 E4.83328
G1 X188.177 Y141.056 E4.85136
G1 X188.368 Y140.557 E4.86824
G1 X188.687 Y139.997 E4.88861
G1 X189.002 Y139.566 E4.90547
G1 X189.422 Y139.137 E4.92444
G1 X189.833 Y138.795 E4.94134
G1 X190.362 Y138.473 E4.96091
G1 X190.845 Y138.245 E4.97778
G1 X191.46 Y138.062 E4.99806
G1 X191.986 Y137.965 E5.01496
G1 X192.925 Y137.934 E5.04464
G1 X206.802 Y137.924 E5.48312
G1 X207.542 Y137.934 E5.5065
G1 X208.176 Y137.991 E5.52661
G0 F1600 X208.222 Y137.614
G1 F1200 X208.773 Y137.721 E5.54435
G1 X209.383 Y137.933 E5.56475
G1 X209.891 Y138.172 E5.58249
G1 X210.421 Y138.518 E5.60249
G1 X210.858 Y138.87 E5.62022
G1 X211.343 Y139.398 E5.64287
G1 X211.676 Y139.851 E5.66064
G1 X211.996 Y140.456 E5.68227
G1 X212.206 Y140.977 E5.70001
G1 X212.366 Y141.652 E5.72193
G1 X212.437 Y142.248 E5.7409
G1 X212.451 Y142.675 E5.7544
G1 X212.456 Y156.804 E6.20083
G1 X212.447 Y157.537 E6.224
G1 X212.385 Y158.228 E6.24592
G1 X212.277 Y158.779 E6.26366
G1 X212.067 Y159.383 E6.28386
G1 X211.828 Y159.891 E6.3016
G1 X211.486 Y160.416 E6.3214
G1 X211.134 Y160.854 E6.33916
G1 X210.588 Y161.354 E6.36255
G1 X210.135 Y161.685 E6.38028
G1 X209.493 Y162.019 E6.40314
G1 X208.969 Y162.222 E6.4209
G1 X208.326 Y162.369 E6.44174
G1 X207.738 Y162.438 E6.46045
G1 X207.308 Y162.452 E6.47404
G1 X193.159 Y162.456 E6.92111
G1 X192.461 Y162.447 E6.94316
G1 X191.775 Y162.386 E6.96493
G1 X191.224 Y162.278 E6.98267
G1 X190.606 Y162.062 E7.00335
G1 X190.099 Y161.822 E7.02108
G1 X189.559 Y161.467 E7.0415
G1 X189.123 Y161.112 E7.05926
G1 X188.641 Y160.582 E7.0819
G1 X188.31 Y160.128 E7.09965
G1 X187.98 Y159.492 E7.12229
G1 X187.777 Y158.968 E7.14005
G1 X187.628 Y158.312 E7.1613
G1 X187.562 Y157.733 E7.17971
G1 X187.548 Y157.3 E7.1934
G1 X187.544 Y143.309 E7.63548
G1 X187.554 Y142.581 E7.65848
G1 X187.577 Y142.116 E7.67319
G1 X187.648 Y141.558 E7.69097
G1 X187.813 Y140.948 E7.71093
G1 X188.011 Y140.422 E7.72869
G1 X188.365 Y139.796 E7.75142
G1 X188.694 Y139.342 E7.76913
G1 X189.158 Y138.864 E7.79018
G1 X189.589 Y138.503 E7.80795
G1 X190.174 Y138.143 E7.82965
G1 X190.681 Y137.901 E7.8474
G1 X191.364 Y137.694 E7.86995
G1 X191.916 Y137.59 E7.8877
G1 X192.918 Y137.554 E7.91938
G1 X206.801 Y137.544 E8.35804
G1 X207.548 Y137.554 E8.38165
G1 X208.222 Y137.614 E8.40303
G1 F4200 E0.40303
;MESH:ktBOX4e.stl
G0 F1600 X207.604 Y142.101
G0 X207.711 Y142.122
;TYPE:WALL-INNER
G1 F4200 E8.40303
G1 F1200 X207.794 Y142.183 E8.40628
G1 X207.863 Y142.268 E8.40974
G1 X207.912 Y142.37 E8.41332
G1 X207.933 Y142.482 E8.41692
G1 X207.936 Y157.471 E8.89053
G1 X207.918 Y157.608 E8.89489
G1 X207.878 Y157.711 E8.89839
G1 X207.817 Y157.794 E8.90164
G1 X207.732 Y157.863 E8.9051
G1 X207.63 Y157.912 E8.90867
G1 X207.518 Y157.933 E8.91228
G1 X192.529 Y157.936 E9.38588
G1 X192.391 Y157.918 E9.39028
G1 X192.291 Y157.878 E9.39369
G1 X192.204 Y157.814 E9.3971
G1 X192.135 Y157.731 E9.40051
G1 X192.089 Y157.634 E9.4039
G1 X192.067 Y157.518 E9.40763
G1 X192.064 Y142.667 E9.87688
G1 X192.078 Y142.412 E9.88495
G1 X192.109 Y142.316 E9.88814
G1 X192.167 Y142.224 E9.89157
G1 X192.247 Y142.15 E9.89502
G1 X192.337 Y142.1 E9.89827
G1 X192.445 Y142.073 E9.90179
G1 X207.471 Y142.064 E10.37657
G1 X207.608 Y142.082 E10.38093
G1 X207.711 Y142.122 E10.38442
G0 F1600 X207.891 Y141.796
;TYPE:WALL-OUTER
G1 F1200 X208.05 Y141.911 E10.39062
G1 X208.179 Y142.069 E10.39707
G1 X208.265 Y142.251 E10.40343
G1 X208.303 Y142.45 E10.40983
G1 X208.306 Y157.496 E10.88524
G1 X208.279 Y157.701 E10.89177
G1 X208.204 Y157.891 E10.89823
G1 X208.089 Y158.05 E10.90443
G1 X207.931 Y158.179 E10.91087
G1 X207.749 Y158.265 E10.91723
G1 X207.55 Y158.303 E10.92364
G1 X192.504 Y158.306 E11.39905
G1 X192.299 Y158.279 E11.40558
G1 X192.111 Y158.205 E11.41196
G1 X191.947 Y158.085 E11.41838
G1 X191.822 Y157.933 E11.4246
G1 X191.735 Y157.749 E11.43103
G1 X191.697 Y157.55 E11.43743
G1 X191.694 Y142.667 E11.90769
G1 X191.712 Y142.342 E11.91798
G1 X191.772 Y142.156 E11.92415
G1 X191.879 Y141.987 E11.93047
G1 X192.028 Y141.848 E11.93691
G1 X192.2 Y141.753 E11.94312
G1 X192.397 Y141.703 E11.94954
G1 X207.496 Y141.694 E12.42663
G1 X207.701 Y141.721 E12.43316
G1 X207.891 Y141.796 E12.43962
G0 F1600 X208.05 Y141.911
G0 X208.052 Y141.914
G0 X207.726 Y142.178
G0 X207.532 Y142.45
;TYPE:SKIN
G1 F1200 X207.549 Y142.47 E12.44045
G1 X207.557 Y142.485 E12.44098
G1 X207.563 Y142.518 E12.44204
G1 X207.566 Y157.452 E12.91391
G1 X207.558 Y157.512 E12.91583
G1 X207.55 Y157.532 E12.91651
G1 X207.515 Y157.557 E12.91787
G1 X207.482 Y157.563 E12.91893
G1 X192.547 Y157.566 E13.39083
G1 X192.472 Y157.551 E13.39325
G1 X192.45 Y157.532 E13.39416
G1 X192.444 Y157.518 E13.39465
G1 X192.437 Y157.482 E13.3958
G1 X192.434 Y142.687 E13.86328
G1 X192.446 Y142.478 E13.8699
G1 X192.454 Y142.461 E13.87049
G1 X192.478 Y142.445 E13.8714
G1 X207.452 Y142.434 E14.34454
G1 X207.512 Y142.442 E14.34645
G1 X207.532 Y142.45 E14.34713
G0 F1600 X207.093 Y142.605
G1 F1200 X207.392 Y142.904 E14.36049
G0 F1600 X207.392 Y143.441
G1 F1200 X206.556 Y142.605 E14.39785
G0 F1600 X206.019 Y142.606
G1 F1200 X207.392 Y143.978 E14.45918
G0 F1600 X207.392 Y144.516
G1 F1200 X205.482 Y142.606 E14.54453
G0 F1600 X204.945 Y142.607
G1 F1200 X207.392 Y145.053 E14.65385
G0 F1600 X207.392 Y145.591
G1 F1200 X204.409 Y142.607 E14.78717
G0 F1600 X203.871 Y142.607
G1 F1200 X207.392 Y146.128 E14.94451
G0 F1600 X207.393 Y146.666
G1 F1200 X203.334 Y142.608 E15.12586
G0 F1600 X202.797 Y142.608
G1 F1200 X207.393 Y147.204 E15.33123
G0 F1600 X207.393 Y147.741
G1 F1200 X202.26 Y142.609 E15.56058
G0 F1600 X201.723 Y142.609
G1 F1200 X207.393 Y148.278 E15.81392
G0 F1600 X207.393 Y148.816
G1 F1200 X201.186 Y142.61 E16.09126
G0 F1600 X200.649 Y142.61
G1 F1200 X207.393 Y149.353 E16.39259
G0 F1600 X207.393 Y149.891
G1 F1200 X200.112 Y142.61 E16.71794
G0 F1600 X199.575 Y142.61
G1 F1200 X207.393 Y150.429 E17.06732
G0 F1600 X207.393 Y150.966
G1 F1200 X199.038 Y142.611 E17.44066
G0 F1600 X198.501 Y142.612
G1 F1200 X207.393 Y151.503 E17.83798
G0 F1600 X207.393 Y152.041
G1 F1200 X197.964 Y142.612 E18.25931
G0 F1600 X197.427 Y142.612
G1 F1200 X207.393 Y152.578 E18.70464
G0 F1600 X207.393 Y153.116
G1 F1200 X196.89 Y142.612 E19.17399
G0 F1600 X196.353 Y142.613
G1 F1200 X207.393 Y153.653 E19.66732
G0 F1600 X207.394 Y154.191
G1 F1200 X195.816 Y142.613 E20.18468
G0 F1600 X195.279 Y142.614
G1 F1200 X207.394 Y154.729 E20.72604
G0 F1600 X207.394 Y155.266
G1 F1200 X194.742 Y142.614 E21.2914
G0 F1600 X194.205 Y142.614
G1 F1200 X207.394 Y155.803 E21.88075
G0 F1600 X207.394 Y156.341
G1 F1200 X193.668 Y142.614 E22.49412
G0 F1600 X193.131 Y142.615
G1 F1200 X207.394 Y156.878 E23.13146
G0 F1600 X207.37 Y157.392
G1 F1200 X192.608 Y142.629 E23.79113
G0 F1600 X192.604 Y143.163
G1 F1200 X206.832 Y157.392 E24.42693
G0 F1600 X206.295 Y157.392
G1 F1200 X192.604 Y143.701 E25.03871
G0 F1600 X192.604 Y144.238
G1 F1200 X205.758 Y157.392 E25.6265
G0 F1600 X205.22 Y157.392
G1 F1200 X192.604 Y144.775 E26.19027
G0 F1600 X192.604 Y145.313
G1 F1200 X204.683 Y157.392 E26.73002
G0 F1600 X204.145 Y157.392
G1 F1200 X192.604 Y145.85 E27.24575
G0 F1600 X192.605 Y146.388
G1 F1200 X203.609 Y157.392 E27.73747
G0 F1600 X203.071 Y157.392
G1 F1200 X192.605 Y146.926 E28.20514
G0 F1600 X192.605 Y147.463
G1 F1200 X202.534 Y157.392 E28.64882
G0 F1600 X201.997 Y157.392
G1 F1200 X192.605 Y148 E29.0685
G0 F1600 X192.605 Y148.538
G1 F1200 X201.459 Y157.392 E29.46414
G0 F1600 X200.922 Y157.392
G1 F1200 X192.605 Y149.075 E29.83579
G0 F1600 X192.605 Y149.613
G1 F1200 X200.384 Y157.392 E30.18339
G0 F1600 X199.848 Y157.393
G1 F1200 X192.605 Y150.151 E30.50703
G0 F1600 X192.605 Y150.688
G1 F1200 X199.31 Y157.393 E30.80664
G0 F1600 X198.773 Y157.393
G1 F1200 X192.605 Y151.226 E31.08223
G0 F1600 X192.605 Y151.763
G1 F1200 X198.235 Y157.393 E31.33381
G0 F1600 X197.698 Y157.393
G1 F1200 X192.605 Y152.3 E31.56139
G0 F1600 X192.605 Y152.838
G1 F1200 X197.161 Y157.393 E31.76496
G0 F1600 X196.623 Y157.393
G1 F1200 X192.605 Y153.375 E31.9445
G0 F1600 X192.606 Y153.913
G1 F1200 X196.087 Y157.394 E32.10005
G0 F1600 X195.549 Y157.394
G1 F1200 X192.606 Y154.451 E32.23156
G0 F1600 X192.606 Y154.988
G1 F1200 X195.012 Y157.394 E32.33907
G0 F1600 X194.474 Y157.394
G1 F1200 X192.606 Y155.526 E32.42254
G0 F1600 X192.606 Y156.063
G1 F1200 X193.937 Y157.394 E32.48202
G0 F1600 X193.4 Y157.394
G1 F1200 X192.606 Y156.6 E32.5175
G0 F1600 X192.606 Y157.138
G1 F1200 X192.862 Y157.394 E32.52894
;MESH:NONMESH
G0 F600 X192.862 Y157.394 Z0.4
G0 F1600 X207.653 Y142.202
G0 X207.72 Y142.112
;TIME_ELAPSED:64.744314
;LAYER:1
M140 S50
M106 S255
;TYPE:WALL-INNER
;MESH:ktBOX4e.stl
G1 F2400 X207.805 Y142.173 E32.53224
G1 X207.874 Y142.259 E32.53573
G1 X207.919 Y142.353 E32.53902
G1 X207.943 Y142.483 E32.5432
G1 X207.945 Y142.966 E32.55846
G1 X207.946 Y157.481 E33.01709
G1 X207.928 Y157.618 E33.02146
G1 X207.888 Y157.721 E33.02495
G1 X207.826 Y157.806 E33.02827
G1 X207.744 Y157.873 E33.03162
G1 X207.647 Y157.919 E33.03501
G1 X207.517 Y157.943 E33.03919
G1 X207.033 Y157.945 E33.05448
G1 X192.519 Y157.946 E33.51308
G1 X192.381 Y157.928 E33.51748
G1 X192.281 Y157.888 E33.52088
G1 X192.193 Y157.824 E33.52432
G1 X192.127 Y157.743 E33.52762
G1 X192.081 Y157.647 E33.53098
G1 X192.057 Y157.518 E33.53513
G1 X192.056 Y142.475 E34.01045
G1 X192.079 Y142.358 E34.01421
G1 X192.127 Y142.257 E34.01775
G1 X192.197 Y142.172 E34.02123
G1 X192.28 Y142.112 E34.02446
G1 X192.382 Y142.072 E34.02792
G1 X192.52 Y142.054 E34.03232
G1 X207.48 Y142.054 E34.50501
G1 X207.618 Y142.072 E34.50941
G1 X207.72 Y142.112 E34.51287
G0 F3200 X207.901 Y141.786
;TYPE:WALL-OUTER
G1 F1500 X208.061 Y141.902 E34.51912
G1 X208.19 Y142.06 E34.52556
G1 X208.274 Y142.238 E34.53178
G1 X208.313 Y142.445 E34.53844
G1 X208.315 Y142.966 E34.5549
G1 X208.316 Y157.506 E35.01432
G1 X208.289 Y157.711 E35.02086
G1 X208.214 Y157.901 E35.02731
G1 X208.099 Y158.06 E35.03351
G1 X207.94 Y158.19 E35.04
G1 X207.762 Y158.274 E35.04622
G1 X207.555 Y158.313 E35.05287
G1 X207.034 Y158.315 E35.06934
G1 X192.494 Y158.316 E35.52876
G1 X192.289 Y158.289 E35.53529
G1 X192.101 Y158.215 E35.54168
G1 X191.936 Y158.094 E35.54814
G1 X191.811 Y157.942 E35.55436
G1 X191.726 Y157.762 E35.56065
G1 X191.687 Y157.555 E35.5673
G1 X191.686 Y142.44 E36.0449
G1 X191.725 Y142.24 E36.05133
G1 X191.811 Y142.058 E36.05769
G1 X191.941 Y141.901 E36.06413
G1 X192.102 Y141.785 E36.0704
G1 X192.289 Y141.711 E36.07676
G1 X192.495 Y141.684 E36.08332
G1 X207.505 Y141.684 E36.5576
G1 X207.711 Y141.711 E36.56416
G1 X207.901 Y141.786 E36.57062
G0 F3200 X208.061 Y141.902
G0 X208.062 Y141.904
G0 X207.737 Y142.168
G0 X207.523 Y142.432
;TYPE:SKIN
G1 F1500 X207.559 Y142.458 E36.57202
G1 X207.573 Y142.518 E36.57397
G1 X207.575 Y142.968 E36.58818
G1 X207.576 Y157.462 E37.04615
G1 X207.562 Y157.539 E37.04863
G1 X207.553 Y157.551 E37.0491
G1 X207.53 Y157.565 E37.04995
G1 X207.483 Y157.573 E37.05146
G1 X207.031 Y157.575 E37.06574
G1 X192.537 Y157.576 E37.52371
G1 X192.464 Y157.563 E37.52605
G1 X192.438 Y157.538 E37.52719
G1 X192.427 Y157.482 E37.52899
G1 X192.426 Y142.512 E38.002
G1 X192.443 Y142.455 E38.00388
G1 X192.454 Y142.442 E38.00442
G1 X192.477 Y142.432 E38.00521
G1 X192.538 Y142.424 E38.00716
G1 X207.462 Y142.424 E38.47871
G1 X207.523 Y142.432 E38.48066
G0 F3200 X192.743 Y142.595
G1 F1500 X192.596 Y142.741 E38.4872
G0 F3200 X192.596 Y143.278
G1 F1500 X193.28 Y142.595 E38.51774
G0 F3200 X193.817 Y142.595
G1 F1500 X192.596 Y143.816 E38.57231
G0 F3200 X192.596 Y144.353
G1 F1500 X194.355 Y142.595 E38.65088
G0 F3200 X194.892 Y142.595
G1 F1500 X192.596 Y144.891 E38.75348
G0 F3200 X192.596 Y145.428
G1 F1500 X195.43 Y142.595 E38.8801
G0 F3200 X195.967 Y142.595
G1 F1500 X192.596 Y145.965 E39.03071
G0 F3200 X192.596 Y146.503
G1 F1500 X196.504 Y142.595 E39.20534
G0 F3200 X197.042 Y142.595
G1 F1500 X192.596 Y147.04 E39.40398
G0 F3200 X192.596 Y147.578
G1 F1500 X197.579 Y142.595 E39.62665
G0 F3200 X198.117 Y142.595
G1 F1500 X192.596 Y148.115 E39.87333
G0 F3200 X192.596 Y148.652
G1 F1500 X198.654 Y142.595 E40.14401
G0 F3200 X199.191 Y142.595
G1 F1500 X192.596 Y149.19 E40.43871
G0 F3200 X192.596 Y149.727
G1 F1500 X199.729 Y142.595 E40.75743
G0 F3200 X200.266 Y142.595
G1 F1500 X192.597 Y150.264 E41.10012
G0 F3200 X192.597 Y150.801
G1 F1500 X200.804 Y142.595 E41.46683
G0 F3200 X201.341 Y142.595
G1 F1500 X192.597 Y151.339 E41.85755
G0 F3200 X192.597 Y151.876
G1 F1500 X201.878 Y142.595 E42.27228
G0 F3200 X202.416 Y142.595
