;FLAVOR:Marlin
;TIME:8744
;Filament used: 8.19443m, 0m
;Layer height: 0.2
;MINX:164.05
;MINY:102.542
;MINZ:0.2
;MAXX:235.95
;MAXY:224.95
;MAXZ:22
;Generated with Cura_SteamEngine 4.6.1
T0
M140 S50
M105
M190 S50
M104 S205
M105
M109 S205
M82 ;absolute extrusion mode
G28 ;Home
G1 Z15.0 F6000 ;Move the platform down 15mm
;Prime the extruder
G92 E0
G1 F200 E3
G92 E0
G92 E0
G92 E0
G1 F4200 E-8
;LAYER_COUNT:110
;LAYER:0
M107
G1 F600 Z0.6
G0 F1600 X207.841 Y103.334 Z0.6
;TYPE:SKIRT
G1 F600 Z0.2
G1 F4200 E0
G1 F1200 X208.578 Y103.466 E0.02366
G1 X208.874 Y103.556 E0.03343
G1 X209.344 Y103.741 E0.04939
G1 X209.854 Y104.042 E0.0681
G1 X210.257 Y104.346 E0.08405
G1 X210.621 Y104.714 E0.10041
G1 X210.877 Y105.024 E0.11311
G1 X211.684 Y106.133 E0.15645
G1 X213.357 Y108.371 E0.24474
G1 X215.049 Y110.507 E0.33084
G1 X216.817 Y112.612 E0.4177
G1 X218.626 Y114.648 E0.50376
G1 X220.507 Y116.648 E0.59051
G1 X222.431 Y118.579 E0.67664
G1 X224.419 Y120.467 E0.76327
G1 X226.472 Y122.306 E0.85036
G1 X228.549 Y124.066 E0.93638
G1 X230.702 Y125.788 E1.02349
G1 X231.947 Y126.729 E1.0728
G1 X232.828 Y127.427 E1.10831
G1 X233.124 Y127.693 E1.12089
G1 X233.47 Y128.046 E1.13651
G1 X233.76 Y128.387 E1.15065
G1 X234.155 Y128.957 E1.17256
G1 X234.384 Y129.356 E1.1871
G1 X234.557 Y129.706 E1.19943
G1 X234.763 Y130.195 E1.2162
G1 X234.912 Y130.636 E1.23091
G1 X235.059 Y131.281 E1.25181
G1 X235.136 Y131.807 E1.26861
G1 X235.169 Y132.201 E1.2811
G1 X235.189 Y133.142 E1.31084
G1 X235.19 Y166.744 E2.37257
G1 X235.178 Y167.59 E2.3993
G1 X235.117 Y168.586 E2.43083
G1 X234.974 Y171.378 E2.51917
G1 X234.912 Y174.093 E2.60497
G1 X234.927 Y176.847 E2.69199
G1 X235.019 Y179.568 E2.77802
G1 X235.089 Y180.629 E2.81162
G1 X235.152 Y181.808 E2.84892
G1 X235.182 Y183.234 E2.89399
G1 X235.19 Y216.789 E3.95423
G1 X235.184 Y217.334 E3.97145
G1 X235.154 Y217.996 E3.99239
G1 X235.041 Y218.808 E4.0183
G1 X234.949 Y219.199 E4.03099
G1 X234.814 Y219.647 E4.04577
G1 X234.673 Y220.028 E4.05861
G1 X234.502 Y220.411 E4.07186
G1 X234.316 Y220.766 E4.08453
G1 X234.044 Y221.214 E4.10109
G1 X233.785 Y221.58 E4.11525
G1 X233.343 Y222.088 E4.13653
G1 X232.946 Y222.476 E4.15407
G1 X232.598 Y222.771 E4.16848
G1 X232.034 Y223.159 E4.19012
G1 X231.625 Y223.394 E4.20502
G1 X231.275 Y223.568 E4.21737
G1 X230.817 Y223.761 E4.23307
G1 X230.375 Y223.91 E4.24781
G1 X229.713 Y224.06 E4.26926
G1 X229.178 Y224.136 E4.28633
G1 X228.8 Y224.167 E4.29832
G1 X227.948 Y224.186 E4.32524
G1 X226.85 Y224.19 E4.35994
G1 X172.162 Y224.19 E6.08792
G1 X171.567 Y224.18 E6.10673
G1 X171.004 Y224.154 E6.12453
G1 X170.603 Y224.11 E6.13728
G1 X170.144 Y224.03 E6.152
G1 X169.369 Y223.82 E6.17737
G1 X168.989 Y223.678 E6.19019
G1 X168.564 Y223.488 E6.2049
G1 X168.206 Y223.3 E6.21768
G1 X167.863 Y223.091 E6.23037
G1 X167.536 Y222.862 E6.24298
G1 X167.158 Y222.561 E6.25825
G1 X166.866 Y222.298 E6.27067
G1 X166.536 Y221.961 E6.28557
G1 X166.25 Y221.625 E6.29951
G1 X165.844 Y221.041 E6.32199
G1 X165.615 Y220.642 E6.33652
G1 X165.442 Y220.292 E6.34886
G1 X165.236 Y219.803 E6.36562
G1 X165.086 Y219.358 E6.38046
G1 X164.942 Y218.725 E6.40097
G1 X164.874 Y218.267 E6.4156
G1 X164.84 Y217.863 E6.42841
G1 X164.818 Y216.764 E6.46315
G1 X164.81 Y183.165 E7.52478
G1 X164.816 Y182.663 E7.54064
G1 X164.872 Y181.41 E7.58027
G1 X164.974 Y179.795 E7.6314
G1 X165.069 Y177.08 E7.71724
G1 X165.088 Y174.314 E7.80464
G1 X165.029 Y171.606 E7.89023
G1 X164.894 Y168.877 E7.97656
G1 X164.851 Y168.24 E7.99673
G1 X164.818 Y166.765 E8.04335
G1 X164.81 Y133.323 E9.10002
G1 X164.822 Y132.444 E9.1278
G1 X164.853 Y131.882 E9.14558
G1 X164.94 Y131.265 E9.16527
G1 X165.171 Y130.397 E9.19365
G1 X165.324 Y129.978 E9.20775
G1 X165.499 Y129.587 E9.22128
G1 X165.684 Y129.234 E9.23388
G1 X165.956 Y128.786 E9.25044
G1 X166.212 Y128.424 E9.26445
G1 X166.666 Y127.9 E9.28635
G1 X167.039 Y127.535 E9.30284
G1 X167.324 Y127.287 E9.31478
G1 X168.267 Y126.561 E9.35238
G1 X169.549 Y125.588 E9.40324
G1 X171.681 Y123.875 E9.48965
G1 X173.767 Y122.098 E9.57624
G1 X175.791 Y120.274 E9.66233
G1 X177.78 Y118.376 E9.7492
G1 X179.696 Y116.442 E9.83522
G1 X181.573 Y114.436 E9.92202
G1 X183.395 Y112.375 E10.00894
G1 X185.136 Y110.291 E10.09474
G1 X186.828 Y108.142 E10.18117
G1 X189.2 Y104.925 E10.30746
G1 X189.531 Y104.544 E10.3234
G1 X189.912 Y104.212 E10.33937
G1 X190.324 Y103.921 E10.35531
G1 X190.763 Y103.696 E10.3709
G1 X191.403 Y103.47 E10.39234
G1 X191.685 Y103.403 E10.4015
G1 X192.292 Y103.32 E10.42086
G1 X192.69 Y103.306 E10.43344
G1 X206.613 Y103.302 E10.87337
G1 X207.841 Y103.334 E10.91218
G0 F1600 X207.864 Y102.954
G1 F1200 X208.393 Y103.026 E10.92905
G1 X208.985 Y103.192 E10.94848
G1 X209.482 Y103.386 E10.96534
G1 X210.059 Y103.721 E10.98642
G1 X210.486 Y104.042 E11.0033
G1 X210.897 Y104.454 E11.02169
G1 X211.185 Y104.8 E11.03591
G1 X212.016 Y105.942 E11.08054
G1 X213.655 Y108.135 E11.16704
G1 X215.352 Y110.277 E11.25339
G1 X217.091 Y112.348 E11.33884
G1 X218.917 Y114.403 E11.4257
G1 X220.785 Y116.388 E11.51183
G1 X222.67 Y118.281 E11.59624
G1 X224.701 Y120.21 E11.68474
G1 X226.72 Y122.019 E11.7704
G1 X228.781 Y123.765 E11.85575
G1 X230.923 Y125.478 E11.94241
G1 X232.177 Y126.426 E11.99208
G1 X233.065 Y127.129 E12.02787
G1 X233.396 Y127.427 E12.04194
G1 X233.742 Y127.78 E12.05756
G1 X234.066 Y128.161 E12.07336
G1 X234.484 Y128.768 E12.09665
G1 X234.713 Y129.167 E12.11118
G1 X234.907 Y129.558 E12.12498
G1 X235.113 Y130.047 E12.14174
G1 X235.28 Y130.541 E12.15822
G1 X235.435 Y131.226 E12.18041
G1 X235.512 Y131.752 E12.19721
G1 X235.549 Y132.193 E12.21119
G1 X235.569 Y133.134 E12.24093
G1 X235.57 Y166.75 E13.3031
G1 X235.558 Y167.596 E13.32983
G1 X235.493 Y168.654 E13.36333
G1 X235.354 Y171.37 E13.44926
G1 X235.292 Y174.1 E13.53554
G1 X235.307 Y176.832 E13.62186
G1 X235.399 Y179.564 E13.70824
G1 X235.468 Y180.605 E13.7412
G1 X235.531 Y181.788 E13.77863
G1 X235.562 Y183.226 E13.82408
G1 X235.57 Y216.789 E14.88457
G1 X235.564 Y217.338 E14.90192
G1 X235.534 Y218.014 E14.9233
G1 X235.489 Y218.437 E14.93674
G1 X235.416 Y218.871 E14.95065
G1 X235.313 Y219.309 E14.96487
G1 X235.178 Y219.757 E14.97965
G1 X235.02 Y220.182 E14.99398
G1 X234.849 Y220.565 E15.00723
G1 X234.641 Y220.963 E15.02142
G1 X234.369 Y221.411 E15.03798
G1 X234.079 Y221.82 E15.05382
G1 X233.608 Y222.36 E15.07646
G1 X233.211 Y222.748 E15.094
G1 X232.822 Y223.078 E15.11012
G1 X232.224 Y223.488 E15.13303
G1 X231.815 Y223.723 E15.14794
G1 X231.422 Y223.918 E15.1618
G1 X230.964 Y224.111 E15.1775
G1 X230.47 Y224.278 E15.19398
G1 X229.766 Y224.437 E15.21678
G1 X229.231 Y224.513 E15.23386
G1 X228.809 Y224.547 E15.24723
G1 X227.957 Y224.566 E15.27416
G1 X226.851 Y224.57 E15.30911
G1 X172.156 Y224.57 E17.03731
G1 X171.549 Y224.559 E17.0565
G1 X170.986 Y224.533 E17.0743
G1 X170.538 Y224.484 E17.08854
G1 X170.079 Y224.404 E17.10327
G1 X169.661 Y224.305 E17.11684
G1 X169.26 Y224.184 E17.13007
G1 X168.834 Y224.025 E17.14444
G1 X168.409 Y223.835 E17.15915
G1 X168.008 Y223.625 E17.17345
G1 X167.665 Y223.416 E17.18615
G1 X167.299 Y223.16 E17.20026
G1 X166.921 Y222.859 E17.21553
G1 X166.594 Y222.564 E17.22944
G1 X166.264 Y222.227 E17.24434
G1 X165.944 Y221.851 E17.25994
G1 X165.515 Y221.23 E17.28379
G1 X165.286 Y220.831 E17.29833
G1 X165.092 Y220.44 E17.31212
G1 X164.886 Y219.951 E17.32889
G1 X164.718 Y219.452 E17.34552
G1 X164.566 Y218.781 E17.36726
G1 X164.498 Y218.323 E17.38189
G1 X164.46 Y217.87 E17.39626
G1 X164.438 Y216.771 E17.43099
G1 X164.43 Y183.165 E18.49284
G1 X164.436 Y182.658 E18.50886
G1 X164.493 Y181.392 E18.54891
G1 X164.594 Y179.793 E18.59953
G1 X164.689 Y177.065 E18.68578
G1 X164.708 Y174.332 E18.77214
G1 X164.65 Y171.634 E18.8574
G1 X164.511 Y168.839 E18.94583
G1 X164.472 Y168.265 E18.96401
G1 X164.438 Y166.773 E19.01116
G1 X164.43 Y133.323 E20.06809
G1 X164.442 Y132.439 E20.09602
G1 X164.473 Y131.859 E20.11437
G1 X164.565 Y131.199 E20.13543
G1 X164.806 Y130.292 E20.16508
G1 X164.977 Y129.823 E20.18085
G1 X165.152 Y129.432 E20.19439
G1 X165.359 Y129.037 E20.20848
G1 X165.631 Y128.589 E20.22504
G1 X165.918 Y128.184 E20.24073
G1 X166.4 Y127.628 E20.26398
G1 X166.773 Y127.263 E20.28047
G1 X167.092 Y126.986 E20.29381
G1 X168.035 Y126.26 E20.33142
G1 X169.293 Y125.307 E20.38129
G1 X171.426 Y123.592 E20.46777
G1 X173.517 Y121.812 E20.55453
G1 X175.544 Y119.984 E20.64078
G1 X177.517 Y118.102 E20.72693
G1 X179.418 Y116.183 E20.81228
G1 X181.295 Y114.177 E20.89909
G1 X183.104 Y112.13 E20.9854
G1 X184.849 Y110.041 E21.07141
G1 X186.521 Y107.919 E21.15677
G1 X188.894 Y104.7 E21.28313
G1 X189.243 Y104.295 E21.30002
G1 X189.669 Y103.92 E21.31796
G1 X190.103 Y103.61 E21.33481
G1 X190.599 Y103.354 E21.35244
G1 X191.315 Y103.101 E21.37644
G1 X191.597 Y103.034 E21.3856
G1 X192.276 Y102.94 E21.40726
G1 X192.69 Y102.926 E21.42034
G1 X206.613 Y102.922 E21.86027
G1 X207.864 Y102.954 E21.89981
G0 F1600 X207.887 Y102.575
G1 F1200 X208.444 Y102.649 E21.91757
G1 X209.095 Y102.829 E21.93891
G1 X209.62 Y103.03 E21.95667
G1 X210.072 Y103.279 E21.97298
G1 X210.714 Y103.736 E21.99788
G1 X211.174 Y104.193 E22.01836
G1 X211.492 Y104.577 E22.03412
G1 X212.293 Y105.678 E22.07714
G1 X213.958 Y107.905 E22.165
G1 X215.641 Y110.029 E22.25063
G1 X217.395 Y112.118 E22.33681
G1 X219.176 Y114.123 E22.42155
G1 X221.062 Y116.128 E22.50853
G1 X222.974 Y118.047 E22.59412
G1 X224.93 Y119.905 E22.67936
G1 X226.969 Y121.732 E22.76587
G1 X229.031 Y123.478 E22.85124
G1 X231.161 Y125.182 E22.93743
G1 X232.406 Y126.123 E22.98674
G1 X233.301 Y126.831 E23.0228
G1 X233.667 Y127.161 E23.03837
G1 X234.013 Y127.514 E23.05399
G1 X234.372 Y127.936 E23.07149
G1 X234.814 Y128.579 E23.09615
G1 X235.043 Y128.978 E23.11068
G1 X235.257 Y129.411 E23.12595
G1 X235.463 Y129.9 E23.14271
G1 X235.648 Y130.446 E23.16093
G1 X235.811 Y131.171 E23.18441
G1 X235.888 Y131.697 E23.2012
G1 X235.929 Y132.185 E23.21668
G1 X235.949 Y133.126 E23.24642
G1 X235.95 Y166.755 E24.309
G1 X235.938 Y167.601 E24.33573
G1 X235.873 Y168.678 E24.36982
G1 X235.734 Y171.4 E24.45594
G1 X235.672 Y174.106 E24.54147
G1 X235.687 Y176.817 E24.62713
G1 X235.78 Y179.557 E24.71375
G1 X235.847 Y180.58 E24.74615
G1 X235.911 Y181.768 E24.78374
G1 X235.942 Y183.218 E24.82957
G1 X235.95 Y216.789 E25.89031
G1 X235.944 Y217.343 E25.90782
G1 X235.914 Y218.032 E25.92961
G1 X235.863 Y218.5 E25.94448
G1 X235.79 Y218.934 E25.95839
G1 X235.677 Y219.419 E25.97413
G1 X235.542 Y219.867 E25.98891
G1 X235.367 Y220.337 E26.00476
G1 X235.196 Y220.72 E26.01801
G1 X234.965 Y221.16 E26.03371
G1 X234.693 Y221.608 E26.05027
G1 X234.372 Y222.061 E26.06781
G1 X233.874 Y222.632 E26.09175
G1 X233.477 Y223.02 E26.10929
G1 X233.046 Y223.384 E26.12712
G1 X232.413 Y223.818 E26.15137
G1 X232.004 Y224.053 E26.16628
G1 X231.57 Y224.268 E26.18158
G1 X231.112 Y224.461 E26.19728
G1 X230.565 Y224.646 E26.21553
G1 X229.82 Y224.813 E26.23965
G1 X229.285 Y224.889 E26.25673
G1 X228.817 Y224.927 E26.27156
G1 X227.965 Y224.946 E26.29849
G1 X226.852 Y224.95 E26.33366
G1 X172.151 Y224.95 E28.06205
G1 X171.532 Y224.939 E28.08161
G1 X170.969 Y224.913 E28.09942
G1 X170.473 Y224.858 E28.11519
G1 X170.014 Y224.778 E28.12991
G1 X169.551 Y224.669 E28.14494
G1 X169.15 Y224.548 E28.15818
G1 X168.679 Y224.372 E28.17406
G1 X168.254 Y224.182 E28.18877
G1 X167.811 Y223.949 E28.20459
G1 X167.468 Y223.74 E28.21728
G1 X167.062 Y223.457 E28.23292
G1 X166.684 Y223.156 E28.24819
G1 X166.323 Y222.83 E28.26355
G1 X165.993 Y222.493 E28.27846
G1 X165.639 Y222.077 E28.29572
G1 X165.185 Y221.419 E28.32098
G1 X164.956 Y221.02 E28.33551
G1 X164.742 Y220.587 E28.35077
G1 X164.536 Y220.098 E28.36754
G1 X164.35 Y219.546 E28.38595
G1 X164.19 Y218.837 E28.40891
G1 X164.122 Y218.379 E28.42354
G1 X164.08 Y217.878 E28.43943
G1 X164.058 Y216.779 E28.47416
G1 X164.05 Y183.165 E29.53626
G1 X164.056 Y182.653 E29.55244
G1 X164.113 Y181.375 E29.59286
G1 X164.213 Y179.79 E29.64305
G1 X164.309 Y177.049 E29.72971
G1 X164.328 Y174.337 E29.8154
G1 X164.269 Y171.626 E29.90108
G1 X164.134 Y168.898 E29.98738
G1 X164.093 Y168.291 E30.00661
G1 X164.058 Y166.78 E30.05436
G1 X164.05 Y133.323 E31.11151
G1 X164.062 Y132.433 E31.13963
G1 X164.094 Y131.836 E31.15852
G1 X164.191 Y131.134 E31.18091
G1 X164.287 Y130.72 E31.19434
G1 X164.441 Y130.186 E31.2119
G1 X164.631 Y129.667 E31.22937
G1 X164.806 Y129.276 E31.2429
G1 X165.035 Y128.84 E31.25846
G1 X165.307 Y128.392 E31.27502
G1 X165.624 Y127.943 E31.29239
G1 X166.134 Y127.357 E31.31694
G1 X166.507 Y126.992 E31.33343
G1 X166.86 Y126.685 E31.34821
G1 X167.803 Y125.959 E31.38581
G1 X169.076 Y124.994 E31.43628
G1 X171.175 Y123.307 E31.52137
G1 X173.265 Y121.526 E31.60814
G1 X175.277 Y119.713 E31.69371
G1 X177.252 Y117.828 E31.77998
G1 X179.155 Y115.907 E31.86542
G1 X181.003 Y113.934 E31.95083
G1 X182.813 Y111.885 E32.03722
G1 X184.545 Y109.812 E32.12257
G1 X186.243 Y107.656 E32.20929
G1 X188.589 Y104.474 E32.3342
G1 X188.953 Y104.047 E32.35193
G1 X189.425 Y103.629 E32.37185
G1 X189.881 Y103.3 E32.38962
G1 X190.435 Y103.011 E32.40936
G1 X191.227 Y102.731 E32.4359
G1 X191.509 Y102.664 E32.44506
G1 X192.261 Y102.56 E32.46905
G1 X192.69 Y102.546 E32.48261
G1 X206.613 Y102.542 E32.92254
G1 X207.887 Y102.575 E32.96281
G1 F4200 E24.96281
G0 F1600 X212.786 Y140.504
;TYPE:SUPPORT
G1 F4200 E32.96281
G1 F1200 X213.156 Y140.543 E32.97456
G1 X218.076 Y140.543 E33.13002
G1 X218.076 Y147.32 E33.34415
G1 X217.874 Y147.32 E33.35054
G1 X217.495 Y147.699 E33.36747
G1 X217.496 Y159.497 E33.74025
G1 X198.503 Y159.497 E34.34038
G1 X198.504 Y140.505 E34.94047
G1 X212.786 Y140.504 E35.39174
G1 F4200 E27.39174
G0 F1600 X200.542 Y142.163
G1 F4200 E35.39174
G1 F1200 X200.163 Y142.542 E35.40868
G1 X200.162 Y157.213 E35.87224
G1 X200.353 Y157.676 E35.88806
G1 X200.824 Y157.838 E35.9038
G1 X215.459 Y157.837 E36.36623
G1 X215.665 Y157.631 E36.37543
G1 X215.838 Y157.212 E36.38975
G1 X215.837 Y142.541 E36.85332
G1 X215.458 Y142.162 E36.87025
G1 X200.542 Y142.163 E37.34155
G1 F4200 E29.34155
G0 F1600 X205.2 Y141.821
G1 F4200 E37.34155
G1 F1200 X205.2 Y140.846 E37.37236
G1 X212.048 Y140.845 E37.58874
G1 X210.36 Y141.82 E37.65033
G1 X200.4 Y141.821 E37.96504
G1 X200.267 Y141.951 E37.97092
G1 X198.845 Y141.13 E38.0228
G1 X198.845 Y148.468 E38.25466
G1 X199.819 Y147.905 E38.29021
G1 X199.82 Y154.857 E38.50987
G1 X198.845 Y154.294 E38.54544
G1 X198.845 Y159.155 E38.69904
G1 X203.135 Y159.154 E38.83459
G1 X204.825 Y158.179 E38.89624
G1 X205.2 Y158.179 E38.90809
G1 X205.2 Y159.155 E38.93893
G1 X207.262 Y159.154 E39.00408
G1 X205.575 Y158.179 E39.06564
G1 X215.601 Y158.179 E39.38244
G1 X215.955 Y157.825 E39.39826
G1 X216.18 Y157.28 E39.41689
G1 X216.179 Y151.623 E39.59563
G1 X217.152 Y151.062 E39.63112
G1 X217.153 Y147.557 E39.74187
G1 X217.732 Y146.978 E39.76774
G0 F1600 X217.734 Y146.978
G1 F1200 X217.734 Y140.885 E39.96026
G1 X216.6 Y140.885 E39.99609
G1 X216.6 Y159.155 E40.57337
G1 X217.154 Y159.155 E40.59088
G1 X217.153 Y151.7 E40.82643
G1 X216.179 Y151.138 E40.86196
G1 X216.179 Y142.399 E41.13809
G1 X215.6 Y141.82 E41.16396
G1 F4200 E33.16396
;MESH:ktBOX4c.stl
G0 F1600 X207.919 Y122.472
G0 X207.644 Y107.197
G0 X207.686 Y107.107
;TYPE:WALL-INNER
G1 F4200 E41.16396
G1 F1200 X207.778 Y107.166 E41.16742
G1 X207.851 Y107.243 E41.17077
G1 X207.902 Y107.335 E41.17409
G1 X207.929 Y107.443 E41.17761
G1 X207.938 Y122.473 E41.65252
G1 X207.92 Y122.61 E41.65688
G1 X207.879 Y122.713 E41.66039
G1 X207.817 Y122.8 E41.66376
G1 X207.736 Y122.866 E41.66706
G1 X207.636 Y122.913 E41.67055
G1 X207.52 Y122.935 E41.67428
G1 X192.527 Y122.938 E42.14802
G1 X192.389 Y122.92 E42.15242
G1 X192.289 Y122.88 E42.15582
G1 X192.203 Y122.817 E42.15919
G1 X192.133 Y122.733 E42.16264
G1 X192.087 Y122.635 E42.16606
G1 X192.065 Y122.52 E42.16976
G1 X192.062 Y107.527 E42.6435
G1 X192.08 Y107.39 E42.64787
G1 X192.121 Y107.285 E42.65143
G1 X192.182 Y107.201 E42.65471
G1 X192.265 Y107.133 E42.6581
G1 X192.361 Y107.088 E42.66145
G1 X192.482 Y107.065 E42.66534
G1 X207.252 Y107.062 E43.13203
G1 X207.596 Y107.078 E43.14291
G1 X207.686 Y107.107 E43.1459
G0 F1600 X207.846 Y106.77
;TYPE:WALL-OUTER
G1 F1200 X208.015 Y106.877 E43.15222
G1 X208.153 Y107.024 E43.15859
G1 X208.25 Y107.201 E43.16497
G1 X208.299 Y107.395 E43.17129
