;FLAVOR:Marlin
;TIME:8094
;Filament used: 6.39327m, 1.8931m
;Layer height: 0.2
;MINX:163.685
;MINY:73.424
;MINZ:0.2
;MAXX:236.315
;MAXY:175.315
;MAXZ:22
;Generated with Cura_SteamEngine 4.6.1
T0
M140 S50
M105
M190 S50
M104 S205
M104 T1 S180
M105
M109 S205
M105
M109 T1 S180
M82 ;absolute extrusion mode
G28 ;Home
G1 Z15.0 F6000 ;Move the platform down 15mm
;Prime the extruder
G92 E0
G1 F200 E3
G92 E0
G92 E0
G92 E0
G1 F4200 E-8
;LAYER_COUNT:110
;LAYER:0
M107
G1 F600 Z0.6
G0 F1600 X201.631 Y74.781 Z0.6
;TYPE:SKIRT
G1 F600 Z0.2
G1 F4200 E0
G1 F1200 X202.349 Y74.862 E0.02283
G1 X202.856 Y74.962 E0.03916
G1 X203.502 Y75.144 E0.06037
G1 X205.294 Y75.686 E0.11952
G1 X206.003 Y75.913 E0.14304
G1 X206.487 Y76.113 E0.15959
G1 X207.091 Y76.423 E0.18104
G1 X208.696 Y77.282 E0.23856
G1 X209.364 Y77.65 E0.26266
G1 X209.803 Y77.943 E0.27934
G1 X210.294 Y78.332 E0.29913
G1 X211.727 Y79.507 E0.35768
G1 X212.327 Y80.014 E0.3825
G1 X212.701 Y80.387 E0.39919
G1 X213.127 Y80.889 E0.42
G1 X214.294 Y82.31 E0.4781
G1 X214.763 Y82.898 E0.50186
G1 X215.056 Y83.335 E0.51849
G1 X215.386 Y83.928 E0.53993
G1 X216.269 Y85.578 E0.59906
G1 X216.598 Y86.214 E0.62169
G1 X216.8 Y86.701 E0.63835
G1 X217.014 Y87.367 E0.66045
G1 X217.521 Y89.041 E0.71572
G1 X217.748 Y89.827 E0.74157
G1 X218.055 Y91.317 E0.78963
G1 X218.681 Y94.31 E0.88625
G1 X219.326 Y96.978 E0.97298
G1 X220.047 Y99.63 E1.05982
G1 X220.84 Y102.247 E1.14622
G1 X221.714 Y104.865 E1.23343
G1 X222.658 Y107.444 E1.32021
G1 X223.66 Y109.958 E1.40572
G1 X224.748 Y112.478 E1.49245
G1 X225.905 Y114.968 E1.5792
G1 X227.132 Y117.419 E1.66581
G1 X228.428 Y119.837 E1.75249
G1 X229.788 Y122.212 E1.83897
G1 X231.219 Y124.551 E1.92561
G1 X232.706 Y126.837 E2.01178
G1 X233.916 Y128.596 E2.07924
G1 X234.341 Y129.284 E2.10479
G1 X234.557 Y129.706 E2.11977
G1 X234.763 Y130.195 E2.13653
G1 X234.912 Y130.636 E2.15124
G1 X235.058 Y131.275 E2.17195
G1 X235.126 Y131.733 E2.18658
G1 X235.16 Y132.137 E2.19939
G1 X235.182 Y133.236 E2.23413
G1 X235.19 Y166.677 E3.29077
G1 X235.179 Y167.538 E3.31797
G1 X235.147 Y168.118 E3.33633
G1 X235.064 Y168.715 E3.35537
G1 X234.833 Y169.588 E3.38391
G1 X234.679 Y170.013 E3.39819
G1 X234.503 Y170.408 E3.41185
G1 X234.316 Y170.766 E3.42461
G1 X234.044 Y171.214 E3.44117
G1 X233.788 Y171.576 E3.45518
G1 X233.334 Y172.1 E3.47709
G1 X232.961 Y172.465 E3.49358
G1 X232.63 Y172.748 E3.50734
G1 X232.06 Y173.143 E3.52925
G1 X231.618 Y173.397 E3.54536
G1 X231.266 Y173.572 E3.55778
G1 X230.819 Y173.76 E3.5731
G1 X230.378 Y173.908 E3.5878
G1 X229.721 Y174.059 E3.6091
G1 X229.259 Y174.127 E3.62386
G1 X228.858 Y174.16 E3.63657
G1 X227.765 Y174.182 E3.67111
G1 X172.213 Y174.19 E5.4264
G1 X171.629 Y174.182 E5.44485
G1 X171.007 Y174.155 E5.46452
G1 X170.19 Y174.041 E5.49059
G1 X169.798 Y173.949 E5.50331
G1 X169.361 Y173.817 E5.51774
G1 X168.98 Y173.675 E5.53058
G1 X168.56 Y173.487 E5.54512
G1 X167.87 Y173.096 E5.57018
G1 X167.549 Y172.872 E5.58255
G1 X167.173 Y172.574 E5.59771
G1 X166.876 Y172.307 E5.61033
G1 X166.528 Y171.952 E5.62604
G1 X166.23 Y171.6 E5.64061
G1 X165.846 Y171.043 E5.66199
G1 X165.617 Y170.645 E5.67649
G1 X165.442 Y170.292 E5.68894
G1 X165.236 Y169.803 E5.70571
G1 X165.086 Y169.358 E5.72055
G1 X164.94 Y168.717 E5.74132
G1 X164.863 Y168.189 E5.75818
G1 X164.831 Y167.81 E5.7702
G1 X164.813 Y167.1 E5.79264
G1 X164.81 Y133.256 E6.86201
G1 X164.822 Y132.411 E6.88871
G1 X164.852 Y131.876 E6.90564
G1 X164.96 Y131.165 E6.92837
G1 X165.181 Y130.364 E6.95462
G1 X165.325 Y129.977 E6.96767
G1 X165.683 Y129.236 E6.99367
G1 X166.746 Y127.48 E7.05853
G1 X168.118 Y125.138 E7.1443
G1 X169.454 Y122.704 E7.23203
G1 X170.691 Y120.292 E7.31768
G1 X171.885 Y117.791 E7.40525
G1 X172.987 Y115.302 E7.49125
G1 X174.031 Y112.758 E7.57814
G1 X174.996 Y110.192 E7.66476
G1 X175.879 Y107.633 E7.7503
G1 X176.698 Y105.022 E7.83676
G1 X177.447 Y102.372 E7.92378
G1 X178.117 Y99.721 E8.01017
G1 X178.729 Y96.978 E8.09898
G1 X179.229 Y94.38 E8.18257
G1 X179.79 Y90.868 E8.29495
G1 X179.871 Y90.297 E8.31317
G1 X179.958 Y89.884 E8.32651
G1 X180.155 Y89.182 E8.34954
G1 X180.686 Y87.426 E8.40751
G1 X180.913 Y86.717 E8.43103
G1 X181.113 Y86.232 E8.44761
G1 X181.423 Y85.628 E8.46906
G1 X182.28 Y84.025 E8.5265
G1 X182.657 Y83.344 E8.55109
G1 X182.951 Y82.904 E8.56781
G1 X183.336 Y82.42 E8.58735
G1 X184.507 Y80.992 E8.6457
G1 X185.014 Y80.392 E8.67052
G1 X185.387 Y80.018 E8.68721
G1 X185.889 Y79.592 E8.70802
G1 X187.31 Y78.425 E8.76612
G1 X187.909 Y77.948 E8.79031
G1 X188.342 Y77.658 E8.80678
G1 X188.928 Y77.332 E8.82797
G1 X190.578 Y76.45 E8.88708
G1 X191.214 Y76.121 E8.90971
G1 X191.701 Y75.919 E8.92637
G1 X192.323 Y75.719 E8.94701
G1 X194.078 Y75.186 E9.00497
G1 X194.827 Y74.97 E9.0296
G1 X195.352 Y74.864 E9.04652
G1 X196.011 Y74.789 E9.06748
G1 X197.839 Y74.609 E9.12552
G1 X198.594 Y74.545 E9.14946
G1 X199.125 Y74.545 E9.16624
G1 X199.753 Y74.597 E9.18615
G1 X201.631 Y74.781 E9.24577
G0 F1600 X201.669 Y74.403
G1 F1200 X202.392 Y74.485 E9.26876
G1 X202.959 Y74.596 E9.28702
G1 X203.605 Y74.778 E9.30822
G1 X205.404 Y75.323 E9.36762
G1 X206.119 Y75.551 E9.39133
G1 X206.66 Y75.775 E9.40983
G1 X207.264 Y76.085 E9.43128
G1 X208.875 Y76.947 E9.48901
G1 X209.548 Y77.318 E9.5133
G1 X210.039 Y77.645 E9.53194
G1 X210.53 Y78.034 E9.55173
G1 X211.968 Y79.214 E9.61051
G1 X212.572 Y79.724 E9.63548
G1 X212.991 Y80.141 E9.65416
G1 X213.417 Y80.643 E9.67497
G1 X214.588 Y82.068 E9.73324
G1 X215.061 Y82.661 E9.75721
G1 X215.388 Y83.15 E9.7758
G1 X215.718 Y83.743 E9.79724
G1 X216.604 Y85.399 E9.85658
G1 X216.936 Y86.04 E9.87939
G1 X217.162 Y86.585 E9.89804
G1 X217.376 Y87.251 E9.92014
G1 X217.885 Y88.931 E9.97561
G1 X218.113 Y89.722 E10.00162
G1 X218.428 Y91.243 E10.0507
G1 X219.056 Y94.244 E10.14757
G1 X219.692 Y96.874 E10.23307
G1 X220.414 Y99.529 E10.32001
G1 X221.211 Y102.159 E10.40684
G1 X222.064 Y104.712 E10.49189
G1 X223.015 Y107.314 E10.57942
G1 X224.014 Y109.82 E10.66467
G1 X225.101 Y112.339 E10.75135
G1 X226.249 Y114.807 E10.83736
G1 X227.459 Y117.226 E10.92282
G1 X228.752 Y119.638 E11.00929
G1 X230.126 Y122.036 E11.09662
G1 X231.53 Y124.331 E11.18163
G1 X233.021 Y126.625 E11.26808
G1 X234.229 Y128.38 E11.3354
G1 X234.666 Y129.087 E11.36166
G1 X234.907 Y129.558 E11.37838
G1 X235.113 Y130.047 E11.39514
G1 X235.28 Y130.541 E11.41162
G1 X235.434 Y131.219 E11.43359
G1 X235.502 Y131.677 E11.44822
G1 X235.54 Y132.13 E11.46258
G1 X235.562 Y133.229 E11.49731
G1 X235.57 Y166.677 E12.55417
G1 X235.559 Y167.543 E12.58154
G1 X235.527 Y168.141 E12.60046
G1 X235.438 Y168.78 E12.62085
G1 X235.199 Y169.692 E12.65064
G1 X235.026 Y170.168 E12.66664
G1 X234.85 Y170.563 E12.6803
G1 X234.641 Y170.963 E12.69456
G1 X234.369 Y171.411 E12.71112
G1 X234.082 Y171.816 E12.72681
G1 X233.6 Y172.372 E12.75006
G1 X233.227 Y172.737 E12.76655
G1 X232.856 Y173.053 E12.78195
G1 X232.25 Y173.472 E12.80523
G1 X231.808 Y173.726 E12.82133
G1 X231.413 Y173.922 E12.83527
G1 X230.966 Y174.11 E12.85059
G1 X230.473 Y174.276 E12.86703
G1 X229.776 Y174.435 E12.88961
G1 X229.314 Y174.503 E12.90437
G1 X228.866 Y174.54 E12.91857
G1 X227.773 Y174.562 E12.95312
G1 X172.213 Y174.57 E14.70865
G1 X171.624 Y174.562 E14.72726
G1 X170.99 Y174.534 E14.74732
G1 X170.56 Y174.488 E14.76098
G1 X170.127 Y174.415 E14.77486
G1 X169.688 Y174.312 E14.7891
G1 X169.251 Y174.18 E14.80353
G1 X168.824 Y174.021 E14.81792
G1 X168.404 Y173.833 E14.83246
G1 X168.005 Y173.623 E14.84671
G1 X167.672 Y173.42 E14.85903
G1 X167.313 Y173.17 E14.87286
G1 X166.937 Y172.872 E14.88802
G1 X166.605 Y172.573 E14.90213
G1 X166.257 Y172.218 E14.91784
G1 X165.923 Y171.825 E14.93414
G1 X165.517 Y171.232 E14.95685
G1 X165.288 Y170.834 E14.97135
G1 X165.092 Y170.44 E14.98526
G1 X164.886 Y169.951 E15.00202
G1 X164.718 Y169.452 E15.01866
G1 X164.564 Y168.772 E15.04069
G1 X164.487 Y168.244 E15.05755
G1 X164.451 Y167.819 E15.07103
G1 X164.433 Y167.109 E15.09347
G1 X164.43 Y133.25 E16.16332
G1 X164.442 Y132.405 E16.19002
G1 X164.473 Y131.852 E16.20752
G1 X164.587 Y131.097 E16.23165
G1 X164.817 Y130.255 E16.25922
G1 X164.978 Y129.822 E16.27382
G1 X165.154 Y129.429 E16.28743
G1 X165.358 Y129.039 E16.30133
G1 X166.421 Y127.283 E16.36619
G1 X167.79 Y124.948 E16.45172
G1 X169.115 Y122.532 E16.53878
G1 X170.356 Y120.111 E16.62474
G1 X171.542 Y117.629 E16.71166
G1 X172.628 Y115.176 E16.79643
G1 X173.681 Y112.61 E16.88407
G1 X174.641 Y110.056 E16.97028
G1 X175.511 Y107.536 E17.05451
G1 X176.346 Y104.872 E17.14273
G1 X177.078 Y102.285 E17.22768
G1 X177.751 Y99.62 E17.31453
G1 X178.342 Y96.973 E17.40022
G1 X178.86 Y94.282 E17.48681
G1 X179.415 Y90.808 E17.59797
G1 X179.495 Y90.243 E17.616
G1 X179.592 Y89.781 E17.63092
G1 X179.789 Y89.079 E17.65396
G1 X180.323 Y87.316 E17.71216
G1 X180.551 Y86.602 E17.73585
G1 X180.775 Y86.059 E17.75441
G1 X181.085 Y85.455 E17.77586
G1 X181.945 Y83.846 E17.8335
G1 X182.324 Y83.16 E17.85827
G1 X182.653 Y82.668 E17.87697
G1 X183.038 Y82.184 E17.89651
G1 X184.214 Y80.751 E17.95508
G1 X184.724 Y80.147 E17.98006
G1 X185.141 Y79.728 E17.99874
G1 X185.643 Y79.302 E18.01954
G1 X187.068 Y78.131 E18.07782
G1 X187.673 Y77.651 E18.10222
G1 X188.157 Y77.326 E18.12064
G1 X188.743 Y77 E18.14183
G1 X190.399 Y76.115 E18.20116
G1 X191.04 Y75.783 E18.22397
G1 X191.584 Y75.557 E18.24258
G1 X192.206 Y75.357 E18.26323
G1 X193.968 Y74.823 E18.3214
G1 X194.721 Y74.604 E18.34618
G1 X195.309 Y74.487 E18.36512
G1 X195.968 Y74.412 E18.38608
G1 X197.802 Y74.231 E18.44431
G1 X198.562 Y74.167 E18.46841
G1 X199.157 Y74.166 E18.48721
G1 X199.785 Y74.218 E18.50712
G1 X201.669 Y74.403 E18.56694
G0 F1600 X201.706 Y74.025
G1 F1200 X202.435 Y74.107 E18.59012
G1 X203.062 Y74.23 E18.61031
G1 X203.708 Y74.412 E18.63151
G1 X205.514 Y74.959 E18.69114
G1 X206.235 Y75.189 E18.71505
G1 X206.834 Y75.437 E18.73553
G1 X207.438 Y75.747 E18.75699
G1 X209.054 Y76.612 E18.8149
G1 X209.731 Y76.985 E18.83932
G1 X210.275 Y77.347 E18.85997
G1 X210.766 Y77.736 E18.87976
G1 X212.209 Y78.92 E18.93874
G1 X212.818 Y79.433 E18.9639
G1 X213.281 Y79.895 E18.98457
G1 X213.707 Y80.397 E19.00537
G1 X214.882 Y81.827 E19.06385
G1 X215.358 Y82.424 E19.08798
G1 X215.721 Y82.965 E19.10856
G1 X216.051 Y83.558 E19.13001
G1 X216.939 Y85.22 E19.18955
G1 X217.273 Y85.866 E19.21253
G1 X217.524 Y86.469 E19.23316
G1 X217.738 Y87.135 E19.25527
G1 X218.249 Y88.821 E19.31093
G1 X218.478 Y89.617 E19.3371
G1 X218.8 Y91.169 E19.38719
G1 X219.429 Y94.172 E19.48413
G1 X220.061 Y96.785 E19.56908
G1 X220.78 Y99.428 E19.65562
G1 X221.567 Y102.027 E19.74143
G1 X222.421 Y104.582 E19.82655
G1 X223.373 Y107.184 E19.91409
G1 X224.358 Y109.658 E19.99823
G1 X225.448 Y112.182 E20.0851
G1 X226.594 Y114.647 E20.17099
G1 X227.794 Y117.046 E20.25575
G1 X229.099 Y119.481 E20.34304
G1 X230.432 Y121.808 E20.42778
G1 X231.857 Y124.137 E20.51405
G1 X233.349 Y126.431 E20.60052
G1 X234.542 Y128.165 E20.66702
G1 X234.99 Y128.889 E20.69392
G1 X235.257 Y129.411 E20.71245
G1 X235.463 Y129.9 E20.72921
G1 X235.648 Y130.446 E20.74743
G1 X235.81 Y131.163 E20.77066
G1 X235.878 Y131.621 E20.78529
G1 X235.92 Y132.122 E20.80117
G1 X235.942 Y133.221 E20.8359
G1 X235.95 Y166.677 E21.89302
G1 X235.939 Y167.548 E21.92054
G1 X235.906 Y168.164 E21.94003
G1 X235.812 Y168.845 E21.96175
G1 X235.72 Y169.248 E21.97482
G1 X235.564 Y169.796 E21.99282
G1 X235.373 Y170.323 E22.01053
G1 X235.197 Y170.718 E22.02419
G1 X234.965 Y171.16 E22.03997
G1 X234.693 Y171.608 E22.05653
G1 X234.376 Y172.057 E22.07389
G1 X233.866 Y172.643 E22.09844
G1 X233.493 Y173.008 E22.11493
G1 X233.082 Y173.358 E22.13199
G1 X232.439 Y173.802 E22.15668
G1 X231.997 Y174.056 E22.17278
G1 X231.56 Y174.272 E22.18819
G1 X231.113 Y174.46 E22.20351
G1 X230.568 Y174.644 E22.22168
G1 X229.831 Y174.811 E22.24556
G1 X229.369 Y174.879 E22.26032
G1 X228.873 Y174.92 E22.27604
G1 X227.78 Y174.942 E22.31059
G1 X172.213 Y174.95 E24.06634
G1 X171.618 Y174.942 E24.08515
G1 X170.972 Y174.914 E24.10558
G1 X170.496 Y174.863 E24.1207
G1 X170.063 Y174.79 E24.13458
G1 X169.578 Y174.676 E24.15032
G1 X169.141 Y174.544 E24.16474
G1 X168.669 Y174.368 E24.18066
G1 X168.249 Y174.18 E24.1952
G1 X167.807 Y173.948 E24.21097
G1 X167.474 Y173.745 E24.2233
G1 X167.077 Y173.468 E24.23859
G1 X166.701 Y173.17 E24.25375
G1 X166.333 Y172.839 E24.26939
G1 X165.985 Y172.484 E24.2851
G1 X165.616 Y172.049 E24.30312
G1 X165.187 Y171.422 E24.32713
G1 X164.958 Y171.024 E24.34163
G1 X164.742 Y170.587 E24.35704
G1 X164.536 Y170.098 E24.3738
G1 X164.35 Y169.546 E24.39221
G1 X164.188 Y168.827 E24.4155
G1 X164.111 Y168.299 E24.43236
G1 X164.071 Y167.829 E24.44726
G1 X164.053 Y167.119 E24.4697
G1 X164.05 Y133.245 E25.54002
G1 X164.062 Y132.4 E25.56673
G1 X164.094 Y131.828 E25.58483
G1 X164.213 Y131.028 E25.61038
G1 X164.453 Y130.146 E25.63926
G1 X164.631 Y129.667 E25.65541
G1 X164.807 Y129.274 E25.66902
G1 X165.033 Y128.842 E25.68442
G1 X166.096 Y127.086 E25.74928
G1 X167.469 Y124.742 E25.83512
G1 X168.776 Y122.361 E25.92094
G1 X170.008 Y119.958 E26.00626
G1 X171.191 Y117.481 E26.093
G1 X172.289 Y115 E26.17872
G1 X173.331 Y112.461 E26.26544
G1 X174.267 Y109.972 E26.34946
G1 X175.167 Y107.367 E26.43655
G1 X175.969 Y104.806 E26.52134
G1 X176.71 Y102.188 E26.60731
G1 X177.384 Y99.52 E26.69426
G1 X177.972 Y96.886 E26.77954
G1 X178.486 Y94.213 E26.86555
G1 X179.029 Y90.816 E26.97424
G1 X179.118 Y90.19 E26.99422
G1 X179.226 Y89.679 E27.01073
G1 X179.423 Y88.977 E27.03376
G1 X179.959 Y87.206 E27.09223
G1 X180.189 Y86.486 E27.11611
G1 X180.437 Y85.885 E27.13665
G1 X180.747 Y85.281 E27.15811
G1 X181.61 Y83.666 E27.21596
G1 X181.992 Y82.976 E27.24088
G1 X182.356 Y82.431 E27.26159
G1 X182.741 Y81.947 E27.28113
G1 X183.92 Y80.51 E27.33987
G1 X184.433 Y79.901 E27.36503
G1 X184.895 Y79.438 E27.38569
G1 X185.397 Y79.012 E27.4065
G1 X186.827 Y77.837 E27.46498
G1 X187.436 Y77.353 E27.48956
G1 X187.973 Y76.994 E27.50997
G1 X188.559 Y76.668 E27.53115
G1 X190.22 Y75.78 E27.59067
G1 X190.866 Y75.446 E27.61364
G1 X191.468 Y75.196 E27.63424
G1 X192.09 Y74.996 E27.65489
G1 X193.858 Y74.459 E27.71327
G1 X194.616 Y74.239 E27.73821
G1 X195.266 Y74.109 E27.75915
G1 X195.925 Y74.034 E27.78011
G1 X197.764 Y73.853 E27.8385
G1 X198.53 Y73.788 E27.86279
G1 X199.188 Y73.787 E27.88358
G1 X199.816 Y73.839 E27.90349
G1 X201.706 Y74.025 E27.9635
G1 F4200 E19.9635
G0 F1600 X184.163 Y87.671
G1 F4200 E27.9635
G1 F1200 X185.549 Y85.078 E28.0564
G1 X185.653 Y84.923 E28.0623
G1 X187.519 Y82.65 E28.15522
G1 X187.65 Y82.519 E28.16107
G1 X189.923 Y80.653 E28.25399
G1 X190.078 Y80.549 E28.25989
G1 X192.671 Y79.163 E28.35279
G1 X192.843 Y79.092 E28.35867
G1 X195.657 Y78.239 E28.45158
G1 X195.84 Y78.203 E28.45747
G1 X198.767 Y77.915 E28.55041
G1 X198.953 Y77.915 E28.55628
G1 X202.062 Y78.239 E28.65505
G1 X204.876 Y79.092 E28.74796
G1 X205.048 Y79.163 E28.75384
G1 X207.641 Y80.549 E28.84674
G1 X207.796 Y80.653 E28.85264
G1 X210.069 Y82.519 E28.94556
G1 X210.2 Y82.65 E28.95141
G1 X212.066 Y84.923 E29.04434
G1 X212.17 Y85.078 E29.05023
G1 X213.556 Y87.671 E29.14314
G1 X213.627 Y87.843 E29.14901
G1 X214.48 Y90.657 E29.24192
G1 X214.516 Y90.84 E29.24782
G1 X214.805 Y93.767 E29.34075
G1 X214.805 Y93.953 E29.34663
G1 X214.516 Y96.879 E29.43953
G1 X214.48 Y97.062 E29.44543
G1 X213.627 Y99.876 E29.53833
G1 X213.556 Y100.048 E29.54421
G1 X212.17 Y102.641 E29.63712
G1 X212.066 Y102.796 E29.64301
G1 X210.2 Y105.069 E29.73594
G1 X210.069 Y105.2 E29.74179
G1 X207.796 Y107.066 E29.83471
G1 X207.641 Y107.17 E29.84061
G1 X205.048 Y108.556 E29.93351
G1 X204.876 Y108.627 E29.93939
G1 X202.062 Y109.48 E30.0323
G1 X201.879 Y109.516 E30.03819
G1 X198.953 Y109.805 E30.13109
G1 X198.767 Y109.805 E30.13697
G1 X195.84 Y109.516 E30.22991
G1 X195.657 Y109.48 E30.2358
G1 X192.843 Y108.627 E30.32871
G1 X192.671 Y108.556 E30.33459
G1 X190.078 Y107.17 E30.42749
G1 X189.923 Y107.066 E30.43339
G1 X187.65 Y105.2 E30.52631
G1 X187.519 Y105.069 E30.53216
G1 X185.653 Y102.796 E30.62509
G1 X185.549 Y102.641 E30.63098
G1 X184.163 Y100.048 E30.72388
G1 X184.092 Y99.876 E30.72976
G1 X183.239 Y97.062 E30.82267
G1 X183.203 Y96.879 E30.82857
G1 X182.915 Y93.953 E30.92147
G1 X182.915 Y93.767 E30.92734
G1 X183.203 Y90.84 E31.02027
G1 X183.239 Y90.657 E31.02617
G1 X184.092 Y87.843 E31.11908
